<?xml version="1.0" encoding="UTF-8"?>
<map version="1.10" tiledversion="1.11.2" orientation="orthogonal" renderorder="right-down" width="64" height="48" tilewidth="16" tileheight="16" infinite="0" nextlayerid="21" nextobjectid="432">
 <editorsettings>
  <export target="area-ash.lua" format="lua"/>
 </editorsettings>
 <tileset firstgid="1" name="hills-ash" tilewidth="16" tileheight="16" tilecount="99" columns="11">
  <image source="../../Documents/featherless/upcsg-gamejam-teammupss/maps/tilesets/hills-ash.png" width="176" height="144"/>
  <wangsets>
   <wangset name="Hills" type="mixed" tile="-1">
    <wangcolor name="" color="#ff0000" tile="-1" probability="1"/>
    <wangtile tileid="0" wangid="0,0,0,1,0,0,0,0"/>
    <wangtile tileid="1" wangid="0,0,0,1,1,1,0,0"/>
    <wangtile tileid="2" wangid="0,0,0,0,0,1,0,0"/>
    <wangtile tileid="11" wangid="0,1,1,1,0,0,0,0"/>
    <wangtile tileid="12" wangid="1,1,1,1,1,1,1,1"/>
    <wangtile tileid="13" wangid="0,0,0,0,0,1,1,1"/>
    <wangtile tileid="16" wangid="1,1,0,0,0,1,1,1"/>
    <wangtile tileid="17" wangid="1,1,1,1,0,0,0,1"/>
    <wangtile tileid="22" wangid="0,1,0,0,0,0,0,0"/>
    <wangtile tileid="23" wangid="1,1,0,0,0,0,0,1"/>
    <wangtile tileid="24" wangid="0,0,0,0,0,0,0,1"/>
    <wangtile tileid="27" wangid="0,0,0,1,1,1,1,1"/>
    <wangtile tileid="28" wangid="0,1,1,1,1,1,0,0"/>
   </wangset>
  </wangsets>
 </tileset>
 <tileset firstgid="100" name="lava" tilewidth="16" tileheight="16" tilecount="4" columns="4">
  <image source="../../Documents/featherless/upcsg-gamejam-teammupss/maps/tilesets/lava.png" width="64" height="16"/>
 </tileset>
 <tileset firstgid="104" name="dirt" tilewidth="16" tileheight="16" tilecount="77" columns="11">
  <image source="../../Documents/featherless/upcsg-gamejam-teammupss/maps/tilesets/dirt.png" width="176" height="112"/>
 </tileset>
 <tileset firstgid="181" name="grass-ash" tilewidth="16" tileheight="16" tilecount="77" columns="11">
  <image source="../../Documents/featherless/upcsg-gamejam-teammupss/maps/tilesets/grass-ash.png" width="176" height="112"/>
 </tileset>
 <tileset firstgid="258" name="biome-ash" tilewidth="16" tileheight="16" tilecount="45" columns="9">
  <image source="biome-ash.png" width="144" height="80"/>
 </tileset>
 <layer id="1" name="Background" width="64" height="48">
  <data encoding="csv">
62,69,67,71,68,68,61,74,74,56,67,60,71,74,69,69,58,72,58,72,61,57,61,68,68,57,58,61,69,58,67,60,57,57,67,57,62,61,56,72,56,58,74,71,71,69,67,67,72,57,56,74,67,63,56,60,68,60,72,56,63,61,68,71,
58,62,68,74,68,62,58,71,57,57,71,68,67,68,58,69,60,72,62,67,60,58,63,69,71,61,74,62,63,63,69,61,63,61,57,62,62,71,63,56,69,58,57,63,71,62,60,61,63,61,72,56,74,56,68,73,61,73,68,72,60,58,56,74,
60,69,73,71,58,56,57,71,72,60,74,61,74,58,74,74,63,63,63,69,71,73,72,61,74,56,72,60,62,67,71,56,62,61,57,61,62,69,57,62,58,63,56,60,56,63,60,73,57,71,71,57,63,67,62,60,73,62,73,62,72,62,62,63,
58,68,73,67,60,69,69,73,57,71,67,72,60,68,57,68,57,74,69,74,69,56,60,56,57,62,62,73,62,58,58,72,56,68,63,68,56,58,69,73,68,73,57,57,74,56,63,68,60,67,68,72,63,58,73,68,69,58,63,63,62,58,58,62,
61,73,62,68,73,56,69,74,74,69,74,61,61,62,71,69,74,63,60,57,74,60,56,63,58,58,74,72,57,71,58,71,67,63,69,60,67,63,60,67,57,72,63,57,62,61,71,63,61,73,61,71,56,61,71,69,68,73,73,58,57,57,60,63,
60,68,72,57,71,62,58,74,72,72,58,73,68,72,57,71,63,57,67,73,71,60,68,60,60,60,56,63,61,58,69,57,71,68,72,58,62,71,61,73,56,74,69,60,69,71,60,72,63,73,67,72,73,63,73,56,69,56,68,56,57,63,69,68,
69,61,56,63,73,61,62,61,74,72,56,72,57,71,61,57,60,60,68,67,63,61,57,72,58,69,72,61,60,71,57,67,58,60,67,67,58,57,71,68,73,63,62,73,71,62,60,58,56,57,67,71,63,68,72,71,56,69,60,56,56,72,69,74,
60,56,58,62,72,74,62,69,56,57,56,68,57,68,67,63,56,67,71,63,56,63,56,56,57,71,58,69,58,57,71,74,74,56,56,72,62,68,58,57,71,61,69,57,73,56,68,58,67,61,58,67,67,58,62,63,68,58,63,63,71,58,74,62,
61,69,57,57,69,58,56,69,61,56,67,72,73,60,73,73,62,56,62,58,62,67,67,61,69,58,74,61,68,63,57,68,62,71,61,63,57,72,67,67,69,57,74,73,72,60,71,61,63,68,69,67,69,74,74,67,56,62,67,71,67,58,56,62,
71,57,68,71,61,61,72,56,73,56,72,69,56,60,69,63,67,68,62,61,60,63,69,67,57,69,57,57,63,74,62,68,68,63,60,62,67,58,68,71,74,58,68,57,57,67,60,69,73,73,58,73,58,68,60,58,61,60,68,61,63,63,56,71,
60,68,72,57,73,61,58,57,69,57,69,60,58,68,68,57,74,61,69,74,57,69,60,67,57,74,62,67,68,74,68,63,58,73,71,73,56,56,71,56,71,68,57,74,71,73,68,72,67,57,61,68,72,74,72,62,72,71,69,68,57,72,69,63,
68,67,57,74,67,61,57,69,71,69,56,68,74,72,69,60,69,68,62,74,68,62,71,60,60,62,61,60,67,56,58,58,63,68,63,67,68,68,62,56,57,57,58,58,62,61,74,62,62,67,56,58,69,73,57,69,73,68,71,58,61,61,72,62,
74,60,62,56,74,74,67,72,58,56,58,67,62,62,56,71,72,67,60,74,74,61,63,62,58,58,62,67,56,73,56,71,60,69,73,58,62,69,56,68,58,69,58,74,60,73,60,63,63,71,68,62,61,62,56,60,57,67,71,56,63,60,71,73,
58,57,57,73,58,72,57,74,68,62,72,62,73,56,57,74,57,60,69,60,60,63,69,74,57,72,73,62,60,68,73,56,61,60,57,74,67,74,60,72,72,60,71,71,61,74,60,73,71,67,63,57,67,73,67,67,60,68,60,63,74,61,62,61,
72,73,73,57,56,58,71,71,69,69,67,58,57,58,71,74,60,57,60,73,62,67,74,67,61,56,67,74,72,61,74,63,73,62,56,72,58,62,69,72,69,60,61,61,61,67,61,68,57,57,67,60,69,72,56,72,72,73,56,73,69,74,74,72,
74,60,67,74,69,58,60,60,62,68,60,57,73,69,61,60,60,67,57,57,56,69,72,61,56,69,71,58,68,71,69,67,71,69,56,57,58,60,69,69,67,74,63,60,71,68,72,71,71,57,74,74,71,68,58,67,63,73,69,58,58,68,57,72,
72,74,74,74,69,74,74,63,56,69,62,58,61,61,69,67,61,69,67,58,74,68,57,63,60,71,69,69,60,72,67,71,71,68,60,69,57,61,56,67,71,69,58,57,63,67,68,74,60,69,58,72,56,62,72,57,60,56,67,69,62,68,68,71,
74,63,58,67,60,72,71,68,72,56,58,73,63,74,72,69,63,61,71,63,69,72,57,62,60,72,63,74,68,73,73,57,58,58,60,56,56,56,61,71,60,63,71,69,72,67,67,74,61,63,60,60,62,73,60,72,61,74,72,57,68,69,57,56,
73,63,67,62,60,74,58,56,74,71,69,67,57,72,63,72,57,62,73,57,71,63,73,73,63,62,58,60,71,69,57,73,62,63,67,60,56,67,63,73,62,62,69,57,69,60,63,56,62,56,56,73,71,68,58,74,71,73,71,63,57,74,63,69,
67,73,56,74,61,67,72,60,57,69,63,58,71,57,73,57,62,60,73,57,58,63,69,67,73,67,60,69,58,68,57,68,58,69,63,67,62,57,71,58,58,58,60,61,69,63,71,57,67,61,73,67,73,62,68,67,73,74,74,63,56,63,60,68,
72,72,72,69,61,60,72,69,56,60,72,61,71,61,74,62,63,69,67,62,67,63,56,56,69,60,73,67,61,60,57,60,63,60,60,69,69,72,74,73,62,61,68,71,69,62,56,67,62,71,62,62,68,73,62,71,61,72,71,71,58,68,71,74,
56,69,61,58,73,63,57,62,67,63,68,63,69,57,73,68,72,72,71,60,73,68,63,62,72,68,61,62,57,62,74,68,72,74,56,56,74,71,69,73,73,58,73,63,63,63,57,68,56,67,74,73,62,61,56,69,67,61,71,57,56,68,73,73,
60,57,56,74,73,67,61,69,60,71,58,69,57,57,72,72,73,58,60,71,63,57,74,69,61,62,74,58,63,56,72,67,71,61,58,68,69,56,73,69,57,68,62,73,69,61,57,67,71,57,58,63,74,56,68,57,67,63,57,56,61,74,61,68,
74,58,73,58,72,63,72,56,62,57,72,58,61,72,71,61,73,71,62,73,58,74,71,56,67,63,57,67,67,62,73,57,68,68,74,56,71,72,68,61,61,62,58,68,60,69,69,63,71,67,67,58,71,62,67,72,74,60,72,62,73,60,71,72,
63,71,69,61,67,72,62,68,74,73,72,60,68,61,72,63,61,67,60,58,69,57,73,67,72,67,58,56,58,72,56,71,62,73,67,60,67,72,69,67,68,69,58,73,62,72,69,67,73,67,68,71,73,57,58,57,71,69,58,71,57,60,58,58,
58,67,73,56,58,57,56,69,57,71,68,74,67,71,58,58,56,60,74,74,68,57,56,69,71,57,57,72,60,63,74,67,61,63,68,71,68,62,68,61,73,62,58,58,58,69,57,74,56,67,58,57,61,68,61,60,60,71,62,71,63,73,56,56,
73,63,62,74,62,56,60,67,71,57,63,56,63,71,69,69,67,74,73,62,73,71,73,73,62,69,71,62,56,73,72,63,67,69,68,63,68,68,73,62,71,67,62,69,73,61,58,57,58,74,71,69,67,61,67,69,71,57,57,56,69,62,61,61,
67,62,61,63,58,71,72,67,61,72,73,73,73,69,68,68,58,67,60,68,74,68,74,57,72,74,57,60,56,58,73,58,69,56,56,69,56,57,60,74,58,73,61,57,69,60,63,61,58,61,60,63,67,62,72,69,56,60,73,67,62,72,57,56,
72,71,57,56,56,57,73,71,72,57,67,62,71,74,73,58,57,58,58,61,58,74,69,61,56,72,56,56,71,68,57,69,57,72,74,68,71,56,72,57,63,56,71,69,56,73,69,72,63,60,57,61,57,74,62,61,58,72,60,63,62,61,73,57,
60,56,72,57,56,72,69,56,57,58,56,69,72,74,67,57,63,72,72,71,56,60,56,57,63,63,67,72,69,57,68,72,61,72,67,74,73,62,57,63,74,56,57,63,72,69,74,74,71,60,57,60,68,60,67,60,63,68,56,58,73,72,72,73,
72,63,56,69,68,63,67,74,69,68,60,69,61,61,58,71,58,68,74,67,60,56,61,57,67,73,60,67,72,73,68,62,58,58,73,57,72,56,58,62,73,68,69,61,62,68,74,57,60,61,57,63,71,60,57,68,68,57,61,60,58,69,72,62,
73,60,60,69,67,73,67,62,62,56,71,74,58,69,69,72,61,58,57,56,71,61,67,60,57,72,57,63,63,58,73,72,71,63,67,58,57,72,57,74,67,57,69,69,69,74,60,74,60,72,56,58,72,69,69,58,62,72,73,72,61,56,58,61,
71,74,63,74,63,57,58,63,68,72,58,61,61,63,67,60,60,61,57,74,71,61,56,74,61,57,72,56,67,72,67,69,72,57,58,63,72,63,60,73,72,56,63,63,69,57,60,61,56,67,71,57,56,60,67,68,74,56,60,63,56,73,74,71,
57,57,69,58,63,62,57,73,56,68,57,72,62,63,57,56,74,57,71,72,72,71,69,67,57,60,67,68,56,69,68,57,74,67,60,69,74,63,71,74,71,57,63,68,62,72,74,74,74,73,60,72,72,56,73,58,72,61,58,68,62,69,62,60,
60,61,71,72,56,57,57,71,57,60,57,63,67,71,68,71,56,56,60,58,69,72,71,60,72,67,72,56,68,71,57,72,67,74,67,62,69,73,58,74,60,73,61,62,73,58,73,68,56,67,69,61,61,60,57,68,67,57,63,74,60,60,58,57,
74,72,61,71,68,56,73,60,58,71,74,62,68,56,67,73,61,69,69,71,72,69,71,61,58,69,68,69,68,63,57,62,71,61,69,56,73,73,72,58,61,58,62,68,58,56,73,72,69,62,58,73,71,62,61,72,68,73,68,56,71,74,71,60,
60,68,68,56,60,69,60,73,60,67,58,57,61,68,72,62,56,62,71,72,69,69,56,73,57,74,60,73,67,57,61,68,72,74,73,57,61,61,71,68,60,74,57,62,62,73,74,74,61,57,69,71,67,69,71,63,68,67,73,56,60,73,58,74,
56,56,74,63,56,56,74,60,63,69,67,56,71,72,68,56,72,63,61,72,69,71,67,57,67,73,56,58,71,68,63,68,73,72,60,74,73,63,63,61,63,74,74,73,61,61,62,63,63,63,60,68,68,58,61,69,57,68,67,58,74,74,72,60,
58,74,73,74,68,69,72,72,74,63,69,61,57,60,61,56,72,63,63,58,63,74,72,60,62,71,58,71,61,57,69,56,72,56,62,69,60,73,71,60,71,68,63,73,74,56,58,67,71,63,62,68,69,61,57,74,73,63,69,60,67,56,74,74,
68,61,58,68,63,74,73,57,74,67,62,67,69,56,69,62,73,56,69,60,69,61,72,63,60,67,63,68,74,57,56,67,67,60,63,60,63,60,62,73,61,61,67,58,74,71,58,56,56,60,68,69,68,61,57,67,69,63,74,57,56,61,68,71,
57,69,74,62,71,61,62,61,60,71,72,72,73,68,60,57,63,69,57,72,73,67,74,73,56,72,73,56,74,62,60,74,58,67,63,73,74,73,58,68,58,58,67,57,62,58,58,58,60,73,74,67,71,60,58,72,61,57,74,56,74,73,74,60,
69,57,67,58,61,72,69,68,74,69,56,69,56,71,74,72,71,63,61,58,57,62,61,71,60,60,57,57,69,60,61,68,61,58,73,74,57,72,58,72,73,67,58,72,62,56,74,67,72,69,72,58,60,61,68,72,73,71,74,74,71,73,60,58,
61,57,73,74,72,67,56,68,74,74,60,69,68,68,62,58,60,67,62,71,74,57,69,67,67,62,67,56,63,73,74,57,62,61,61,60,62,63,71,62,68,63,69,73,57,72,63,62,62,67,67,58,72,62,69,74,57,60,58,58,61,67,69,67,
68,63,58,74,69,56,72,74,63,69,60,60,60,74,58,71,71,61,62,63,57,71,62,69,57,60,69,72,69,63,71,74,58,62,68,71,68,56,63,71,71,73,61,61,72,71,69,58,71,69,68,62,58,74,68,73,68,67,63,60,69,58,73,61,
63,73,58,62,58,73,56,67,74,68,74,74,58,73,67,58,61,74,56,74,71,56,68,74,58,60,57,63,60,62,73,63,69,60,56,74,73,58,56,68,63,56,62,71,60,61,71,60,60,73,71,57,68,63,58,74,56,61,71,69,61,58,58,58,
74,69,74,56,62,69,68,74,63,58,67,56,63,73,67,71,58,62,61,57,56,67,60,57,58,57,61,58,74,72,56,68,62,57,57,72,72,67,69,73,58,72,68,68,73,62,58,58,56,62,68,71,68,73,68,56,67,73,62,68,68,68,67,74,
63,73,63,61,74,60,74,67,61,74,69,60,68,68,71,71,72,63,68,56,67,68,74,73,74,60,58,60,60,58,61,63,61,61,74,72,69,71,61,69,73,67,62,62,73,72,61,62,58,60,68,63,72,62,62,73,69,68,67,73,73,74,72,73,
57,63,63,73,62,67,63,71,56,62,63,56,60,73,63,74,73,74,74,62,60,58,56,56,74,57,58,71,68,69,67,69,60,60,71,57,60,60,62,74,57,73,69,63,71,63,56,74,67,74,73,63,56,67,62,69,57,61,60,57,57,68,61,56
</data>
 </layer>
 <layer id="10" name="Lava" width="64" height="48">
  <data encoding="csv">
0,0,0,0,0,0,0,0,0,0,0,0,0,0,0,0,0,0,0,0,0,0,0,0,0,0,0,0,0,0,0,0,100,101,102,103,103,102,103,103,103,103,0,0,0,0,0,0,0,0,0,100,100,100,100,101,102,103,100,100,100,101,102,103,
0,0,0,0,0,0,0,0,0,0,0,0,0,0,0,0,0,0,0,0,0,0,0,0,0,0,0,0,0,0,0,0,0,100,101,102,103,101,102,103,103,102,103,0,0,0,0,100,100,100,100,100,101,102,103,0,0,0,0,0,100,100,101,102,
0,0,0,0,0,0,0,100,101,102,103,0,0,0,0,0,0,0,0,0,0,0,0,0,0,0,0,0,0,0,0,0,0,100,101,102,103,103,100,101,102,103,103,0,100,101,102,103,101,102,103,0,0,0,0,0,0,0,0,0,0,100,100,101,
0,0,0,0,0,0,100,100,101,102,103,0,0,0,0,0,0,0,0,0,0,0,0,0,0,0,0,0,0,0,0,0,0,0,100,101,102,103,103,101,102,103,100,101,102,103,103,103,0,0,0,0,0,0,0,0,0,0,0,0,0,0,100,101,
0,0,0,0,0,100,100,100,100,100,101,100,100,100,100,101,100,101,102,103,0,0,0,0,0,0,0,0,0,0,0,0,0,0,0,100,101,102,103,103,103,102,103,103,102,103,102,103,0,0,0,0,0,0,0,0,0,0,0,0,0,0,100,101,
0,0,0,0,0,100,101,102,103,100,100,100,101,102,100,100,100,101,102,103,103,0,0,0,0,0,0,0,0,0,0,0,0,0,0,0,100,101,102,103,102,103,103,103,103,103,102,103,0,0,0,0,0,0,0,0,0,0,0,0,0,0,100,101,
0,0,0,0,100,100,101,102,100,101,102,103,103,103,103,103,101,102,103,103,0,0,0,0,0,0,0,0,0,0,0,0,0,0,0,0,0,0,100,101,102,103,103,103,100,100,101,102,103,103,103,103,0,0,0,0,0,0,0,0,0,0,100,101,
0,0,0,0,100,101,100,100,101,102,103,103,101,102,103,102,103,103,103,0,0,0,0,0,0,0,0,0,0,0,0,0,0,0,0,0,0,0,0,100,101,102,103,103,103,103,100,101,102,103,102,103,0,0,0,0,0,0,0,0,0,0,100,100,
0,0,0,0,100,101,102,100,101,102,103,100,101,102,103,103,103,0,0,0,0,0,0,0,0,0,0,0,0,0,0,0,0,0,0,0,0,0,0,100,101,102,103,102,103,103,103,102,103,103,102,103,103,103,103,0,0,0,0,0,0,0,0,100,
0,0,0,0,100,101,102,100,101,102,103,100,101,102,103,0,0,0,0,0,0,0,0,0,0,0,0,0,0,0,0,0,0,0,0,0,0,0,0,0,0,100,101,102,103,103,102,103,102,103,102,103,103,103,103,103,0,0,0,0,0,0,100,101,
0,0,0,0,100,101,102,103,0,0,0,0,0,0,0,0,0,0,0,0,0,0,0,0,0,0,0,0,0,0,0,0,0,0,0,0,0,0,0,0,0,100,101,102,103,103,103,102,103,100,101,102,103,103,103,103,0,0,0,0,0,0,100,101,
0,0,0,100,100,101,102,103,0,0,0,0,0,0,0,0,0,0,0,0,0,0,0,0,0,0,0,0,0,0,0,0,0,0,0,0,100,100,101,102,103,100,101,102,103,103,103,103,100,101,102,103,102,103,103,103,0,0,0,0,0,100,101,102,
0,0,0,100,101,102,103,0,0,0,0,0,0,0,0,0,0,0,0,0,0,0,0,0,0,0,0,0,0,0,0,0,0,0,0,0,100,100,101,102,103,0,100,101,102,103,102,103,103,101,102,103,101,102,103,103,103,0,0,0,0,100,101,102,
0,0,0,100,101,102,103,0,0,0,0,0,0,0,0,0,0,0,0,0,0,0,0,0,0,0,0,0,0,0,0,0,0,0,0,100,101,102,103,100,100,101,102,103,100,101,102,103,102,103,103,100,101,102,103,103,103,103,103,100,101,102,103,101,
0,0,0,0,0,0,0,0,0,0,0,0,0,0,0,0,0,0,0,0,0,0,0,0,0,0,0,0,0,0,0,0,0,0,0,100,101,102,103,103,100,100,101,102,103,0,0,0,0,0,0,100,101,102,103,103,103,103,103,100,100,101,102,103,
0,0,0,0,0,0,0,0,0,0,0,0,0,0,0,0,0,0,0,0,0,0,0,0,0,0,0,0,0,0,0,0,0,0,0,0,100,101,102,103,103,100,101,102,100,101,102,103,0,0,0,0,100,101,102,103,103,103,103,100,100,101,102,100,
0,0,0,0,0,0,0,0,0,0,0,0,0,0,0,0,0,0,0,0,0,0,0,0,0,0,0,0,0,0,0,0,0,0,0,0,0,100,101,102,103,103,100,100,100,100,101,102,103,0,0,0,100,101,102,103,103,103,103,103,102,103,103,103,
0,0,0,0,0,0,0,0,0,0,0,0,0,0,0,0,0,0,0,0,0,0,0,0,0,0,0,0,0,0,0,0,0,0,0,0,0,0,100,101,102,103,103,100,100,100,101,102,103,0,0,0,0,100,101,102,103,103,103,103,103,103,103,101,
0,0,0,0,0,0,0,0,0,0,0,0,0,0,0,0,0,0,0,0,0,0,0,0,0,0,0,0,0,0,0,0,0,0,0,0,0,0,0,100,101,102,103,103,103,102,103,102,103,0,0,0,0,0,100,101,102,103,103,103,102,103,103,103,
0,0,0,0,0,0,0,0,0,0,0,0,0,0,0,0,0,0,0,0,0,0,0,0,0,0,0,0,0,0,0,0,0,0,0,0,0,0,0,0,0,0,0,0,0,0,0,0,0,0,0,0,0,0,0,100,101,102,103,103,103,102,103,103,
0,0,0,0,0,0,0,0,0,0,0,0,0,0,0,0,0,0,0,0,0,0,0,0,0,0,0,0,0,0,0,0,0,0,0,0,0,0,0,0,0,0,0,0,0,0,0,0,0,0,0,0,0,0,0,0,100,101,102,103,102,103,103,102,
0,0,0,0,0,0,0,0,0,0,0,0,0,0,0,0,0,0,0,0,0,0,0,0,0,0,0,0,0,0,0,0,0,0,0,0,0,0,0,0,0,0,0,0,0,0,0,0,0,0,0,0,0,0,0,0,0,0,100,101,102,103,103,103,
0,0,0,0,0,0,0,0,0,0,0,0,0,0,0,0,0,0,0,0,0,0,0,0,0,0,0,0,0,0,0,0,0,0,0,0,0,0,0,0,0,0,0,0,0,0,0,0,0,0,0,0,0,0,0,0,0,0,0,100,101,102,103,103,
0,0,0,0,0,0,0,0,0,0,0,0,0,0,0,0,0,0,0,0,0,0,0,0,0,0,0,0,0,0,0,0,0,0,0,0,0,0,0,0,0,0,0,0,0,0,0,0,0,0,0,0,0,0,0,0,0,0,100,101,102,103,102,103,
0,0,0,0,0,0,0,0,0,0,0,0,0,0,0,0,0,0,0,0,0,0,0,0,0,0,0,0,0,0,0,0,0,0,0,0,0,0,0,0,0,0,0,0,0,0,0,0,0,0,0,0,0,0,0,0,0,0,100,101,102,103,103,103,
0,0,0,0,0,0,0,0,0,0,0,0,0,0,0,0,0,0,0,0,0,0,0,0,0,0,0,0,0,0,0,0,0,0,0,0,0,0,0,0,0,0,0,0,0,0,0,0,0,0,0,0,0,0,0,0,0,0,103,101,102,103,103,103,
0,0,0,0,0,0,0,0,0,0,0,0,0,0,0,0,0,0,0,0,0,0,0,0,0,0,0,0,0,0,0,0,0,0,0,0,0,0,0,0,0,0,0,0,0,0,0,0,0,0,0,0,0,0,0,0,0,0,100,101,102,103,103,103,
0,0,0,0,0,0,0,0,0,0,0,0,0,0,0,0,0,0,0,0,0,0,0,0,0,0,0,0,0,0,0,0,0,0,0,0,0,0,0,0,0,0,0,0,0,0,0,0,0,0,0,0,0,0,0,0,0,100,101,102,103,100,101,102,
0,0,0,0,0,0,0,0,0,0,0,0,0,0,0,0,0,0,0,0,0,0,0,0,0,0,0,0,0,0,0,0,0,0,0,0,0,0,0,0,0,0,0,0,0,0,0,0,0,0,0,0,0,0,0,0,100,101,102,103,100,101,102,103,
0,0,0,0,0,0,0,0,0,0,0,0,0,0,0,0,0,0,0,0,0,0,0,0,0,0,0,0,0,0,0,0,0,0,0,0,0,0,0,0,0,0,0,0,0,0,0,0,0,0,0,0,0,0,0,0,100,101,102,103,100,101,102,103,
0,0,0,0,0,0,0,0,0,0,0,0,0,0,0,0,0,0,0,0,0,0,0,0,0,0,0,0,0,0,0,0,0,0,0,0,0,0,0,0,0,0,0,0,0,0,0,0,0,0,0,0,0,0,0,0,100,101,102,103,101,102,103,101,
0,0,0,0,0,0,0,0,0,0,0,0,0,0,0,0,0,0,0,0,0,0,0,0,0,0,0,0,0,0,0,0,0,0,0,0,0,0,0,0,0,0,0,0,0,0,0,0,0,0,0,0,0,0,0,0,0,0,0,0,0,100,101,102,
0,0,0,0,0,0,0,0,0,0,0,0,0,0,0,0,0,0,0,0,0,0,0,0,0,0,0,0,0,0,0,0,0,0,0,0,0,0,0,0,0,0,0,0,0,0,0,0,0,0,0,0,0,0,0,0,0,0,0,0,0,0,0,0,
0,0,0,0,0,0,0,0,0,0,0,0,0,0,0,0,0,0,0,0,0,0,0,0,0,0,0,0,0,0,0,0,0,0,0,0,0,0,0,0,0,0,0,0,0,0,0,0,0,0,0,0,0,0,0,0,0,0,0,0,0,0,0,0,
0,0,0,0,0,0,0,0,0,0,0,0,0,0,0,0,0,0,0,0,0,0,0,0,0,0,0,0,0,0,0,0,0,0,0,0,0,0,0,0,0,0,0,0,0,0,0,0,0,0,0,0,0,0,0,0,0,0,0,0,0,0,0,0,
0,0,0,0,0,0,0,0,0,0,0,0,0,0,0,0,0,0,0,0,0,0,0,0,0,0,0,0,0,0,0,0,0,0,0,0,0,0,0,0,0,0,0,0,0,0,0,0,0,0,0,0,0,0,0,0,0,0,0,0,0,0,0,0,
0,0,0,0,0,0,0,0,0,0,0,0,0,0,0,0,0,0,0,0,0,0,0,0,0,0,0,0,0,0,0,0,0,0,0,0,0,0,0,0,0,0,0,0,0,0,0,0,0,0,0,0,0,0,0,0,0,0,0,0,0,0,0,0,
0,0,0,0,0,0,0,0,0,0,0,0,0,0,0,0,0,0,0,0,0,0,0,0,0,0,0,0,0,0,0,0,0,0,0,0,0,0,0,0,0,0,0,0,0,0,0,0,0,0,0,0,0,0,0,0,0,0,0,0,0,0,0,0,
0,0,0,0,0,0,0,0,0,0,0,0,0,0,0,0,0,0,0,0,0,0,0,0,0,0,0,0,0,0,0,0,0,0,0,0,0,0,0,0,0,0,0,0,0,0,0,0,0,0,0,0,0,0,0,0,0,0,0,0,0,0,0,0,
0,0,0,0,0,0,0,0,0,0,0,0,0,0,0,0,0,0,0,0,0,0,0,0,0,0,0,0,0,0,0,0,0,0,0,0,0,0,0,0,0,0,0,0,0,0,0,0,0,0,0,0,0,0,0,0,0,0,0,0,0,0,0,0,
0,0,0,0,0,0,0,0,0,0,0,0,0,0,0,0,0,0,0,0,0,0,0,0,0,0,0,0,0,0,0,0,0,0,0,0,0,0,0,0,0,0,0,0,0,0,0,0,0,0,0,0,0,0,0,0,0,0,0,0,0,0,0,0,
0,0,0,0,0,0,0,0,0,0,0,0,0,0,0,0,0,0,0,0,0,0,0,0,0,0,0,0,0,0,0,0,0,0,0,0,0,0,0,0,0,0,0,0,0,0,0,0,0,0,0,0,0,0,0,0,0,0,0,0,0,0,100,100,
0,0,0,0,0,0,0,0,0,0,0,0,0,0,0,0,0,0,0,0,0,0,0,0,0,0,0,0,0,0,0,0,0,0,0,0,0,0,0,0,0,0,0,0,0,0,0,0,0,0,0,0,0,0,0,0,0,0,0,0,0,100,101,102,
0,0,0,0,0,0,0,0,0,0,0,0,0,0,0,0,0,0,0,0,0,0,0,0,0,0,0,0,0,0,0,0,0,0,0,0,0,0,0,0,0,0,0,0,0,0,0,0,0,0,0,0,0,0,0,0,100,100,101,100,101,102,103,101,
0,0,0,0,0,0,0,0,0,0,0,0,0,0,0,0,0,0,0,0,0,0,0,0,0,0,0,0,0,0,0,0,0,0,0,0,0,0,0,0,0,0,0,0,0,0,0,0,0,0,0,0,100,100,101,100,101,102,103,102,103,100,100,101,
0,0,0,0,0,0,0,0,0,0,0,0,0,0,0,0,0,0,0,0,0,0,0,0,0,0,0,0,0,0,0,0,0,0,0,0,0,0,0,0,0,0,0,0,0,0,0,0,100,100,101,102,103,100,101,102,103,103,100,100,101,102,103,103,
0,0,0,0,0,0,0,0,0,0,0,0,0,0,0,0,0,0,0,0,0,0,0,0,0,0,0,0,0,0,0,0,0,0,0,0,0,0,0,0,0,0,0,0,0,0,100,101,102,103,103,101,102,100,100,100,100,101,100,101,102,103,103,103,
0,0,0,0,0,0,0,0,0,0,0,0,0,0,0,0,0,0,0,0,0,0,0,0,0,0,0,0,0,0,0,0,0,0,0,0,0,0,0,0,0,0,0,0,0,0,100,101,102,103,100,101,102,103,100,101,102,103,103,103,103,101,102,103
</data>
 </layer>
 <layer id="12" name="Road" width="64" height="48">
  <data encoding="csv">
0,0,0,0,0,0,0,0,0,0,0,0,0,0,0,0,0,0,0,0,0,0,0,0,0,0,0,0,0,0,0,0,0,0,0,0,0,0,0,0,0,0,0,0,0,0,0,0,0,0,0,0,0,0,0,0,0,0,0,0,0,0,0,0,
0,0,0,0,0,0,0,0,0,0,0,0,0,0,0,0,0,0,0,0,0,0,0,0,0,0,0,0,0,0,0,0,0,0,0,0,0,0,0,0,0,0,0,0,0,0,0,0,0,0,0,0,0,0,0,0,0,0,0,0,0,0,0,0,
0,0,0,0,0,0,0,0,0,0,0,0,0,0,0,0,0,0,0,0,0,0,0,0,0,0,0,0,0,0,0,0,0,0,0,0,0,0,0,0,0,0,0,0,0,0,0,0,0,0,0,0,0,0,0,0,0,0,0,0,0,0,0,0,
0,0,0,0,0,0,0,0,0,0,0,0,0,0,0,0,0,0,0,0,0,0,0,0,0,0,0,0,0,0,0,0,0,0,0,0,0,0,0,0,0,0,0,0,0,0,0,0,0,0,0,0,0,0,0,0,0,0,0,0,0,0,0,0,
0,0,0,0,0,0,0,0,0,0,0,0,0,0,0,0,0,0,0,0,0,0,0,0,0,0,0,0,0,0,0,0,0,0,0,0,0,0,0,0,0,0,0,0,0,0,0,0,0,0,0,0,0,0,0,0,0,0,0,0,0,0,0,0,
0,0,0,0,0,0,0,0,0,0,0,0,0,0,0,0,0,0,0,0,0,0,0,0,0,0,0,0,0,0,0,0,0,0,0,0,0,0,0,0,0,0,0,0,0,0,0,0,0,0,0,0,0,0,0,0,0,0,0,0,0,0,0,0,
0,0,0,0,0,0,0,0,0,0,0,0,0,0,0,0,0,0,0,0,0,0,0,0,0,0,0,0,0,0,0,0,0,0,0,0,0,0,0,0,0,0,0,0,0,0,0,0,0,0,0,0,0,0,0,0,0,0,0,0,0,0,0,0,
0,0,0,0,0,0,0,0,0,0,0,0,0,0,0,0,0,0,0,0,0,0,0,0,0,0,0,0,0,0,0,0,0,0,0,0,0,0,0,0,0,0,0,0,0,0,0,0,0,0,0,0,0,0,0,0,0,0,0,0,0,0,0,0,
0,0,0,0,0,0,0,0,0,0,0,0,0,0,0,0,0,0,0,0,0,0,0,0,0,0,0,0,0,0,0,0,0,0,0,0,0,0,0,0,0,0,0,0,0,0,0,0,0,0,0,0,0,0,0,0,0,0,0,0,0,0,0,0,
0,0,0,0,0,0,0,0,0,0,0,0,0,0,0,0,0,0,0,0,0,0,0,0,0,0,0,0,0,0,0,0,0,0,0,0,0,0,0,0,0,0,0,0,0,0,0,0,0,0,0,0,0,0,0,0,0,0,0,0,0,0,0,0,
0,0,0,0,0,0,0,0,0,0,0,0,0,0,0,0,0,0,0,0,0,0,0,0,0,0,0,0,0,0,0,0,0,0,0,0,0,0,0,0,0,0,0,0,0,0,0,0,0,0,0,0,0,0,0,0,0,0,0,0,0,0,0,0,
0,0,0,0,0,0,0,0,0,0,0,0,0,0,0,0,0,0,0,0,0,0,0,0,0,0,0,0,0,0,0,0,0,0,0,0,0,0,0,0,0,0,0,0,0,0,0,0,0,0,0,0,0,0,0,0,0,0,0,0,0,0,0,0,
0,0,0,0,0,0,0,0,0,0,0,0,0,0,0,0,0,0,0,0,0,0,0,0,0,0,0,0,0,0,0,0,0,0,0,0,0,0,0,0,0,0,0,0,0,0,0,0,0,0,0,0,0,0,0,0,0,0,0,0,0,0,0,0,
0,0,0,0,0,0,0,0,0,0,0,0,0,0,0,0,0,0,0,0,0,0,0,0,0,0,0,0,0,0,0,0,0,0,0,0,0,0,0,0,0,0,0,0,0,0,0,0,0,0,0,0,0,0,0,0,0,0,0,0,0,0,0,0,
0,0,0,0,0,0,0,0,0,0,0,0,104,165,166,166,105,105,165,164,105,164,105,105,105,164,105,105,165,164,166,105,105,106,0,0,0,0,0,0,0,0,0,0,0,0,0,0,0,0,0,0,0,0,0,0,0,0,0,0,0,0,0,0,
0,0,0,0,0,0,0,0,0,0,0,104,174,116,116,172,116,116,116,116,116,116,116,116,171,116,116,116,116,116,116,116,116,131,106,0,0,0,0,0,0,0,0,0,0,0,0,0,0,0,0,0,0,0,0,0,0,0,0,0,0,0,0,0,
0,0,0,0,0,0,0,0,0,0,104,174,116,116,116,116,160,116,116,116,116,116,116,116,116,116,116,116,116,116,116,116,172,116,131,106,0,0,0,0,0,0,0,0,0,0,0,0,0,0,0,0,0,0,0,0,0,0,0,0,0,0,0,0,
0,0,0,0,0,0,0,0,0,104,174,116,116,171,172,116,116,116,116,116,160,116,116,116,116,116,116,161,116,116,116,116,116,160,116,173,106,0,0,0,0,0,0,0,0,0,0,0,0,0,0,0,0,0,0,0,0,0,0,0,0,0,0,0,
0,0,0,0,0,0,0,0,104,174,160,116,116,116,160,116,116,116,116,172,116,116,116,116,161,171,116,116,116,116,160,116,116,116,116,116,173,106,0,0,0,0,0,0,0,0,0,0,0,0,0,0,0,0,0,0,0,0,0,0,0,0,0,0,
0,0,0,0,0,0,0,104,174,116,116,161,116,116,120,175,176,175,127,175,176,175,127,127,176,175,127,175,176,175,127,163,116,116,116,116,116,173,106,0,0,0,0,0,0,0,0,0,0,0,0,0,0,0,0,0,0,0,0,0,0,0,0,0,
0,0,0,0,0,0,104,132,161,116,116,171,116,162,128,0,0,0,0,0,0,0,0,0,0,0,0,0,0,0,0,126,163,116,161,116,116,116,173,105,164,166,166,105,105,105,165,164,165,106,0,0,0,0,0,0,0,0,0,0,0,0,0,0,
0,0,0,0,0,104,174,116,116,116,116,116,120,128,0,0,0,0,0,0,0,0,0,0,0,0,0,0,0,0,0,0,126,121,116,171,116,116,116,116,116,116,116,116,161,116,116,116,116,173,106,0,0,0,0,0,0,0,0,0,0,0,0,0,
105,105,105,166,165,132,116,116,116,116,116,120,128,0,0,0,0,0,0,0,0,0,0,0,0,0,0,0,0,0,0,0,0,126,163,116,116,116,160,116,116,116,116,116,116,116,116,116,116,171,117,0,0,0,0,0,0,0,0,0,0,0,0,0,
116,172,116,116,116,160,116,116,116,172,162,128,0,0,0,0,0,0,0,0,0,0,0,0,0,0,0,0,0,0,0,0,0,0,126,163,116,116,171,116,116,116,171,116,116,116,116,116,116,116,168,0,0,0,0,0,0,0,0,0,0,0,0,0,
116,116,116,116,116,116,160,116,116,120,128,0,0,0,0,0,0,0,0,0,0,0,0,0,0,0,0,0,0,0,0,0,0,0,0,126,163,116,116,161,116,116,116,116,116,116,160,116,116,116,179,0,0,0,0,0,0,0,0,0,0,0,0,0,
116,116,116,116,171,161,116,116,162,128,0,0,0,0,0,0,0,0,0,0,0,0,0,0,0,0,0,0,0,0,0,0,0,0,0,0,126,175,127,127,175,176,127,176,127,121,116,116,160,116,117,0,0,0,0,0,0,0,0,0,0,0,0,0,
116,116,160,116,116,116,116,162,128,0,0,0,0,0,0,0,0,0,0,0,0,0,0,0,0,0,0,0,0,0,0,0,0,0,0,0,0,0,0,0,0,0,0,0,0,115,116,172,171,116,117,0,0,0,0,0,0,0,0,0,0,0,0,0,
127,176,175,175,127,127,176,128,0,0,0,0,0,0,0,0,0,0,0,0,0,0,0,0,0,0,0,0,0,0,0,0,0,0,0,0,0,0,0,0,0,0,0,0,0,178,116,116,116,116,117,0,0,0,0,0,0,0,0,0,0,0,0,0,
0,0,0,0,0,0,0,0,0,0,0,0,0,0,0,0,0,0,0,0,0,0,0,0,0,0,0,0,0,0,0,0,0,0,0,0,0,0,0,0,0,0,0,0,0,167,116,116,116,116,179,0,0,0,0,0,0,0,0,0,0,0,0,0,
0,0,0,0,0,0,0,0,0,0,0,0,0,0,0,0,0,0,0,0,0,0,0,0,0,0,0,0,0,0,0,0,0,0,0,0,0,0,0,0,0,0,0,0,0,115,116,116,161,116,117,0,0,0,0,0,0,0,0,0,0,0,0,0,
0,0,0,0,0,0,0,0,0,0,0,0,0,0,0,0,0,0,0,0,0,0,0,0,0,0,0,0,0,0,0,0,0,0,0,0,0,0,0,0,0,0,0,0,0,115,116,116,116,171,117,0,0,0,0,0,0,0,0,0,0,0,0,0,
0,0,0,0,0,0,0,0,0,0,0,0,0,0,0,0,0,0,0,0,0,0,0,0,0,0,0,0,0,0,0,0,0,0,0,0,0,0,0,0,0,0,0,0,0,167,116,116,116,116,173,106,0,0,0,0,0,0,0,0,0,0,0,0,
0,0,0,0,0,0,0,0,0,0,0,0,0,0,0,0,0,0,0,0,0,0,0,0,0,0,0,0,0,0,0,0,0,0,0,0,0,0,0,0,0,0,0,0,0,115,161,116,116,116,116,173,106,0,0,0,0,0,0,0,0,0,0,0,
0,0,0,0,0,0,0,0,0,0,0,0,0,0,0,0,0,0,0,0,0,0,0,0,0,0,0,0,0,0,0,0,0,0,0,0,0,0,0,0,0,0,0,0,0,126,163,116,160,116,116,116,131,106,0,0,0,0,0,0,0,0,0,0,
0,0,0,0,0,0,0,0,0,0,0,0,0,0,0,0,0,0,0,0,0,0,0,0,0,0,0,0,0,0,0,0,0,0,0,0,0,0,0,0,0,0,0,0,0,0,126,121,116,160,116,116,116,173,106,0,0,0,0,0,0,0,0,0,
0,0,0,0,0,0,0,0,0,0,0,0,0,0,0,0,0,0,0,0,0,0,0,0,0,0,0,0,0,0,0,0,0,0,0,0,0,0,0,0,0,0,0,0,0,0,0,126,163,160,116,116,116,116,131,165,164,105,105,105,106,0,0,0,
0,0,0,0,0,0,0,0,0,0,0,0,0,0,0,0,0,0,0,0,0,0,0,0,0,0,0,0,0,0,0,0,0,0,0,0,0,0,0,0,0,0,0,0,0,0,0,0,126,163,116,116,116,116,171,160,116,116,116,116,117,0,0,0,
0,0,0,0,0,0,0,0,0,0,0,0,0,0,0,0,0,0,0,0,0,0,0,0,0,0,0,0,0,0,0,0,0,0,0,0,0,0,0,0,0,0,0,0,0,0,0,0,0,0,121,116,172,116,116,116,116,116,116,116,117,0,0,0,
0,0,0,0,0,0,0,0,0,0,0,0,0,0,0,0,0,0,0,0,0,0,0,0,0,0,0,0,0,0,0,0,0,0,0,0,0,0,0,0,0,0,0,0,0,0,0,0,0,0,126,163,116,116,116,116,116,116,161,116,168,0,0,0,
0,0,0,0,0,0,0,0,0,0,0,0,0,0,0,0,0,0,0,0,0,0,0,0,0,0,0,0,0,0,0,0,0,0,0,0,0,0,0,0,0,0,0,0,0,0,0,0,0,0,0,126,163,116,116,116,116,172,116,116,179,0,0,0,
0,0,0,0,0,0,0,0,0,0,0,0,0,0,0,0,0,0,0,0,0,0,0,0,0,0,0,0,0,0,0,0,0,0,0,0,0,0,0,0,0,0,0,0,0,0,0,0,0,0,0,0,126,127,175,127,175,175,175,176,128,0,0,0,
0,0,0,0,0,0,0,0,0,0,0,0,0,0,0,0,0,0,0,0,0,0,0,0,0,0,0,0,0,0,0,0,0,0,0,0,0,0,0,0,0,0,0,0,0,0,0,0,0,0,0,0,0,0,0,0,0,0,0,0,0,0,0,0,
0,0,0,0,0,0,0,0,0,0,0,0,0,0,0,0,0,0,0,0,0,0,0,0,0,0,0,0,0,0,0,0,0,0,0,0,0,0,0,0,0,0,0,0,0,0,0,0,0,0,0,0,0,0,0,0,0,0,0,0,0,0,0,0,
0,0,0,0,0,0,0,0,0,0,0,0,0,0,0,0,0,0,0,0,0,0,0,0,0,0,0,0,0,0,0,0,0,0,0,0,0,0,0,0,0,0,0,0,0,0,0,0,0,0,0,0,0,0,0,0,0,0,0,0,0,0,0,0,
0,0,0,0,0,0,0,0,0,0,0,0,0,0,0,0,0,0,0,0,0,0,0,0,0,0,0,0,0,0,0,0,0,0,0,0,0,0,0,0,0,0,0,0,0,0,0,0,0,0,0,0,0,0,0,0,0,0,0,0,0,0,0,0,
0,0,0,0,0,0,0,0,0,0,0,0,0,0,0,0,0,0,0,0,0,0,0,0,0,0,0,0,0,0,0,0,0,0,0,0,0,0,0,0,0,0,0,0,0,0,0,0,0,0,0,0,0,0,0,0,0,0,0,0,0,0,0,0,
0,0,0,0,0,0,0,0,0,0,0,0,0,0,0,0,0,0,0,0,0,0,0,0,0,0,0,0,0,0,0,0,0,0,0,0,0,0,0,0,0,0,0,0,0,0,0,0,0,0,0,0,0,0,0,0,0,0,0,0,0,0,0,0,
0,0,0,0,0,0,0,0,0,0,0,0,0,0,0,0,0,0,0,0,0,0,0,0,0,0,0,0,0,0,0,0,0,0,0,0,0,0,0,0,0,0,0,0,0,0,0,0,0,0,0,0,0,0,0,0,0,0,0,0,0,0,0,0
</data>
 </layer>
 <layer id="13" name="Edges" width="64" height="48" opacity="0.97">
  <data encoding="csv">
0,0,0,0,0,0,0,0,0,0,0,0,0,0,0,0,0,0,0,0,0,0,0,0,0,0,0,0,0,0,0,0,208,183,0,0,0,0,0,0,0,0,0,0,0,0,0,0,0,0,0,0,0,0,0,0,0,0,0,0,0,0,0,0,
0,0,0,0,0,0,0,0,0,0,0,0,0,0,0,0,0,0,0,0,0,0,0,0,0,0,0,0,0,0,0,0,0,194,0,0,0,0,0,0,0,0,0,0,0,0,0,0,0,0,0,0,0,0,0,0,0,0,0,0,0,0,0,0,
0,0,0,0,0,0,0,0,0,0,0,0,0,0,0,0,0,0,0,0,0,0,0,0,0,0,0,0,0,0,0,0,0,208,183,0,0,0,0,0,0,0,0,0,0,0,0,0,0,0,0,0,0,0,0,0,0,0,0,0,0,0,0,0,
0,0,0,0,0,0,0,0,0,0,0,0,0,0,0,0,0,0,0,0,0,0,0,0,0,0,0,0,0,0,0,0,0,0,208,183,0,0,0,0,0,0,0,0,0,0,0,0,0,0,0,0,0,0,0,0,0,0,0,0,0,0,0,0,
0,0,0,0,0,0,0,0,0,0,0,0,0,0,0,0,0,0,0,0,0,0,0,0,0,0,0,0,0,0,0,0,0,0,0,208,183,0,0,0,0,0,0,0,0,0,0,0,0,0,0,0,0,0,0,0,0,0,0,0,0,0,0,0,
0,0,0,0,0,0,0,0,0,0,0,0,0,0,0,0,0,0,0,0,0,0,0,0,0,0,0,0,0,0,0,0,0,0,0,0,208,182,183,0,0,0,0,0,0,0,0,0,0,0,0,0,0,0,0,0,0,0,0,0,0,0,0,0,
0,0,0,0,0,0,0,0,0,0,0,0,0,0,0,0,0,0,0,0,0,0,0,0,0,0,0,0,0,0,0,0,0,0,0,0,0,0,208,183,0,0,0,0,0,0,0,0,0,0,0,0,0,0,0,0,0,0,0,0,0,0,0,0,
0,0,0,0,0,0,0,0,0,0,0,0,0,0,0,0,0,0,0,0,0,0,0,0,0,0,0,0,0,0,0,0,0,0,0,0,0,0,0,194,0,0,0,0,0,0,0,0,0,0,0,0,0,0,0,0,0,0,0,0,0,0,0,0,
0,0,0,0,0,0,0,0,0,0,0,0,0,0,0,0,0,0,0,0,0,0,0,0,0,0,0,0,0,0,0,0,0,0,0,0,0,0,0,208,182,183,0,0,0,0,0,0,0,0,0,0,0,0,0,0,0,0,0,0,0,0,0,0,
0,0,0,0,0,0,0,0,0,0,0,0,0,0,0,0,0,0,0,0,0,0,0,0,0,0,0,0,0,0,0,0,0,0,0,0,0,0,0,0,0,194,0,0,0,0,0,0,0,0,0,0,0,0,0,0,0,0,0,0,0,0,0,0,
0,0,0,0,0,0,0,0,0,0,0,0,0,0,0,0,0,0,0,0,0,0,0,0,0,0,0,0,0,0,0,0,0,0,0,0,0,0,0,0,0,194,0,0,0,0,0,0,0,0,0,0,0,0,0,0,0,0,0,0,0,0,0,0,
0,0,0,0,0,0,0,0,0,0,0,0,0,0,0,0,0,0,0,0,0,0,0,0,0,0,0,0,0,0,0,0,0,0,0,0,17,24,24,24,18,208,183,0,0,0,0,0,0,0,0,0,0,0,0,0,0,0,0,0,0,0,0,0,
0,0,0,0,0,0,0,0,0,0,0,0,0,0,0,0,0,0,0,0,0,0,0,0,0,0,0,0,0,0,0,0,0,0,0,17,25,0,0,0,12,0,208,182,183,0,0,0,0,0,0,0,0,0,0,0,0,0,0,0,0,0,0,0,
0,0,0,0,0,0,0,0,0,0,0,0,0,0,0,0,0,0,0,0,0,0,0,0,0,0,0,0,0,0,0,0,0,0,0,194,0,0,0,0,23,24,24,18,208,182,182,182,182,182,182,183,0,0,0,0,0,0,0,0,0,0,0,0,
0,0,0,0,0,0,0,0,0,0,0,0,0,0,0,0,0,0,0,0,0,0,0,0,0,0,0,0,0,0,0,0,0,0,0,208,183,0,0,0,0,0,0,23,18,0,0,0,0,0,0,208,183,0,0,0,0,0,0,0,0,0,0,0,
0,0,0,0,0,0,0,0,0,0,0,0,0,0,0,0,0,0,0,0,0,0,0,0,0,0,0,0,0,0,0,0,0,0,0,0,208,183,0,0,0,0,0,0,23,24,24,18,0,0,0,0,194,0,0,0,0,0,0,0,0,0,0,0,
0,0,0,0,0,0,0,0,0,0,0,0,0,0,0,0,0,0,0,0,0,0,0,0,0,0,0,0,0,0,0,0,0,0,0,0,0,208,183,0,0,0,0,0,0,0,0,23,18,0,0,0,208,183,0,0,0,0,0,0,0,0,0,0,
0,0,0,0,0,0,0,0,0,0,0,0,0,0,0,0,0,0,0,0,0,0,0,0,0,0,0,0,0,0,0,0,0,0,0,0,0,0,208,183,0,0,0,0,0,0,0,0,12,0,0,0,0,208,183,0,0,0,0,0,0,0,0,0,
0,0,0,0,0,0,0,0,0,0,0,0,0,0,0,0,0,0,0,0,0,0,0,0,0,0,0,0,0,0,0,0,0,0,0,0,0,0,0,208,182,182,182,182,182,182,182,182,209,0,0,0,0,0,208,183,0,0,0,0,0,0,0,0,
0,0,0,0,0,0,0,0,0,0,0,0,0,0,0,0,0,0,0,0,0,0,0,0,0,0,0,0,0,0,0,0,0,0,0,0,0,0,0,0,0,0,0,0,0,0,0,0,0,0,0,0,0,0,0,208,183,0,0,0,0,0,0,0,
0,0,0,0,0,0,0,0,0,0,0,0,0,0,0,0,0,0,0,0,0,0,0,0,0,0,0,0,0,0,0,0,0,0,0,0,0,0,0,0,0,0,0,0,0,0,0,0,0,0,0,0,0,0,0,0,208,182,183,0,0,0,0,0,
0,0,0,0,0,0,0,0,0,0,0,0,0,0,0,0,0,0,0,0,0,0,0,0,0,0,0,0,0,0,0,0,0,0,0,0,0,0,0,0,0,0,0,0,0,0,0,0,0,0,0,0,0,0,0,0,0,0,208,183,0,0,0,0,
0,0,0,0,0,0,0,0,0,0,0,0,0,0,0,0,0,0,0,0,0,0,0,0,0,0,0,0,0,0,0,0,0,0,0,0,0,0,0,0,0,0,0,0,0,0,0,0,0,0,0,0,0,0,0,0,0,0,0,14,0,0,0,0,
0,0,0,0,0,0,0,0,0,0,0,0,0,0,0,0,0,0,0,0,0,0,0,0,0,0,0,0,0,0,0,0,0,0,0,0,0,0,0,0,0,0,0,0,0,0,0,0,0,0,0,0,0,0,0,0,0,0,17,25,0,0,0,0,
0,0,0,0,0,0,0,0,0,0,0,0,0,0,0,0,0,0,0,0,0,0,0,0,0,0,0,0,0,0,0,0,0,0,0,0,0,0,0,0,0,0,0,0,0,0,0,0,0,0,0,0,0,0,0,0,0,0,194,0,0,0,0,0,
0,0,0,0,0,0,0,0,0,0,0,0,0,0,0,0,0,0,0,0,0,0,0,0,0,0,0,0,0,0,0,0,0,0,0,0,0,0,0,0,0,0,0,0,0,0,0,0,0,0,0,0,0,0,0,0,0,0,194,0,0,0,0,0,
0,0,0,0,0,0,0,0,0,0,0,0,0,0,0,0,0,0,0,0,0,0,0,0,0,0,0,0,0,0,0,0,0,0,0,0,0,0,0,0,0,0,0,0,0,0,0,0,0,0,0,0,0,0,0,0,0,0,194,0,0,0,0,0,
0,0,0,0,0,0,0,0,0,0,0,0,0,0,0,0,0,0,0,0,0,0,0,0,0,0,0,0,0,0,0,0,0,0,0,0,0,0,0,0,0,0,0,0,0,0,0,0,0,0,0,0,0,0,0,0,0,17,25,0,0,0,0,0,
0,0,0,0,0,0,0,0,0,0,0,0,0,0,0,0,0,0,0,0,0,0,0,0,0,0,0,0,0,0,0,0,0,0,0,0,0,0,0,0,0,0,0,0,0,0,0,0,0,0,0,0,0,0,0,0,17,25,0,0,0,0,0,0,
0,0,0,0,0,0,0,0,0,0,0,0,0,0,0,0,0,0,0,0,0,0,0,0,0,0,0,0,0,0,0,0,0,0,0,0,0,0,0,0,0,0,0,0,0,0,0,0,0,0,0,0,0,0,0,0,14,0,0,0,0,0,0,0,
0,0,0,0,0,0,0,0,0,0,0,0,0,0,0,0,0,0,0,0,0,0,0,0,0,0,0,0,0,0,0,0,0,0,0,0,0,0,0,0,0,0,0,0,0,0,0,0,0,0,0,0,0,0,0,0,28,182,182,182,182,183,0,0,
0,0,0,0,0,0,0,0,0,0,0,0,0,0,0,0,0,0,0,0,0,0,0,0,0,0,0,0,0,0,0,0,0,0,0,0,0,0,0,0,0,0,0,0,0,0,0,0,0,0,0,0,0,0,0,0,0,0,0,0,0,208,182,182,
0,0,0,0,0,0,0,0,0,0,0,0,0,0,0,0,0,0,0,0,0,0,0,0,0,0,0,0,0,0,0,0,0,0,0,0,0,0,0,0,0,0,0,0,0,0,0,0,0,0,0,0,0,0,0,0,0,0,0,0,0,0,0,0,
0,0,0,0,0,0,0,0,0,0,0,0,0,0,0,0,0,0,0,0,0,0,0,0,0,0,0,0,0,0,0,0,0,0,0,0,0,0,0,0,0,0,0,0,0,0,0,0,0,0,0,0,0,0,0,0,0,0,0,0,0,0,0,0,
0,0,0,0,0,0,0,0,0,0,0,0,0,0,0,0,0,0,0,0,0,0,0,0,0,0,0,0,0,0,0,0,0,0,0,0,0,0,0,0,0,0,0,0,0,0,0,0,0,0,0,0,0,0,0,0,0,0,0,0,0,0,0,0,
0,0,0,0,0,0,0,0,0,0,0,0,0,0,0,0,0,0,0,0,0,0,0,0,0,0,0,0,0,0,0,0,0,0,0,0,0,0,0,0,0,0,0,0,0,0,0,0,0,0,0,0,0,0,0,0,0,0,0,0,0,0,0,0,
0,0,0,0,0,0,0,0,0,0,0,0,0,0,0,0,0,0,0,0,0,0,0,0,0,0,0,0,0,0,0,0,0,0,0,0,0,0,0,0,0,0,0,0,0,0,0,0,0,0,0,0,0,0,0,0,0,0,0,0,0,0,0,0,
0,0,0,0,0,0,0,0,0,0,0,0,0,0,0,0,0,0,0,0,0,0,0,0,0,0,0,0,0,0,0,0,0,0,0,0,0,0,0,0,0,0,0,0,0,0,0,0,0,0,0,0,0,0,0,0,0,0,0,0,0,0,0,0,
0,0,0,0,0,0,0,0,0,0,0,0,0,0,0,0,0,0,0,0,0,0,0,0,0,0,0,0,0,0,0,0,0,0,0,0,0,0,0,0,0,0,0,0,0,0,0,0,0,0,0,0,0,0,0,0,0,0,0,0,0,0,0,0,
0,0,0,0,0,0,0,0,0,0,0,0,0,0,0,0,0,0,0,0,0,0,0,0,0,0,0,0,0,0,0,0,0,0,0,0,0,0,0,0,0,0,0,0,0,0,0,0,0,0,0,0,0,0,0,0,0,0,0,0,0,0,0,0,
0,0,0,0,0,0,0,0,0,0,0,0,0,0,0,0,0,0,0,0,0,0,0,0,0,0,0,0,0,0,0,0,0,0,0,0,0,0,0,0,0,0,0,0,0,0,0,0,0,0,0,0,0,0,0,0,0,0,0,0,0,0,0,0,
0,0,0,0,0,0,0,0,0,0,0,0,0,0,0,0,0,0,0,0,0,0,0,0,0,0,0,0,0,0,0,0,0,0,0,0,0,0,0,0,0,0,0,0,0,0,0,0,0,0,0,0,0,0,0,0,0,0,0,0,0,0,17,24,
0,0,0,0,0,0,0,0,0,0,0,0,0,0,0,0,0,0,0,0,0,0,0,0,0,0,0,0,0,0,0,0,0,0,0,0,0,0,0,0,0,0,0,0,0,0,0,0,0,0,0,0,0,0,0,0,0,0,0,0,0,17,25,0,
0,0,0,0,0,0,0,0,0,0,0,0,0,0,0,0,0,0,0,0,0,0,0,0,0,0,0,0,0,0,0,0,0,0,0,0,0,0,0,0,0,0,0,0,0,0,0,0,0,0,0,0,0,0,0,0,17,24,24,24,24,25,0,0,
0,0,0,0,0,0,0,0,0,0,0,0,0,0,0,0,0,0,0,0,0,0,0,0,0,0,0,0,0,0,0,0,0,0,0,0,0,0,0,0,0,0,0,0,0,0,0,0,0,0,0,0,17,24,24,24,25,0,0,0,0,0,0,0,
0,0,0,0,0,0,0,0,0,0,0,0,0,0,0,0,0,0,0,0,0,0,0,0,0,0,0,0,0,0,0,0,0,0,0,0,0,0,0,0,0,0,0,0,0,0,0,0,17,24,24,24,25,0,0,0,0,0,0,0,0,0,0,0,
0,0,0,0,0,0,0,0,0,0,0,0,0,0,0,0,0,0,0,0,0,0,0,0,0,0,0,0,0,0,0,0,0,0,0,0,0,0,0,0,0,0,0,0,0,0,17,24,25,0,0,0,0,0,0,0,0,0,0,0,0,0,0,0,
0,0,0,0,0,0,0,0,0,0,0,0,0,0,0,0,0,0,0,0,0,0,0,0,0,0,0,0,0,0,0,0,0,0,0,0,0,0,0,0,0,0,0,0,0,0,14,0,0,0,0,0,0,0,0,0,0,0,0,0,0,0,0,0
</data>
 </layer>
 <layer id="3" name="Hills" width="64" height="48">
  <data encoding="csv">
0,0,0,0,0,0,0,0,0,0,0,0,0,0,0,0,0,0,0,0,0,23,24,18,13,13,13,13,13,14,0,0,0,0,0,0,0,0,0,0,12,13,13,13,13,13,13,13,13,13,28,2,2,2,2,29,13,13,13,13,13,13,13,13,
0,0,0,0,0,0,1,2,2,2,3,0,0,0,0,0,0,0,0,0,0,0,0,23,24,24,24,18,13,28,3,0,0,0,0,0,0,0,0,0,23,18,13,13,13,13,13,13,13,13,13,13,13,13,13,13,13,13,13,13,13,13,13,13,
0,0,0,0,0,1,29,13,17,18,28,2,3,0,0,0,0,0,0,0,0,0,0,0,0,0,0,12,13,13,28,3,0,0,0,0,0,0,0,0,0,23,18,13,17,24,18,13,13,13,13,13,13,13,13,13,13,13,13,13,13,13,13,13,
0,0,0,0,1,29,17,24,25,23,18,13,28,2,2,2,2,2,2,2,2,3,0,0,0,0,1,29,13,13,13,14,0,0,0,0,0,0,0,0,0,0,23,18,14,0,12,13,13,13,13,13,13,13,13,13,13,13,13,13,13,13,13,13,
0,0,0,0,12,17,25,0,0,0,23,24,24,24,24,24,24,24,24,18,13,28,3,0,0,0,12,13,13,13,13,28,3,0,0,0,0,0,0,0,0,0,0,12,14,0,23,18,13,13,13,13,13,13,13,13,13,13,13,13,13,13,13,13,
0,0,0,1,29,14,0,0,0,0,0,0,0,0,0,0,0,0,0,23,18,13,14,0,0,0,12,13,13,13,13,13,28,3,0,0,0,0,0,0,0,0,0,23,25,0,0,12,17,24,18,13,13,13,13,13,13,13,13,13,13,13,13,13,
0,0,0,12,17,25,0,0,0,0,0,0,0,0,0,0,0,0,0,1,29,17,25,0,0,0,12,13,13,13,13,13,13,28,3,0,0,0,0,0,0,0,0,0,0,0,0,23,25,0,23,24,18,13,13,13,13,13,13,13,13,13,13,13,
0,0,0,12,14,0,0,0,0,0,0,0,0,0,0,0,0,1,2,29,17,25,0,0,0,0,12,13,13,13,13,13,13,13,14,0,0,0,0,0,0,0,0,0,0,0,0,0,0,0,0,1,29,13,13,13,13,13,13,13,13,13,13,13,
0,0,0,12,14,0,0,0,0,1,2,3,0,1,2,2,2,29,13,17,25,0,0,0,0,0,12,13,17,24,24,18,13,13,14,0,0,0,0,0,0,0,0,0,0,0,0,0,0,0,0,12,13,13,13,13,13,13,13,13,13,13,13,13,
0,0,1,29,14,0,0,0,1,29,13,28,2,29,13,13,17,24,24,25,0,0,0,0,0,0,23,24,25,0,0,12,13,13,14,0,0,0,0,0,0,0,0,0,0,0,0,0,0,0,0,23,24,24,18,13,13,13,13,13,13,13,13,13,
0,0,12,13,14,0,0,1,29,17,24,24,24,24,24,24,25,0,0,0,0,0,0,0,0,0,0,0,0,0,0,12,17,24,25,0,0,0,0,0,0,0,0,0,0,0,0,0,0,0,0,0,0,0,23,24,24,18,13,13,13,13,13,13,
0,0,12,13,14,0,1,29,17,25,0,0,0,0,0,0,0,0,0,0,0,0,0,0,0,0,0,0,0,0,0,23,25,0,0,0,0,0,0,0,0,0,0,0,0,0,0,0,0,0,0,0,0,0,0,1,2,29,13,13,13,13,13,13,
0,0,12,17,25,1,29,17,25,0,0,0,0,0,0,0,0,0,0,0,0,0,0,0,0,0,0,0,0,0,0,0,0,0,0,0,0,0,0,0,0,0,0,0,0,0,0,0,0,0,0,0,0,0,0,12,13,13,13,13,13,13,13,13,
0,0,12,14,1,29,13,14,0,0,0,0,0,0,0,0,0,0,0,0,0,0,0,0,0,0,0,0,0,0,0,0,0,0,0,0,0,0,0,0,0,0,0,0,0,0,0,0,0,0,0,0,0,0,0,23,24,24,18,13,13,13,13,13,
0,0,12,28,29,17,24,25,0,0,0,0,0,0,0,0,0,0,0,0,0,0,0,0,0,0,0,0,0,0,0,0,0,0,0,0,0,0,0,0,0,0,0,0,0,0,0,0,0,0,0,0,0,0,0,0,0,0,12,13,17,24,18,13,
0,0,12,13,17,25,0,0,0,0,0,0,0,0,0,0,0,0,0,0,0,0,0,0,0,0,0,0,0,0,0,0,0,0,0,0,0,0,0,0,0,0,0,0,0,0,0,0,0,0,0,0,0,0,0,0,0,0,12,13,14,0,12,13,
0,0,12,13,14,0,0,0,0,0,0,0,0,0,0,0,0,0,0,0,0,0,0,0,0,0,0,0,0,0,0,0,0,0,0,0,0,0,0,0,0,0,0,0,0,0,0,0,0,0,0,0,0,0,0,0,0,0,23,18,14,0,23,18,
0,0,23,24,25,0,0,0,0,0,0,0,0,0,0,0,0,0,0,0,0,0,0,0,0,0,0,0,0,0,0,0,0,0,0,0,0,0,0,0,0,0,0,0,0,0,0,0,0,0,0,0,0,0,0,0,0,0,0,23,25,0,0,23,
0,0,0,0,0,0,0,0,0,0,0,0,0,0,0,0,0,0,0,0,0,0,0,0,0,0,0,0,0,0,0,0,0,0,0,0,0,0,0,0,0,0,0,0,0,0,0,0,0,0,0,0,0,0,0,0,0,0,0,0,0,0,0,0,
0,0,0,0,0,0,0,0,0,0,0,0,0,0,0,0,0,0,0,0,0,0,0,0,0,0,0,0,0,0,0,0,0,0,0,0,0,0,0,0,0,0,0,0,0,0,0,0,0,0,0,0,0,0,0,0,0,0,0,0,0,0,0,0,
0,0,0,0,0,0,0,0,0,0,0,0,0,0,0,0,0,0,0,0,0,0,0,0,0,0,0,0,0,0,0,0,0,0,0,0,0,0,0,0,0,0,0,0,0,0,0,0,0,0,0,0,0,0,0,0,0,0,0,0,0,0,0,0,
0,0,0,0,0,0,0,0,0,0,0,0,0,0,0,0,0,1,2,2,2,2,3,0,0,0,0,0,0,0,0,0,0,0,0,0,0,0,0,0,0,0,0,0,0,0,0,0,0,0,0,0,0,0,0,0,0,0,0,0,0,0,0,0,
0,0,0,0,0,0,0,0,0,0,0,0,0,0,0,0,1,29,13,13,13,13,28,3,0,0,0,0,0,0,0,0,0,0,0,0,0,0,0,0,0,0,0,0,0,0,0,0,0,0,0,0,0,0,0,0,0,0,0,0,0,0,0,0,
0,0,0,0,0,0,0,0,0,0,0,0,0,0,0,1,29,13,13,13,13,13,13,14,0,0,0,0,0,0,0,0,0,0,0,0,0,0,0,0,0,0,0,0,0,0,0,0,0,0,0,0,0,0,0,0,0,0,0,0,0,0,0,0,
0,0,0,0,0,0,0,0,0,0,0,0,0,0,1,29,13,13,13,13,13,13,13,14,0,0,0,0,0,0,0,0,0,0,0,0,0,0,0,0,0,0,0,0,0,0,0,0,0,0,0,0,0,0,0,0,0,0,0,0,0,0,0,0,
0,0,0,0,0,0,0,0,0,0,0,0,0,1,29,13,13,13,13,13,13,13,13,28,3,0,0,0,0,0,0,0,0,0,0,0,0,0,0,0,0,0,0,0,0,0,0,0,0,0,0,0,0,0,0,0,0,0,0,0,0,0,0,0,
0,0,0,0,0,0,0,0,0,0,0,0,1,29,13,13,13,13,100,101,102,103,13,13,28,2,2,3,0,0,0,0,0,0,0,0,0,0,0,0,0,0,0,0,0,0,0,0,0,0,0,0,0,0,0,0,0,0,0,0,0,0,0,0,
0,0,0,0,0,0,0,0,0,0,0,1,29,13,13,13,13,13,100,101,102,103,13,13,13,13,13,28,3,0,0,0,0,0,0,0,0,0,0,0,0,0,0,0,0,0,0,0,0,0,0,0,0,0,0,0,0,0,0,0,0,0,0,0,
0,0,0,0,0,0,0,0,0,0,0,12,13,13,13,13,13,13,100,101,102,103,103,13,13,13,13,13,14,0,0,0,0,0,0,0,0,0,0,0,0,0,0,0,0,0,0,0,0,0,0,0,0,0,0,0,0,0,0,0,0,0,0,0,
0,0,0,0,0,0,0,0,0,0,1,29,13,13,13,13,13,13,13,13,13,13,13,13,13,13,13,17,25,0,0,0,0,0,0,1,2,2,2,2,2,3,0,0,0,0,0,0,0,0,0,0,0,0,0,0,0,0,0,0,0,0,0,0,
0,0,0,0,0,0,0,0,1,2,29,13,13,13,13,13,13,13,13,13,13,13,13,13,13,13,17,25,0,0,0,0,0,0,1,29,13,13,13,13,13,28,3,0,0,0,0,0,0,0,0,0,0,0,0,0,0,0,0,0,0,0,0,0,
0,0,0,0,0,0,0,0,12,13,13,13,13,13,13,13,13,13,13,13,13,13,13,17,24,24,25,0,0,0,0,0,0,0,12,13,13,13,13,13,13,17,25,0,0,0,0,0,0,0,0,0,0,0,0,0,0,0,0,0,0,0,0,0,
0,0,0,0,0,0,0,0,23,18,13,13,13,13,13,13,13,13,13,13,13,13,17,25,0,0,0,0,0,0,0,0,0,1,29,13,13,13,13,13,13,14,0,0,0,0,0,0,0,0,0,0,0,0,0,0,0,0,0,0,0,0,0,0,
0,0,0,0,0,0,0,0,0,23,24,24,24,18,13,13,13,13,13,17,24,24,25,0,0,0,0,0,0,0,0,1,2,29,13,13,100,101,102,103,13,28,3,0,0,0,0,0,0,0,0,0,0,0,0,0,0,0,0,0,0,0,0,0,
0,0,0,0,0,0,0,0,0,0,0,0,0,23,24,24,18,13,17,25,0,0,0,0,0,0,0,0,0,1,2,29,13,13,13,13,100,101,102,103,13,13,14,0,0,0,0,0,0,0,0,0,0,0,0,0,0,0,0,0,0,0,0,0,
0,0,0,0,0,0,0,0,0,0,0,0,0,0,0,0,23,24,25,0,0,0,0,0,0,0,0,0,1,29,13,13,13,13,13,13,100,101,102,103,0,13,14,0,0,0,0,0,0,0,0,0,0,0,0,0,0,0,0,0,0,0,0,0,
0,0,0,0,0,0,0,0,0,0,0,0,0,0,0,0,0,0,0,0,0,0,0,0,0,0,0,0,23,24,24,18,13,13,13,13,13,13,13,13,13,13,28,3,0,0,0,0,0,0,0,0,0,0,0,0,0,0,0,0,0,0,0,0,
0,0,0,0,0,0,0,0,0,0,0,0,0,0,0,0,0,0,0,0,0,0,0,1,3,0,0,0,0,0,0,23,24,18,13,13,13,13,13,13,13,13,13,28,3,0,0,0,0,0,0,0,0,0,0,0,0,0,0,0,0,0,0,0,
0,0,0,0,0,0,0,0,0,0,0,0,0,0,0,0,0,0,1,2,2,2,2,29,14,0,0,0,0,0,0,0,0,23,24,24,18,13,13,13,13,13,17,24,25,0,0,0,0,0,0,0,0,0,0,0,0,0,0,0,0,0,0,0,
0,0,0,0,0,0,0,0,0,0,0,0,0,0,0,0,1,2,29,13,13,13,13,13,28,3,0,0,0,0,0,0,0,0,0,0,12,13,13,13,13,13,14,0,0,0,0,0,0,0,0,0,0,0,0,0,0,0,0,0,0,0,0,0,
0,0,0,0,0,0,0,0,0,0,0,0,0,0,0,1,29,13,13,13,13,13,13,13,13,28,2,3,0,0,0,0,0,0,0,0,23,24,18,13,17,24,25,0,0,0,0,0,0,0,0,0,0,0,0,0,0,0,0,0,0,0,0,0,
0,0,0,0,0,0,0,0,0,0,0,0,0,0,0,23,24,18,13,13,13,13,13,13,13,13,13,28,3,0,0,0,0,0,0,0,0,0,23,24,25,0,0,0,0,0,0,0,0,0,0,0,0,0,0,0,0,0,0,0,0,0,0,0,
0,0,0,0,0,0,0,0,0,0,0,0,0,0,0,0,0,12,13,13,13,13,13,13,13,13,13,13,28,3,0,0,0,0,0,0,0,0,0,0,0,0,0,0,0,0,0,0,0,0,0,0,0,0,0,0,0,0,0,0,0,0,0,0,
0,0,0,0,0,0,0,0,0,0,0,0,0,0,0,0,0,23,18,13,13,13,13,13,13,13,13,13,13,28,3,0,0,0,0,0,0,0,0,0,0,0,0,0,0,0,0,0,0,0,0,0,0,0,0,0,0,0,0,0,0,0,0,0,
0,0,0,0,0,0,0,0,0,0,0,0,0,0,0,0,0,0,23,24,18,13,13,13,13,13,13,13,13,13,14,0,0,0,0,0,0,0,0,0,0,0,0,0,0,0,0,0,0,0,0,0,0,0,0,0,0,0,0,0,0,0,0,0,
0,0,0,0,0,0,0,0,0,0,0,0,0,0,0,0,0,0,0,0,23,24,18,13,13,13,13,13,13,17,25,0,0,0,0,0,0,0,0,0,0,0,0,0,0,0,0,0,0,0,0,0,0,0,0,0,0,0,0,0,0,0,0,0,
0,0,0,0,0,0,0,0,0,0,0,0,0,0,0,0,0,0,0,0,0,0,23,18,13,13,13,13,13,28,3,0,0,0,0,0,0,0,0,0,0,0,0,0,0,0,0,0,0,0,0,0,0,0,0,0,0,0,0,0,0,0,0,0,
0,0,0,0,0,0,0,0,0,0,0,0,0,0,0,0,0,0,0,0,0,0,0,23,18,13,13,13,13,13,28,3,0,0,0,0,0,0,0,0,0,0,0,0,0,0,0,0,0,0,0,0,0,0,0,0,0,0,0,0,0,0,0,0
</data>
 </layer>
 <layer id="7" name="Hills 2" width="64" height="48">
  <data encoding="csv">
0,0,0,0,0,0,0,0,0,0,0,0,0,0,0,0,0,0,0,0,0,0,0,0,0,0,0,0,0,0,0,0,0,0,0,0,0,0,0,0,0,0,0,0,0,0,0,0,1,2,29,13,13,13,13,13,13,13,13,13,13,13,28,3,
0,0,0,0,0,0,0,0,0,0,0,0,0,0,0,0,0,0,0,0,0,0,0,0,0,0,0,0,0,1,3,0,0,0,0,0,0,0,0,0,0,0,0,0,0,0,0,0,23,24,24,18,13,13,13,13,13,13,13,13,13,13,13,28,
0,0,0,0,0,0,0,0,0,0,0,0,0,0,0,0,0,0,0,0,0,0,0,0,0,0,0,0,1,29,14,0,0,0,0,0,0,0,0,0,0,0,0,0,0,0,0,0,0,0,0,23,18,13,13,13,13,13,13,13,13,13,17,24,
0,0,0,0,0,0,0,0,0,0,0,0,0,0,0,0,0,0,0,0,0,0,0,0,0,0,0,0,12,13,14,0,0,0,0,0,0,0,0,0,0,0,0,0,0,0,0,0,0,0,0,0,12,13,13,13,13,13,13,13,13,13,28,3,
0,0,0,0,0,0,0,0,0,0,0,0,0,0,0,0,0,0,0,0,0,0,0,0,0,0,0,1,29,13,14,0,0,0,0,0,0,0,0,0,0,0,0,0,0,0,0,0,0,0,0,0,23,24,18,13,13,13,13,13,13,13,13,14,
0,0,0,0,0,0,0,0,0,0,0,0,0,0,0,0,0,0,0,0,0,0,0,0,0,0,0,12,13,13,14,0,0,0,0,0,0,0,0,0,0,0,0,0,0,0,0,0,0,0,0,0,0,0,12,13,13,13,13,13,13,13,13,28,
0,0,0,0,0,0,0,0,0,0,0,0,0,0,0,0,0,0,0,0,0,0,0,0,0,0,0,12,17,24,25,0,0,0,0,0,0,0,0,0,0,0,0,0,0,0,0,0,0,0,0,0,0,0,23,18,13,13,13,13,13,13,13,13,
0,0,0,0,0,0,0,0,0,0,0,0,0,0,0,0,0,0,0,0,0,0,0,0,0,0,0,23,25,0,0,0,1,3,0,0,0,0,0,0,0,0,0,0,0,0,0,0,0,0,0,0,0,0,0,23,24,24,18,13,17,24,24,18,
0,0,0,0,0,0,0,0,0,0,0,0,0,0,0,0,0,0,0,0,0,0,0,0,0,0,0,0,0,0,0,0,23,25,0,0,0,0,0,0,0,0,0,0,0,0,0,0,0,0,0,0,0,0,0,0,0,0,12,13,28,3,0,12,
0,0,0,0,0,0,0,0,0,0,0,0,0,0,0,0,0,0,0,0,0,0,0,0,0,0,0,0,0,0,0,0,0,0,0,0,0,0,0,0,0,0,0,0,0,0,0,0,0,0,0,0,0,0,0,0,0,0,23,18,13,14,0,23,
0,0,0,0,0,0,0,0,0,0,0,0,0,0,0,0,0,0,0,0,0,0,0,0,0,0,0,0,0,0,0,0,0,0,0,0,0,0,0,0,0,0,0,0,0,0,0,0,0,0,0,0,0,0,0,0,0,0,0,12,13,14,0,0,
0,0,0,0,0,0,0,0,0,0,0,0,0,0,0,0,0,0,0,0,0,0,0,0,0,0,0,0,0,0,0,0,0,0,0,0,0,0,0,0,0,0,0,0,0,0,0,0,0,0,0,0,0,0,0,0,0,0,0,12,13,14,0,0,
0,0,0,0,0,0,0,0,0,0,0,0,0,0,0,0,0,0,0,0,0,0,0,0,0,0,0,0,0,0,0,0,0,0,0,0,0,0,0,0,0,0,0,0,0,0,0,0,0,0,0,0,0,0,0,0,0,0,0,23,24,25,0,0,
0,0,0,0,0,0,0,0,0,0,0,0,0,0,0,0,0,0,0,0,0,0,0,0,0,0,0,0,0,0,0,0,0,0,0,0,0,0,0,0,0,0,0,0,0,0,0,0,0,0,0,0,0,0,0,0,0,0,0,0,0,0,0,0,
0,0,0,0,0,0,0,0,0,0,0,0,0,0,0,0,0,0,0,0,0,0,0,0,0,0,0,0,0,0,0,0,0,0,0,0,0,0,0,0,0,0,0,0,0,0,0,0,0,0,0,0,0,0,0,0,0,0,0,0,0,0,0,0,
0,0,0,0,0,0,0,0,0,0,0,0,0,0,0,0,0,0,0,0,0,0,0,0,0,0,0,0,0,0,0,0,0,0,0,0,0,0,0,0,0,0,0,0,0,0,0,0,0,0,0,0,0,0,0,0,0,0,0,0,0,0,0,0,
0,0,0,0,0,0,0,0,0,0,0,0,0,0,0,0,0,0,0,0,0,0,0,0,0,0,0,0,0,0,0,0,0,0,0,0,0,0,0,0,0,0,0,0,0,0,0,0,0,0,0,0,0,0,0,0,0,0,0,0,0,0,0,0,
0,0,0,0,0,0,0,0,0,0,0,0,0,0,0,0,0,0,0,0,0,0,0,0,0,0,0,0,0,0,0,0,0,0,0,0,0,0,0,0,0,0,0,0,0,0,0,0,0,0,0,0,0,0,0,0,0,0,0,0,0,0,0,0,
0,0,0,0,0,0,0,0,0,0,0,0,0,0,0,0,0,0,0,0,0,0,0,0,0,0,0,0,0,0,0,0,0,0,0,0,0,0,0,0,0,0,0,0,0,0,0,0,0,0,0,0,0,0,0,0,0,0,0,0,0,0,0,0,
0,0,0,0,0,0,0,0,0,0,0,0,0,0,0,0,0,0,0,0,0,0,0,0,0,0,0,0,0,0,0,0,0,0,0,0,0,0,0,0,0,0,0,0,0,0,0,0,0,0,0,0,0,0,0,0,0,0,0,0,0,0,0,0,
0,0,0,0,0,0,0,0,0,0,0,0,0,0,0,0,0,0,0,0,0,0,0,0,0,0,0,0,0,0,0,0,0,0,0,0,0,0,0,0,0,0,0,0,0,0,0,0,0,0,0,0,0,0,0,0,0,0,0,0,0,0,0,0,
0,0,0,0,0,0,0,0,0,0,0,0,0,0,0,0,0,0,0,0,0,0,0,0,0,0,0,0,0,0,0,0,0,0,0,0,0,0,0,0,0,0,0,0,0,0,0,0,0,0,0,0,0,0,0,0,0,0,0,0,0,0,0,0,
0,0,0,0,0,0,0,0,0,0,0,0,0,0,0,0,0,0,0,0,0,0,0,0,0,0,0,0,0,0,0,0,0,0,0,0,0,0,0,0,0,0,0,0,0,0,0,0,0,0,0,0,0,0,0,0,0,0,0,0,0,0,0,0,
0,0,0,0,0,0,0,0,0,0,0,0,0,0,0,0,0,0,0,0,0,0,0,0,0,0,0,0,0,0,0,0,0,0,0,0,0,0,0,0,0,0,0,0,0,0,0,0,0,0,0,0,0,0,0,0,0,0,0,0,0,0,0,0,
0,0,0,0,0,0,0,0,0,0,0,0,0,0,0,0,0,1,2,2,2,3,0,0,0,0,0,0,0,0,0,0,0,0,0,0,0,0,0,0,0,0,0,0,0,0,0,0,0,0,0,0,0,0,0,0,0,0,0,0,0,0,0,0,
0,0,0,0,0,0,0,0,0,0,0,0,0,0,0,0,0,12,17,24,18,28,3,0,0,0,0,0,0,0,0,0,0,0,0,0,0,0,0,0,0,0,0,0,0,0,0,0,0,0,0,0,0,0,0,0,0,0,0,0,0,0,0,0,
0,0,0,0,0,0,0,0,0,0,0,0,0,0,0,0,0,12,14,0,23,18,28,3,0,0,0,0,0,0,0,0,0,0,0,0,0,0,0,0,0,0,0,0,0,0,0,0,0,0,0,0,0,0,0,0,0,0,0,0,0,0,0,0,
0,0,0,0,0,0,0,0,0,0,0,0,0,0,0,1,2,29,14,0,0,23,18,28,3,0,0,0,0,0,0,0,0,0,0,0,0,0,0,0,0,0,0,0,0,0,0,0,0,0,0,0,0,0,0,0,0,0,0,0,0,0,0,0,
0,0,0,0,0,0,0,0,0,0,0,0,0,0,0,23,24,24,25,0,1,2,29,17,25,0,0,0,0,0,0,0,0,0,0,0,0,0,0,0,0,0,0,0,0,0,0,0,0,0,0,0,0,0,0,0,0,0,0,0,0,0,0,0,
0,0,0,0,0,0,0,0,0,0,0,0,0,1,2,2,2,3,1,2,29,17,24,25,0,0,0,0,0,0,0,0,0,0,0,0,0,0,0,0,0,0,0,0,0,0,0,0,0,0,0,0,0,0,0,0,0,0,0,0,0,0,0,0,
0,0,0,0,0,0,0,0,0,0,0,0,1,29,13,13,13,14,12,17,24,25,0,0,0,0,0,0,0,0,0,0,0,0,0,0,0,0,0,0,0,0,0,0,0,0,0,0,0,0,0,0,0,0,0,0,0,0,0,0,0,0,0,0,
0,0,0,0,0,0,0,0,0,0,0,0,23,24,24,24,18,14,23,25,0,0,0,0,0,0,0,0,0,0,0,0,0,0,0,0,0,1,2,3,0,0,0,0,0,0,0,0,0,0,0,0,0,0,0,0,0,0,0,0,0,0,0,0,
0,0,0,0,0,0,0,0,0,0,0,0,0,0,0,0,23,25,0,0,0,0,0,0,0,0,0,0,0,0,0,0,0,0,0,1,2,29,13,28,3,0,0,0,0,0,0,0,0,0,0,0,0,0,0,0,0,0,0,0,0,0,0,0,
0,0,0,0,0,0,0,0,0,0,0,0,0,0,0,0,0,0,0,0,0,0,0,0,0,0,0,0,0,0,0,0,0,0,0,12,17,24,24,18,14,0,0,0,0,0,0,0,0,0,0,0,0,0,0,0,0,0,0,0,0,0,0,0,
0,0,0,0,0,0,0,0,0,0,0,0,0,0,0,0,0,0,0,0,0,0,0,0,0,0,0,0,0,0,0,0,0,1,2,29,28,3,0,12,14,0,0,0,0,0,0,0,0,0,0,0,0,0,0,0,0,0,0,0,0,0,0,0,
0,0,0,0,0,0,0,0,0,0,0,0,0,0,0,0,0,0,0,0,0,0,0,0,0,0,0,0,0,0,0,0,0,23,24,18,13,28,3,12,14,0,0,0,0,0,0,0,0,0,0,0,0,0,0,0,0,0,0,0,0,0,0,0,
0,0,0,0,0,0,0,0,0,0,0,0,0,0,0,0,0,0,0,0,0,0,0,0,0,0,0,0,0,0,0,0,0,0,0,23,24,18,28,29,28,3,0,0,0,0,0,0,0,0,0,0,0,0,0,0,0,0,0,0,0,0,0,0,
0,0,0,0,0,0,0,0,0,0,0,0,0,0,0,0,0,0,0,0,0,0,0,0,0,0,0,0,0,0,0,0,0,0,0,0,0,12,13,17,24,25,0,0,0,0,0,0,0,0,0,0,0,0,0,0,0,0,0,0,0,0,0,0,
0,0,0,0,0,0,0,0,0,0,0,0,0,0,0,0,0,0,0,0,0,0,0,0,0,0,0,0,0,0,0,0,0,0,0,0,0,23,24,25,0,0,0,0,0,0,0,0,0,0,0,0,0,0,0,0,0,0,0,0,0,0,0,0,
0,0,0,0,0,0,0,0,0,0,0,0,0,0,0,0,0,0,0,0,1,2,2,3,0,0,0,0,0,0,0,0,0,0,0,0,0,0,0,0,0,0,0,0,0,0,0,0,0,0,0,0,0,0,0,0,0,0,0,0,0,0,0,0,
0,0,0,0,0,0,0,0,0,0,0,0,0,0,0,0,0,0,0,1,29,13,13,14,0,0,0,0,0,0,0,0,0,0,0,0,0,0,0,0,0,0,0,0,0,0,0,0,0,0,0,0,0,0,0,0,0,0,0,0,0,0,0,0,
0,0,0,0,0,0,0,0,0,0,0,0,0,0,0,0,0,0,0,23,18,13,13,28,2,3,0,0,0,0,0,0,0,0,0,0,0,0,0,0,0,0,0,0,0,0,0,0,0,0,0,0,0,0,0,0,0,0,0,0,0,0,0,0,
0,0,0,0,0,0,0,0,0,0,0,0,0,0,0,0,0,0,0,0,23,18,13,13,13,28,3,0,0,0,0,0,0,0,0,0,0,0,0,0,0,0,0,0,0,0,0,0,0,0,0,0,0,0,0,0,0,0,0,0,0,0,0,0,
0,0,0,0,0,0,0,0,0,0,0,0,0,0,0,0,0,0,0,0,0,23,24,18,13,13,28,3,0,0,0,0,0,0,0,0,0,0,0,0,0,0,0,0,0,0,0,0,0,0,0,0,0,0,0,0,0,0,0,0,0,0,0,0,
0,0,0,0,0,0,0,0,0,0,0,0,0,0,0,0,0,0,0,0,0,0,0,23,24,18,13,14,0,0,0,0,0,0,0,0,0,0,0,0,0,0,0,0,0,0,0,0,0,0,0,0,0,0,0,0,0,0,0,0,0,0,0,0,
0,0,0,0,0,0,0,0,0,0,0,0,0,0,0,0,0,0,0,0,0,0,0,0,0,23,18,14,0,0,0,0,0,0,0,0,0,0,0,0,0,0,0,0,0,0,0,0,0,0,0,0,0,0,0,0,0,0,0,0,0,0,0,0,
0,0,0,0,0,0,0,0,0,0,0,0,0,0,0,0,0,0,0,0,0,0,0,0,0,0,23,25,0,0,0,0,0,0,0,0,0,0,0,0,0,0,0,0,0,0,0,0,0,0,0,0,0,0,0,0,0,0,0,0,0,0,0,0,
0,0,0,0,0,0,0,0,0,0,0,0,0,0,0,0,0,0,0,0,0,0,0,0,0,0,0,0,0,0,0,0,0,0,0,0,0,0,0,0,0,0,0,0,0,0,0,0,0,0,0,0,0,0,0,0,0,0,0,0,0,0,0,0
</data>
 </layer>
 <layer id="9" name="Hills 3" width="64" height="48">
  <data encoding="csv">
0,0,0,0,0,0,0,0,0,0,0,0,0,0,0,0,0,0,0,0,0,0,0,0,0,0,0,0,0,0,0,0,0,0,0,0,0,0,0,0,0,0,0,0,0,0,0,0,0,0,0,0,0,0,12,13,13,28,2,2,2,2,29,13,
0,0,0,0,0,0,0,0,0,0,0,0,0,0,0,0,0,0,0,0,0,0,0,0,0,0,0,0,0,0,0,0,0,0,0,0,0,0,0,0,0,0,0,0,0,0,0,0,0,0,0,0,0,0,23,18,13,13,13,13,13,17,24,24,
0,0,0,0,0,0,0,0,0,0,0,0,0,0,0,0,0,0,0,0,0,0,0,0,0,0,0,0,1,3,0,0,0,0,0,0,0,0,0,0,0,0,0,0,0,0,0,0,0,0,0,0,0,0,0,12,13,13,13,17,24,25,0,0,
0,0,0,0,0,0,0,0,0,0,0,0,0,0,0,0,0,0,0,0,0,0,0,0,0,0,0,0,12,14,0,0,0,0,0,0,0,0,0,0,0,0,0,0,0,0,0,0,0,0,0,0,0,0,0,23,18,13,13,14,0,0,0,0,
0,0,0,0,0,0,0,0,0,0,0,0,0,0,0,0,0,0,0,0,0,0,0,0,0,0,0,0,12,14,0,0,0,0,0,0,0,0,0,0,0,0,0,0,0,0,0,0,0,0,0,0,0,0,0,0,23,18,13,28,2,2,3,0,
0,0,0,0,0,0,0,0,0,0,0,0,0,0,0,0,0,0,0,0,0,0,0,0,0,0,0,0,23,25,0,0,0,0,0,0,0,0,0,0,0,0,0,0,0,0,0,0,0,0,0,0,0,0,0,0,0,23,24,18,13,13,14,0,
0,0,0,0,0,0,0,0,0,0,0,0,0,0,0,0,0,0,0,0,0,0,0,0,0,0,0,0,0,0,0,0,0,0,0,0,0,0,0,0,0,0,0,0,0,0,0,0,0,0,0,0,0,0,0,0,0,0,0,23,24,24,25,0,
0,0,0,0,0,0,0,0,0,0,0,0,0,0,0,0,0,0,0,0,0,0,0,0,0,0,0,0,0,0,0,0,0,0,0,0,0,0,0,0,0,0,0,0,0,0,0,0,0,0,0,0,0,0,0,0,0,0,0,0,0,0,0,0,
0,0,0,0,0,0,0,0,0,0,0,0,0,0,0,0,0,0,0,0,0,0,0,0,0,0,0,0,0,0,0,0,0,0,0,0,0,0,0,0,0,0,0,0,0,0,0,0,0,0,0,0,0,0,0,0,0,0,0,0,0,0,0,0,
0,0,0,0,0,0,0,0,0,0,0,0,0,0,0,0,0,0,0,0,0,0,0,0,0,0,0,0,0,0,0,0,0,0,0,0,0,0,0,0,0,0,0,0,0,0,0,0,0,0,0,0,0,0,0,0,0,0,0,0,0,0,0,0,
0,0,0,0,0,0,0,0,0,0,0,0,0,0,0,0,0,0,0,0,0,0,0,0,0,0,0,0,0,0,0,0,0,0,0,0,0,0,0,0,0,0,0,0,0,0,0,0,0,0,0,0,0,0,0,0,0,0,0,0,0,0,0,0,
0,0,0,0,0,0,0,0,0,0,0,0,0,0,0,0,0,0,0,0,0,0,0,0,0,0,0,0,0,0,0,0,0,0,0,0,0,0,0,0,0,0,0,0,0,0,0,0,0,0,0,0,0,0,0,0,0,0,0,0,0,0,0,0,
0,0,0,0,0,0,0,0,0,0,0,0,0,0,0,0,0,0,0,0,0,0,0,0,0,0,0,0,0,0,0,0,0,0,0,0,0,0,0,0,0,0,0,0,0,0,0,0,0,0,0,0,0,0,0,0,0,0,0,0,0,0,0,0,
0,0,0,0,0,0,0,0,0,0,0,0,0,0,0,0,0,0,0,0,0,0,0,0,0,0,0,0,0,0,0,0,0,0,0,0,0,0,0,0,0,0,0,0,0,0,0,0,0,0,0,0,0,0,0,0,0,0,0,0,0,0,0,0,
0,0,0,0,0,0,0,0,0,0,0,0,0,0,0,0,0,0,0,0,0,0,0,0,0,0,0,0,0,0,0,0,0,0,0,0,0,0,0,0,0,0,0,0,0,0,0,0,0,0,0,0,0,0,0,0,0,0,0,0,0,0,0,0,
0,0,0,0,0,0,0,0,0,0,0,0,0,0,0,0,0,0,0,0,0,0,0,0,0,0,0,0,0,0,0,0,0,0,0,0,0,0,0,0,0,0,0,0,0,0,0,0,0,0,0,0,0,0,0,0,0,0,0,0,0,0,0,0,
0,0,0,0,0,0,0,0,0,0,0,0,0,0,0,0,0,0,0,0,0,0,0,0,0,0,0,0,0,0,0,0,0,0,0,0,0,0,0,0,0,0,0,0,0,0,0,0,0,0,0,0,0,0,0,0,0,0,0,0,0,0,0,0,
0,0,0,0,0,0,0,0,0,0,0,0,0,0,0,0,0,0,0,0,0,0,0,0,0,0,0,0,0,0,0,0,0,0,0,0,0,0,0,0,0,0,0,0,0,0,0,0,0,0,0,0,0,0,0,0,0,0,0,0,0,0,0,0,
0,0,0,0,0,0,0,0,0,0,0,0,0,0,0,0,0,0,0,0,0,0,0,0,0,0,0,0,0,0,0,0,0,0,0,0,0,0,0,0,0,0,0,0,0,0,0,0,0,0,0,0,0,0,0,0,0,0,0,0,0,0,0,0,
0,0,0,0,0,0,0,0,0,0,0,0,0,0,0,0,0,0,0,0,0,0,0,0,0,0,0,0,0,0,0,0,0,0,0,0,0,0,0,0,0,0,0,0,0,0,0,0,0,0,0,0,0,0,0,0,0,0,0,0,0,0,0,0,
0,0,0,0,0,0,0,0,0,0,0,0,0,0,0,0,0,0,0,0,0,0,0,0,0,0,0,0,0,0,0,0,0,0,0,0,0,0,0,0,0,0,0,0,0,0,0,0,0,0,0,0,0,0,0,0,0,0,0,0,0,0,0,0,
0,0,0,0,0,0,0,0,0,0,0,0,0,0,0,0,0,0,0,0,0,0,0,0,0,0,0,0,0,0,0,0,0,0,0,0,0,0,0,0,0,0,0,0,0,0,0,0,0,0,0,0,0,0,0,0,0,0,0,0,0,0,0,0,
0,0,0,0,0,0,0,0,0,0,0,0,0,0,0,0,0,0,0,0,0,0,0,0,0,0,0,0,0,0,0,0,0,0,0,0,0,0,0,0,0,0,0,0,0,0,0,0,0,0,0,0,0,0,0,0,0,0,0,0,0,0,0,0,
0,0,0,0,0,0,0,0,0,0,0,0,0,0,0,0,0,0,0,0,0,0,0,0,0,0,0,0,0,0,0,0,0,0,0,0,0,0,0,0,0,0,0,0,0,0,0,0,0,0,0,0,0,0,0,0,0,0,0,0,0,0,0,0,
0,0,0,0,0,0,0,0,0,0,0,0,0,0,0,0,0,0,0,0,0,0,0,0,0,0,0,0,0,0,0,0,0,0,0,0,0,0,0,0,0,0,0,0,0,0,0,0,0,0,0,0,0,0,0,0,0,0,0,0,0,0,0,0,
0,0,0,0,0,0,0,0,0,0,0,0,0,0,0,0,0,0,0,0,0,0,0,0,0,0,0,0,0,0,0,0,0,0,0,0,0,0,0,0,0,0,0,0,0,0,0,0,0,0,0,0,0,0,0,0,0,0,0,0,0,0,0,0,
0,0,0,0,0,0,0,0,0,0,0,0,0,0,0,0,0,0,0,0,0,0,0,0,0,0,0,0,0,0,0,0,0,0,0,0,0,0,0,0,0,0,0,0,0,0,0,0,0,0,0,0,0,0,0,0,0,0,0,0,0,0,0,0,
0,0,0,0,0,0,0,0,0,0,0,0,0,0,0,0,0,0,0,0,0,0,0,0,0,0,0,0,0,0,0,0,0,0,0,0,0,0,0,0,0,0,0,0,0,0,0,0,0,0,0,0,0,0,0,0,0,0,0,0,0,0,0,0,
0,0,0,0,0,0,0,0,0,0,0,0,0,1,2,2,3,0,0,0,0,0,0,0,0,0,0,0,0,0,0,0,0,0,0,0,0,0,0,0,0,0,0,0,0,0,0,0,0,0,0,0,0,0,0,0,0,0,0,0,0,0,0,0,
0,0,0,0,0,0,0,0,0,0,0,0,0,23,24,18,14,0,0,0,0,0,0,0,0,0,0,0,0,0,0,0,0,0,0,0,0,0,0,0,0,0,0,0,0,0,0,0,0,0,0,0,0,0,0,0,0,0,0,0,0,0,0,0,
0,0,0,0,0,0,0,0,0,0,0,0,0,0,0,23,25,0,0,0,0,0,0,0,0,0,0,0,0,0,0,0,0,0,0,0,0,0,0,0,0,0,0,0,0,0,0,0,0,0,0,0,0,0,0,0,0,0,0,0,0,0,0,0,
0,0,0,0,0,0,0,0,0,0,0,0,0,0,0,0,0,0,0,0,0,0,0,0,0,0,0,0,0,0,0,0,0,0,0,0,0,0,0,0,0,0,0,0,0,0,0,0,0,0,0,0,0,0,0,0,0,0,0,0,0,0,0,0,
0,0,0,0,0,0,0,0,0,0,0,0,0,0,0,0,0,0,0,0,0,0,0,0,0,0,0,0,0,0,0,0,0,0,0,0,0,0,0,0,0,0,0,0,0,0,0,0,0,0,0,0,0,0,0,0,0,0,0,0,0,0,0,0,
0,0,0,0,0,0,0,0,0,0,0,0,0,0,0,0,0,0,0,0,0,0,0,0,0,0,0,0,0,0,0,0,0,0,0,0,0,0,0,0,0,0,0,0,0,0,0,0,0,0,0,0,0,0,0,0,0,0,0,0,0,0,0,0,
0,0,0,0,0,0,0,0,0,0,0,0,0,0,0,0,0,0,0,0,0,0,0,0,0,0,0,0,0,0,0,0,0,0,0,0,0,0,0,0,0,0,0,0,0,0,0,0,0,0,0,0,0,0,0,0,0,0,0,0,0,0,0,0,
0,0,0,0,0,0,0,0,0,0,0,0,0,0,0,0,0,0,0,0,0,0,0,0,0,0,0,0,0,0,0,0,0,0,0,0,0,0,0,0,0,0,0,0,0,0,0,0,0,0,0,0,0,0,0,0,0,0,0,0,0,0,0,0,
0,0,0,0,0,0,0,0,0,0,0,0,0,0,0,0,0,0,0,0,0,0,0,0,0,0,0,0,0,0,0,0,0,0,0,0,0,0,0,0,0,0,0,0,0,0,0,0,0,0,0,0,0,0,0,0,0,0,0,0,0,0,0,0,
0,0,0,0,0,0,0,0,0,0,0,0,0,0,0,0,0,0,0,0,0,0,0,0,0,0,0,0,0,0,0,0,0,0,0,0,0,0,0,0,0,0,0,0,0,0,0,0,0,0,0,0,0,0,0,0,0,0,0,0,0,0,0,0,
0,0,0,0,0,0,0,0,0,0,0,0,0,0,0,0,0,0,0,0,0,0,0,0,0,0,0,0,0,0,0,0,0,0,0,0,0,0,0,0,0,0,0,0,0,0,0,0,0,0,0,0,0,0,0,0,0,0,0,0,0,0,0,0,
0,0,0,0,0,0,0,0,0,0,0,0,0,0,0,0,0,0,0,0,0,0,0,0,0,0,0,0,0,0,0,0,0,0,0,0,0,0,0,0,0,0,0,0,0,0,0,0,0,0,0,0,0,0,0,0,0,0,0,0,0,0,0,0,
0,0,0,0,0,0,0,0,0,0,0,0,0,0,0,0,0,0,0,0,0,0,1,2,3,0,0,0,0,0,0,0,0,0,0,0,0,0,0,0,0,0,0,0,0,0,0,0,0,0,0,0,0,0,0,0,0,0,0,0,0,0,0,0,
0,0,0,0,0,0,0,0,0,0,0,0,0,0,0,0,0,0,0,0,0,0,23,18,28,2,3,0,0,0,0,0,0,0,0,0,0,0,0,0,0,0,0,0,0,0,0,0,0,0,0,0,0,0,0,0,0,0,0,0,0,0,0,0,
0,0,0,0,0,0,0,0,0,0,0,0,0,0,0,0,0,0,0,0,0,0,0,23,24,18,14,0,0,0,0,0,0,0,0,0,0,0,0,0,0,0,0,0,0,0,0,0,0,0,0,0,0,0,0,0,0,0,0,0,0,0,0,0,
0,0,0,0,0,0,0,0,0,0,0,0,0,0,0,0,0,0,0,0,0,0,0,0,0,23,25,0,0,0,0,0,0,0,0,0,0,0,0,0,0,0,0,0,0,0,0,0,0,0,0,0,0,0,0,0,0,0,0,0,0,0,0,0,
0,0,0,0,0,0,0,0,0,0,0,0,0,0,0,0,0,0,0,0,0,0,0,0,0,0,0,0,0,0,0,0,0,0,0,0,0,0,0,0,0,0,0,0,0,0,0,0,0,0,0,0,0,0,0,0,0,0,0,0,0,0,0,0,
0,0,0,0,0,0,0,0,0,0,0,0,0,0,0,0,0,0,0,0,0,0,0,0,0,0,0,0,0,0,0,0,0,0,0,0,0,0,0,0,0,0,0,0,0,0,0,0,0,0,0,0,0,0,0,0,0,0,0,0,0,0,0,0,
0,0,0,0,0,0,0,0,0,0,0,0,0,0,0,0,0,0,0,0,0,0,0,0,0,0,0,0,0,0,0,0,0,0,0,0,0,0,0,0,0,0,0,0,0,0,0,0,0,0,0,0,0,0,0,0,0,0,0,0,0,0,0,0,
0,0,0,0,0,0,0,0,0,0,0,0,0,0,0,0,0,0,0,0,0,0,0,0,0,0,0,0,0,0,0,0,0,0,0,0,0,0,0,0,0,0,0,0,0,0,0,0,0,0,0,0,0,0,0,0,0,0,0,0,0,0,0,0
</data>
 </layer>
 <layer id="14" name="Islands" width="64" height="48">
  <data encoding="csv">
0,0,0,0,0,0,0,0,0,0,0,0,0,0,0,0,0,0,0,0,0,0,0,0,0,0,0,0,0,0,0,0,0,0,0,0,0,0,0,64,0,0,0,0,0,0,0,0,0,0,0,0,0,0,0,0,0,0,0,0,0,0,0,0,
0,0,0,0,0,0,0,0,0,0,0,0,0,0,0,0,0,0,0,0,0,0,0,0,0,0,0,0,0,0,0,0,0,0,37,0,0,0,0,0,0,0,0,0,0,0,0,0,0,0,0,0,0,0,0,0,0,0,0,0,0,0,0,0,
0,0,0,0,0,0,0,0,0,0,0,0,0,0,0,0,0,0,0,0,0,0,0,0,0,0,0,0,0,0,0,0,0,0,0,0,34,35,36,0,0,0,0,0,0,0,0,0,0,0,0,0,0,0,0,0,0,0,0,0,0,0,0,0,
0,0,0,0,0,0,0,0,0,0,0,0,0,0,0,0,0,0,0,0,0,0,0,0,0,0,0,0,0,0,0,0,0,0,0,0,0,0,0,0,0,0,0,0,0,0,0,0,0,0,0,0,0,0,0,0,0,0,0,0,0,0,0,0,
0,0,0,0,0,0,0,0,0,0,0,0,0,0,0,0,0,0,0,0,0,0,0,0,0,0,0,0,0,0,0,0,0,0,0,0,0,0,0,0,0,0,0,0,0,0,0,0,0,0,0,0,0,0,0,0,0,0,0,0,0,0,0,0,
0,0,0,0,0,0,0,1,3,0,0,0,0,0,0,0,0,0,64,0,0,0,0,0,0,0,0,0,0,0,0,0,0,0,0,0,0,0,0,0,37,0,0,0,0,0,4,0,0,0,0,0,0,0,0,0,0,0,0,0,0,0,0,0,
0,0,0,0,0,0,0,23,25,0,0,0,0,0,0,37,0,0,0,0,0,0,0,0,0,0,0,0,0,0,0,0,0,0,0,0,0,0,0,0,0,37,0,0,37,0,15,0,0,0,0,0,0,0,0,0,0,0,0,0,0,0,0,0,
0,0,0,0,0,0,37,0,0,0,0,0,0,0,0,0,0,0,0,0,0,0,0,0,0,0,0,0,0,0,0,0,0,0,0,0,0,0,0,0,0,0,0,0,0,0,26,0,0,64,0,0,0,0,0,0,0,0,0,0,0,0,0,0,
0,0,0,0,0,0,0,64,0,0,0,0,0,0,0,0,0,0,0,0,0,0,0,0,0,0,0,0,0,0,0,0,0,0,0,0,0,0,0,0,0,0,37,0,0,0,0,0,4,0,0,0,0,0,0,0,0,0,0,0,0,0,0,0,
0,0,0,0,0,0,0,0,0,0,0,0,0,0,0,0,0,0,0,0,0,0,0,0,0,0,0,0,0,0,0,0,0,0,0,0,0,0,0,0,0,0,0,0,1,3,0,0,15,0,0,0,0,0,0,0,0,0,0,0,0,0,0,0,
0,0,0,0,0,0,0,0,0,0,0,0,0,0,0,0,0,0,0,0,0,0,0,0,0,0,0,0,0,0,0,0,0,0,0,0,0,0,0,0,0,0,0,0,23,25,0,0,26,0,0,0,0,0,0,0,0,0,0,0,0,0,0,0,
0,0,0,0,0,0,0,0,0,0,0,0,0,0,0,0,0,0,0,0,0,0,0,0,0,0,0,0,0,0,0,0,0,0,0,0,0,0,0,0,0,0,0,0,0,0,0,0,0,0,0,0,0,64,0,0,0,0,0,0,0,0,0,0,
0,0,0,0,0,0,0,0,0,0,0,0,0,0,0,0,0,0,0,0,0,0,0,0,0,0,0,0,0,0,0,0,0,0,0,0,0,0,0,0,0,0,0,0,0,0,0,0,0,0,0,0,0,0,0,0,0,0,0,0,0,0,0,0,
0,0,0,0,0,0,0,0,0,0,0,0,0,0,0,0,0,0,0,0,0,0,0,0,0,0,0,0,0,0,0,0,0,0,0,0,0,0,0,0,0,0,0,0,0,0,0,0,0,0,0,0,0,0,0,0,0,0,0,0,0,0,0,0,
0,0,0,0,0,0,0,0,0,0,0,0,0,0,0,0,0,0,0,0,0,0,0,0,0,0,0,0,0,0,0,0,0,0,0,0,0,0,0,0,0,0,0,0,0,0,0,0,0,0,0,0,0,0,0,1,3,0,0,0,0,0,0,0,
0,0,0,0,0,0,0,0,0,0,0,0,0,0,0,0,0,0,0,0,0,0,0,0,0,0,0,0,0,0,0,0,0,0,0,0,0,0,0,0,0,0,0,0,0,0,0,0,0,0,0,0,0,0,0,12,14,0,0,0,0,0,0,0,
0,0,0,0,0,0,0,0,0,0,0,0,0,0,0,0,0,0,0,0,0,0,0,0,0,0,0,0,0,0,0,0,0,0,0,0,0,0,0,0,0,0,0,0,0,0,0,0,0,0,0,0,0,0,0,23,25,0,0,0,0,0,0,0,
0,0,0,0,0,0,0,0,0,0,0,0,0,0,0,0,0,0,0,0,0,0,0,0,0,0,0,0,0,0,0,0,0,0,0,0,0,0,0,0,0,0,0,0,0,0,0,0,0,0,0,0,0,0,0,0,0,0,0,0,0,0,0,0,
0,0,0,0,0,0,0,0,0,0,0,0,0,0,0,0,0,0,0,0,0,0,0,0,0,0,0,0,0,0,0,0,0,0,0,0,0,0,0,0,0,0,0,0,0,0,0,0,0,0,0,0,0,0,0,0,0,0,0,0,0,0,37,0,
0,0,0,0,0,0,0,0,0,0,0,0,0,0,0,0,0,0,0,0,0,0,0,0,0,0,0,0,0,0,0,0,0,0,0,0,0,0,0,0,0,0,0,0,0,0,0,0,0,0,0,0,0,0,0,0,0,0,0,0,0,0,0,0,
0,0,0,0,0,0,0,0,0,0,0,0,0,0,0,0,0,0,0,0,0,0,0,0,0,0,0,0,0,0,0,0,0,0,0,0,0,0,0,0,0,0,0,0,0,0,0,0,0,0,0,0,0,0,0,0,0,0,0,0,0,0,0,0,
0,0,0,0,0,0,0,0,0,0,0,0,0,0,0,0,0,0,0,0,0,0,0,0,0,0,0,0,0,0,0,0,0,0,0,0,0,0,0,0,0,0,0,0,0,0,0,0,0,0,0,0,0,0,0,0,0,0,0,0,0,0,0,64,
0,0,0,0,0,0,0,0,0,0,0,0,0,0,0,0,0,0,0,0,0,0,0,0,0,0,0,0,0,0,0,0,0,0,0,0,0,0,0,0,0,0,0,0,0,0,0,0,0,0,0,0,0,0,0,0,0,0,0,0,0,1,3,0,
0,0,0,0,0,0,0,0,0,0,0,0,0,0,0,0,0,0,0,0,0,0,0,0,0,0,0,0,0,0,0,0,0,0,0,0,0,0,0,0,0,0,0,0,0,0,0,0,0,0,0,0,0,0,0,0,0,0,0,0,0,23,25,0,
0,0,0,0,0,0,0,0,0,0,0,0,0,0,0,0,0,0,0,0,0,0,0,0,0,0,0,0,0,0,0,0,0,0,0,0,0,0,0,0,0,0,0,0,0,0,0,0,0,0,0,0,0,0,0,0,0,0,0,0,4,0,0,0,
0,0,0,0,0,0,0,0,0,0,0,0,0,0,0,0,0,0,0,0,0,0,0,0,0,0,0,0,0,0,0,0,0,0,0,0,0,0,0,0,0,0,0,0,0,0,0,0,0,0,0,0,0,0,0,0,0,0,0,0,26,0,0,0,
0,0,0,0,0,0,0,0,0,0,0,0,0,0,0,0,0,0,0,0,0,0,0,0,0,0,0,0,0,0,0,0,0,0,0,0,0,0,0,0,0,0,0,0,0,0,0,0,0,0,0,0,0,0,0,0,0,0,0,4,0,0,0,0,
0,0,0,0,0,0,0,0,0,0,0,0,0,0,0,0,0,0,0,0,0,0,0,0,0,0,0,0,0,0,0,0,0,0,0,0,0,0,0,0,0,0,0,0,0,0,0,0,0,0,0,0,0,0,0,0,0,0,0,15,0,0,0,0,
0,0,0,0,0,0,0,0,0,0,0,0,0,0,0,0,0,0,0,0,0,0,0,0,0,0,0,0,0,0,0,0,0,0,0,0,0,0,0,0,0,0,0,0,0,0,0,0,0,0,0,0,0,0,0,0,0,0,0,26,0,0,4,0,
0,0,0,0,0,0,0,0,0,0,0,0,0,0,0,0,0,0,0,0,0,0,0,0,0,0,0,0,0,0,0,0,0,0,0,0,0,0,0,0,0,0,0,0,0,0,0,0,0,0,0,0,0,0,0,0,0,0,37,0,0,0,26,0,
0,0,0,0,0,0,0,0,0,0,0,0,0,0,0,0,0,0,0,0,0,0,0,0,0,0,0,0,0,0,0,0,0,0,0,0,0,0,0,0,0,0,0,0,0,0,0,0,0,0,0,0,0,0,0,0,0,0,0,0,0,0,0,0,
0,0,0,0,0,0,0,0,0,0,0,0,0,0,0,0,0,0,0,0,0,0,0,0,0,0,0,0,0,0,0,0,0,0,0,0,0,0,0,0,0,0,0,0,0,0,0,0,0,0,0,0,0,0,0,0,0,0,0,0,0,0,0,0,
0,0,0,0,0,0,0,0,0,0,0,0,0,0,0,0,0,0,0,0,0,0,0,0,0,0,0,0,0,0,0,0,0,0,0,0,0,0,0,0,0,0,0,0,0,0,0,0,0,0,0,0,0,0,0,0,0,0,0,0,0,0,0,0,
0,0,0,0,0,0,0,0,0,0,0,0,0,0,0,0,0,0,0,0,0,0,0,0,0,0,0,0,0,0,0,0,0,0,0,0,0,0,0,0,0,0,0,0,0,0,0,0,0,0,0,0,0,0,0,0,0,0,0,0,0,0,0,0,
0,0,0,0,0,0,0,0,0,0,0,0,0,0,0,0,0,0,0,0,0,0,0,0,0,0,0,0,0,0,0,0,0,0,0,0,0,0,0,0,0,0,0,0,0,0,0,0,0,0,0,0,0,0,0,0,0,0,0,0,0,0,0,0,
0,0,0,0,0,0,0,0,0,0,0,0,0,0,0,0,0,0,0,0,0,0,0,0,0,0,0,0,0,0,0,0,0,0,0,0,0,0,0,0,0,0,0,0,0,0,0,0,0,0,0,0,0,0,0,0,0,0,0,0,0,0,0,0,
0,0,0,0,0,0,0,0,0,0,0,0,0,0,0,0,0,0,0,0,0,0,0,0,0,0,0,0,0,0,0,0,0,0,0,0,0,0,0,0,0,0,0,0,0,0,0,0,0,0,0,0,0,0,0,0,0,0,0,0,0,0,0,0,
0,0,0,0,0,0,0,0,0,0,0,0,0,0,0,0,0,0,0,0,0,0,0,0,0,0,0,0,0,0,0,0,0,0,0,0,0,0,0,0,0,0,0,0,0,0,0,0,0,0,0,0,0,0,0,0,0,0,0,0,0,0,0,0,
0,0,0,0,0,0,0,0,0,0,0,0,0,0,0,0,0,0,0,0,0,0,0,0,0,0,0,0,0,0,0,0,0,0,0,0,0,0,0,0,0,0,0,0,0,0,0,0,0,0,0,0,0,0,0,0,0,0,0,0,0,0,0,0,
0,0,0,0,0,0,0,0,0,0,0,0,0,0,0,0,0,0,0,0,0,0,0,0,0,0,0,0,0,0,0,0,0,0,0,0,0,0,0,0,0,0,0,0,0,0,0,0,0,0,0,0,0,0,0,0,0,0,0,0,0,0,0,0,
0,0,0,0,0,0,0,0,0,0,0,0,0,0,0,0,0,0,0,0,0,0,0,0,0,0,0,0,0,0,0,0,0,0,0,0,0,0,0,0,0,0,0,0,0,0,0,0,0,0,0,0,0,0,0,0,0,0,0,0,0,0,0,0,
0,0,0,0,0,0,0,0,0,0,0,0,0,0,0,0,0,0,0,0,0,0,0,0,0,0,0,0,0,0,0,0,0,0,0,0,0,0,0,0,0,0,0,0,0,0,0,0,0,0,0,0,0,0,0,0,0,0,0,0,0,0,0,0,
0,0,0,0,0,0,0,0,0,0,0,0,0,0,0,0,0,0,0,0,0,0,0,0,0,0,0,0,0,0,0,0,0,0,0,0,0,0,0,0,0,0,0,0,0,0,0,0,0,0,0,0,0,0,0,0,0,0,0,0,0,0,0,0,
0,0,0,0,0,0,0,0,0,0,0,0,0,0,0,0,0,0,0,0,0,0,0,0,0,0,0,0,0,0,0,0,0,0,0,0,0,0,0,0,0,0,0,0,0,0,0,0,0,0,0,0,0,0,0,0,0,0,0,0,0,0,0,37,
0,0,0,0,0,0,0,0,0,0,0,0,0,0,0,0,0,0,0,0,0,0,0,0,0,0,0,0,0,0,0,0,0,0,0,0,0,0,0,0,0,0,0,0,0,0,0,0,0,0,0,0,0,0,0,0,0,0,0,0,0,0,0,0,
0,0,0,0,0,0,0,0,0,0,0,0,0,0,0,0,0,0,0,0,0,0,0,0,0,0,0,0,0,0,0,0,0,0,0,0,0,0,0,0,0,0,0,0,0,0,0,0,0,0,0,0,0,75,0,0,0,0,0,0,0,34,36,0,
0,0,0,0,0,0,0,0,0,0,0,0,0,0,0,0,0,0,0,0,0,0,0,0,0,0,0,0,0,0,0,0,0,0,0,0,0,0,0,0,0,0,0,0,0,0,0,0,0,0,0,0,0,0,34,35,36,0,0,0,0,0,34,35,
0,0,0,0,0,0,0,0,0,0,0,0,0,0,0,0,0,0,0,0,0,0,0,0,0,0,0,0,0,0,0,0,0,0,0,0,0,0,0,0,0,0,0,0,0,0,0,0,0,1,3,0,0,0,0,0,0,0,0,0,0,0,0,0
</data>
 </layer>
 <layer id="15" name="Greenery" width="64" height="48">
  <data encoding="csv">
0,0,0,0,0,0,0,0,258,0,0,0,0,0,0,0,266,259,260,0,0,0,0,0,296,297,298,273,265,0,0,0,0,0,0,0,0,0,0,0,0,286,0,0,272,266,0,0,0,0,0,0,0,0,0,265,0,0,0,0,0,272,0,0,
0,0,258,265,273,0,0,286,267,0,0,0,0,0,286,286,286,268,269,273,0,0,0,0,0,0,0,0,259,260,272,0,0,0,0,0,0,0,0,0,0,0,294,295,0,0,0,0,0,0,0,0,286,0,0,0,296,297,298,0,286,0,0,0,
0,273,267,0,0,0,272,0,0,0,0,0,273,0,0,0,0,0,0,0,0,0,0,0,0,0,0,0,268,269,0,0,0,0,0,0,0,0,0,0,0,0,0,265,0,0,0,259,260,0,266,0,0,0,265,0,0,265,259,260,0,0,0,0,
0,286,266,0,0,0,0,0,0,0,0,266,0,272,0,0,0,0,0,265,258,0,0,0,0,0,0,0,0,286,0,0,273,258,0,0,0,0,0,0,0,0,0,0,0,0,0,268,269,0,286,0,0,0,0,0,0,0,268,269,0,0,258,0,
0,0,272,0,0,0,0,259,260,0,0,0,0,0,0,0,0,0,0,0,267,266,0,0,0,0,0,0,266,0,258,0,0,267,0,0,0,0,0,0,0,0,0,0,286,0,0,0,0,273,0,265,0,0,0,0,0,0,0,273,0,0,267,0,
0,0,0,0,0,286,0,268,269,0,0,0,0,0,0,0,0,0,0,0,0,273,0,0,0,0,0,0,0,0,267,258,265,0,0,0,0,0,0,0,0,0,0,0,0,0,0,0,0,0,0,0,0,0,0,286,0,0,0,0,0,266,0,0,
0,0,0,0,0,0,0,0,0,0,0,0,0,0,0,0,0,0,0,0,0,0,0,0,0,0,0,265,273,0,0,267,0,272,265,259,260,0,0,0,0,0,0,0,0,0,0,0,0,0,0,0,0,266,0,0,0,0,0,0,0,0,0,0,
0,0,0,0,286,0,0,0,0,0,0,0,0,0,0,0,0,0,0,0,0,0,0,0,0,0,0,0,0,0,0,266,286,286,0,268,269,286,0,0,0,0,0,0,0,0,0,0,0,0,0,0,0,0,0,0,0,0,294,295,0,0,0,0,
0,0,0,258,0,0,0,0,0,0,0,0,0,0,294,295,286,0,0,0,0,0,0,0,286,0,0,272,0,0,0,0,0,0,258,272,286,266,0,0,0,0,0,0,0,258,0,0,0,0,0,0,296,297,298,0,265,0,0,0,0,0,0,0,
0,0,0,267,0,0,0,0,0,0,273,0,0,0,266,0,0,0,0,0,0,0,0,294,295,0,0,0,0,0,0,0,272,0,267,0,265,0,0,0,0,0,0,0,0,267,0,0,265,0,0,0,0,0,0,286,0,272,0,266,0,0,286,0,
0,0,266,0,0,0,0,0,0,0,0,0,0,0,0,0,0,0,0,0,0,259,260,0,0,0,0,0,0,0,0,0,0,0,0,0,0,0,0,0,0,0,0,0,0,0,0,0,0,0,0,0,0,0,0,0,259,260,0,0,272,0,0,266,
0,0,0,0,0,0,0,0,0,0,0,0,0,0,0,0,0,0,266,0,258,268,269,294,295,273,265,0,0,0,0,0,0,0,0,0,0,0,0,0,0,0,0,0,0,0,0,0,0,0,0,0,0,0,0,0,268,269,0,0,0,286,0,0,
0,0,0,0,0,0,0,0,0,0,0,258,265,0,286,0,0,0,0,272,267,265,296,297,298,0,286,266,0,0,0,0,0,0,0,0,0,0,0,0,0,0,0,0,0,0,0,0,0,0,0,0,0,0,0,0,0,273,0,0,0,0,0,0,
0,0,0,0,0,0,0,0,0,0,258,267,266,286,0,273,0,0,0,0,0,0,0,0,0,0,0,0,0,0,0,0,0,0,0,0,0,0,0,0,0,0,0,0,0,0,0,0,0,0,0,0,0,0,0,0,0,0,0,0,0,0,273,258,
0,0,0,0,273,0,0,0,0,258,267,0,0,0,0,0,0,0,0,0,0,0,0,0,0,0,0,0,0,0,0,0,0,0,0,273,0,0,0,0,0,0,0,0,0,0,0,0,0,0,0,0,0,0,0,0,272,0,0,286,0,0,0,267,
0,0,0,286,0,0,0,0,265,267,0,0,0,0,0,0,0,0,0,0,0,0,0,0,0,0,0,0,0,0,0,0,0,0,0,0,266,258,0,0,0,0,0,0,0,0,0,0,266,272,0,0,0,0,0,266,0,0,0,0,0,0,265,0,
0,0,0,266,0,0,0,0,273,0,0,0,0,0,0,0,0,0,0,0,0,0,0,0,0,0,0,0,0,0,0,0,0,0,0,0,0,267,0,0,0,0,0,0,0,0,0,0,0,0,0,0,0,0,0,0,0,0,0,0,0,0,0,0,
0,0,0,0,0,0,0,0,0,0,0,0,0,0,0,0,0,0,0,0,0,0,0,0,0,0,0,0,0,0,0,0,0,0,0,0,0,0,286,258,0,0,0,0,0,0,259,260,272,286,0,0,0,0,0,0,0,0,0,0,0,0,0,0,
0,0,0,0,0,286,0,0,0,0,0,0,0,0,0,0,0,0,0,0,0,0,0,0,0,0,0,0,0,0,0,0,0,0,0,0,0,0,0,267,265,0,0,0,0,0,268,269,0,265,0,0,0,0,0,0,0,0,0,0,0,0,0,0,
0,259,260,294,295,0,272,0,0,0,0,0,0,0,0,0,0,0,0,0,272,266,0,0,0,0,0,0,0,0,0,0,0,0,0,0,0,0,0,0,0,0,0,0,0,266,0,0,0,0,0,0,272,266,0,0,0,0,0,0,0,0,0,0,
0,268,269,266,0,0,0,0,0,0,0,0,0,0,0,273,0,0,0,0,0,0,0,0,273,0,0,0,0,0,265,0,0,0,0,0,0,0,0,0,0,0,0,0,0,0,0,0,0,0,0,0,286,0,0,0,0,0,0,0,0,0,0,0,
0,0,0,0,0,0,0,0,0,0,0,0,0,259,260,266,0,0,294,295,0,265,0,0,0,0,259,260,259,260,0,272,0,0,0,0,0,0,0,0,0,0,0,0,0,0,0,0,0,0,0,0,286,286,266,259,260,0,0,0,0,0,0,0,
0,0,0,0,0,0,0,0,0,0,0,0,0,268,269,0,0,294,295,0,0,286,265,0,0,0,268,269,268,269,0,0,0,0,0,0,0,0,0,0,0,0,0,0,0,0,0,0,0,0,0,0,0,286,286,268,269,273,0,0,0,0,273,0,
0,0,0,0,0,0,0,0,0,0,259,260,0,0,0,0,0,0,0,0,266,0,273,0,0,0,0,0,0,0,0,258,0,0,0,0,0,0,0,0,0,0,0,0,0,0,0,0,0,0,0,0,0,272,286,286,0,0,0,0,0,0,0,0,
0,0,0,0,0,0,0,0,0,0,268,269,0,0,258,286,0,0,286,0,0,0,0,272,0,0,0,0,266,0,0,267,0,0,0,0,0,0,0,0,0,0,0,0,0,0,0,0,0,0,0,0,0,0,0,286,0,0,0,0,0,0,0,0,
0,0,0,0,0,0,0,0,0,0,266,0,0,0,267,265,272,0,0,0,0,273,0,0,0,0,0,0,0,286,0,0,0,0,286,0,0,0,0,0,0,0,0,0,0,0,0,0,0,0,0,0,266,0,0,0,0,0,0,0,0,0,0,0,
0,0,0,0,0,0,0,0,0,286,286,0,0,286,0,0,0,286,0,0,0,0,265,258,0,0,0,0,0,0,0,0,0,258,0,0,0,0,286,286,286,286,258,0,0,0,0,0,0,0,0,0,0,286,0,0,0,0,0,0,0,0,0,0,
0,0,0,0,0,0,0,0,0,286,0,0,266,0,0,259,260,266,0,0,0,0,0,267,0,286,265,0,0,0,0,0,0,267,0,0,0,0,0,0,0,0,267,0,266,0,0,0,0,0,0,0,0,294,295,0,0,0,0,0,0,0,0,0,
0,0,0,0,0,0,266,0,0,0,0,0,273,0,265,268,269,0,0,0,0,272,0,0,0,0,296,297,298,0,0,258,0,0,0,0,0,0,0,0,0,0,0,273,0,0,0,0,0,0,0,0,0,0,266,0,0,0,0,0,0,0,0,0,
0,265,286,0,296,297,298,0,0,0,0,286,0,259,260,0,0,0,0,296,297,298,0,0,0,266,0,0,0,0,273,267,0,0,0,0,0,0,0,0,266,0,0,0,0,0,0,0,0,0,0,0,296,297,298,0,0,0,0,0,0,0,0,0,
0,0,266,296,297,298,0,0,0,259,260,0,0,268,269,0,0,0,266,0,0,259,260,0,273,0,0,0,0,265,272,0,0,0,0,259,260,265,0,0,0,272,0,0,0,0,0,0,0,0,0,296,297,298,286,272,0,0,0,0,0,0,0,0,
0,0,0,273,0,265,0,0,0,268,269,266,0,0,0,0,0,273,0,0,0,268,269,0,0,0,0,0,0,0,266,0,0,0,0,268,269,272,0,0,0,0,0,0,0,0,0,0,0,0,0,0,0,273,266,0,0,0,0,273,0,0,0,0,
0,0,0,0,0,266,0,0,0,0,265,272,0,286,286,0,0,0,0,0,266,0,0,0,0,0,0,0,0,0,0,0,0,0,0,0,0,0,266,286,0,0,0,0,0,0,0,0,0,0,0,0,0,0,0,0,0,0,259,260,265,272,0,266,
0,0,0,0,0,294,295,0,0,0,0,0,0,0,0,286,266,0,0,0,0,0,0,0,0,0,258,266,0,0,258,0,0,0,259,260,272,0,0,0,0,0,0,0,265,0,0,0,0,0,0,0,0,0,0,0,272,266,268,269,286,0,265,0,
0,0,0,265,286,273,0,0,0,0,0,0,0,0,0,0,0,265,0,0,0,0,0,259,260,258,267,0,0,0,267,266,0,0,268,269,266,0,0,0,0,0,0,0,259,260,0,0,0,0,0,0,0,0,0,0,0,0,0,286,0,0,0,0,
0,0,0,0,0,0,0,0,0,0,0,0,0,0,0,0,0,0,0,0,0,273,266,268,269,267,0,0,0,272,0,286,0,0,0,0,0,0,0,0,273,0,0,0,268,269,258,0,0,0,0,0,0,0,0,0,0,0,0,0,0,0,0,0,
0,0,0,0,0,0,0,0,0,265,258,0,0,266,0,0,0,0,0,0,0,0,0,0,0,0,0,0,0,0,0,0,0,266,0,0,0,0,258,286,0,0,265,0,0,0,267,0,0,0,0,0,0,0,0,0,0,0,0,0,0,259,260,0,
0,0,259,260,259,260,0,0,0,272,267,286,286,286,0,0,0,0,0,0,0,0,0,0,265,0,0,0,0,0,0,0,0,0,265,0,0,0,267,0,0,0,0,286,0,0,286,266,0,0,0,0,0,0,0,0,0,0,0,0,0,268,269,0,
0,0,268,269,268,269,265,0,0,0,286,286,286,0,273,0,0,0,0,0,0,0,258,272,0,0,0,0,0,0,0,0,0,0,0,0,0,0,0,0,0,265,0,0,0,0,0,0,0,0,0,0,0,0,0,0,0,0,0,0,0,265,272,273,
0,0,0,0,0,266,273,0,0,0,0,286,0,0,0,0,0,272,286,0,0,265,267,259,260,0,0,0,0,0,0,265,0,0,0,0,0,0,0,266,296,297,298,0,0,0,0,0,0,0,0,0,0,0,0,0,0,0,0,0,0,0,266,0,
0,286,0,0,272,286,286,0,0,0,265,0,0,0,0,0,294,295,0,0,273,258,0,268,269,259,260,0,0,0,0,272,294,295,0,0,0,0,0,286,0,0,0,0,0,0,0,0,0,0,286,0,0,0,0,0,0,258,0,0,0,286,0,0,
0,0,0,0,0,0,286,0,0,0,0,0,0,0,0,0,0,0,266,0,0,267,0,0,266,268,269,0,266,0,0,294,295,0,273,0,0,0,0,0,0,0,0,0,0,0,272,0,0,286,286,286,0,0,0,273,0,267,0,0,294,295,0,0,
0,0,0,0,0,0,0,0,0,0,0,0,0,266,0,0,0,0,272,0,0,0,272,0,0,0,0,0,272,0,0,0,294,295,0,0,0,0,0,0,0,0,0,259,260,286,0,0,0,0,286,286,286,266,0,0,265,0,0,0,0,0,0,0,
0,0,0,0,0,0,0,0,0,273,0,0,0,0,286,0,0,0,0,0,286,0,0,0,266,0,0,265,0,273,0,0,266,0,286,286,272,0,0,0,0,0,258,268,269,286,0,0,0,0,0,0,0,0,0,0,0,0,0,0,0,0,0,0,
0,0,0,258,0,0,0,0,258,266,0,0,296,297,298,0,0,0,0,0,0,0,0,0,0,0,286,258,265,286,0,0,0,286,286,266,0,0,0,0,0,266,267,0,0,0,0,0,0,0,0,0,0,0,0,0,0,0,0,0,0,0,0,0,
0,0,258,267,0,0,258,258,267,286,0,0,0,296,297,298,286,0,0,0,0,0,0,0,286,0,0,267,0,0,0,0,0,0,0,286,265,0,0,0,265,296,297,298,0,0,0,0,0,0,0,0,0,0,0,0,0,0,0,0,0,0,0,0,
0,286,267,0,0,258,267,267,0,0,272,0,0,0,0,286,0,266,273,0,0,0,0,0,266,0,0,0,0,266,0,0,0,0,0,0,0,0,0,259,260,272,0,0,0,0,0,0,0,0,0,0,0,0,0,0,0,0,0,0,0,0,0,0,
0,0,0,258,0,267,258,0,0,0,0,0,0,0,0,0,0,0,0,0,0,0,0,0,0,272,0,0,296,297,298,0,0,0,0,0,0,0,0,268,269,259,260,0,0,0,0,0,0,265,286,0,0,0,0,0,0,0,0,0,0,0,0,0
</data>
 </layer>
 <layer id="16" name="Greenery 2" width="64" height="48">
  <data encoding="csv">
0,0,0,0,0,0,0,0,0,0,0,0,0,0,0,0,0,0,0,0,0,0,0,0,0,0,0,0,0,0,0,0,0,0,0,0,0,0,0,0,0,0,0,0,0,0,0,0,0,0,0,0,0,0,0,0,0,0,0,0,0,0,0,0,
0,0,0,0,0,0,0,0,0,0,0,0,0,0,0,0,0,0,0,0,0,0,0,0,0,0,0,0,0,0,0,0,0,0,0,0,0,0,0,0,0,0,0,0,0,0,0,0,0,0,0,0,0,0,0,0,0,0,0,0,0,0,0,0,
0,0,0,0,0,0,0,0,0,0,0,0,0,0,0,0,0,0,0,0,0,0,0,0,0,0,0,0,0,0,0,0,0,0,0,0,0,0,0,0,0,0,0,0,0,0,0,0,0,0,0,0,0,0,0,0,0,0,0,0,0,0,0,0,
0,0,0,0,0,0,0,0,0,0,0,0,0,0,0,0,0,0,0,0,0,0,0,0,0,0,0,0,0,0,0,0,0,0,0,0,0,0,0,0,0,0,0,0,0,0,0,0,0,0,0,0,0,0,0,0,0,0,0,0,0,0,0,0,
0,0,0,0,0,0,0,0,0,0,0,0,0,0,0,0,0,0,0,0,0,0,0,0,0,0,0,0,0,0,0,0,0,0,0,0,0,0,0,0,0,0,0,0,0,0,0,0,0,0,0,0,0,0,0,0,0,0,0,0,0,0,0,0,
0,0,0,0,0,0,0,0,0,0,0,0,0,0,0,0,0,0,0,0,0,0,0,0,0,0,0,0,0,0,0,0,0,0,0,0,0,0,0,0,0,0,0,0,0,0,0,0,0,0,0,0,0,0,0,0,0,0,0,0,0,0,0,0,
0,0,0,0,0,0,0,0,0,0,0,0,0,0,0,0,0,0,0,0,0,0,0,0,0,0,0,0,0,0,0,0,0,0,0,0,0,0,0,0,0,0,0,0,0,0,0,0,0,0,0,0,0,0,0,0,0,0,0,0,0,0,0,0,
0,0,0,0,0,0,0,0,0,0,0,0,0,0,0,0,0,0,0,0,0,0,0,0,0,0,0,0,0,0,0,0,0,0,0,0,0,0,0,0,0,0,0,0,0,0,0,0,0,0,0,0,0,0,0,0,0,0,0,0,0,0,0,0,
0,0,0,0,0,0,0,0,0,0,0,0,0,0,0,0,0,0,0,0,0,0,0,0,0,0,0,0,0,0,0,0,0,0,0,0,0,0,0,0,0,0,0,0,0,0,0,0,0,0,0,0,0,0,0,0,0,0,0,0,0,0,0,0,
0,0,0,0,0,0,0,0,0,0,0,0,0,0,0,0,0,0,0,0,0,0,0,0,0,0,0,0,0,0,0,0,0,0,0,0,0,0,0,0,0,0,0,0,0,0,0,0,0,0,0,0,0,0,0,0,0,0,0,0,0,0,0,0,
0,0,0,0,0,0,0,0,0,0,0,0,0,0,0,0,0,0,0,0,0,0,0,0,0,0,0,0,0,0,0,0,0,0,0,0,0,0,0,0,0,0,0,0,0,0,0,0,0,0,0,0,0,0,0,0,0,0,0,0,0,0,0,0,
0,0,0,0,0,0,0,0,0,0,0,0,0,0,0,0,0,0,0,0,0,0,0,0,0,0,0,0,0,0,0,0,0,0,0,0,0,0,0,0,0,0,0,0,0,0,0,0,0,0,0,0,0,0,0,0,0,0,0,0,0,0,0,0,
0,0,0,0,0,0,0,0,0,0,0,0,0,0,0,0,0,0,0,0,0,0,0,0,0,0,0,0,0,0,0,0,0,0,0,0,0,0,0,0,0,0,0,0,0,0,0,0,0,0,0,0,0,0,0,0,0,0,0,0,0,0,0,0,
0,0,0,0,0,0,0,0,0,0,0,0,0,0,0,0,0,0,0,0,0,0,0,0,0,0,0,0,0,0,0,0,0,0,0,0,0,0,0,0,0,0,0,0,0,0,0,0,0,0,0,0,0,0,0,0,0,0,0,0,0,0,0,0,
0,0,0,0,0,0,0,0,0,0,0,0,0,0,0,0,0,0,0,0,0,0,0,0,0,0,0,0,0,0,0,0,0,0,0,0,0,0,0,0,0,0,0,0,0,0,0,0,0,0,0,0,0,0,0,0,0,0,0,0,0,0,0,0,
0,0,0,0,0,0,0,0,0,0,0,0,0,0,0,0,0,0,0,0,0,0,0,0,0,0,0,0,0,0,0,0,0,0,0,0,0,0,0,0,0,0,0,0,0,0,0,0,0,0,0,0,0,0,0,0,0,0,0,0,0,0,0,0,
0,0,0,0,0,0,0,0,0,0,0,0,0,0,0,0,0,0,0,0,0,0,0,0,0,0,0,0,0,0,0,0,0,0,0,0,0,0,0,0,0,0,0,0,0,0,0,0,0,0,0,0,0,0,0,0,0,0,0,0,0,0,0,0,
0,0,0,0,0,0,0,0,0,0,0,0,0,0,0,0,0,0,0,0,0,0,0,0,0,0,0,0,0,0,0,0,0,0,0,0,0,0,0,0,0,0,0,0,0,0,0,0,0,0,0,0,0,0,0,0,0,0,0,0,0,0,0,0,
0,0,0,0,0,0,0,0,0,0,0,0,0,0,0,0,0,0,0,0,0,0,0,0,0,0,0,0,0,0,0,0,0,0,0,0,0,0,0,0,0,0,0,0,0,0,0,259,260,0,0,0,0,0,0,0,0,0,0,0,0,0,0,0,
0,0,0,0,0,0,0,0,0,0,0,0,0,0,0,0,0,0,0,0,0,0,0,0,0,0,0,0,0,0,0,0,0,0,0,0,0,0,0,0,0,0,0,0,0,0,0,268,269,0,0,0,0,0,0,0,0,0,0,0,0,0,0,0,
0,0,0,0,0,0,0,0,0,0,0,0,0,0,0,0,0,0,0,0,0,0,0,0,0,0,0,0,0,0,0,0,0,0,0,0,0,0,0,0,0,0,0,0,0,0,0,0,0,0,0,0,0,0,0,0,0,0,0,0,0,0,0,0,
0,0,0,0,0,0,0,0,0,0,0,0,0,0,0,0,0,0,0,0,0,0,0,0,0,0,0,0,0,0,0,0,0,0,0,0,0,0,0,0,0,0,0,0,0,0,0,0,0,0,0,0,0,0,0,0,0,0,0,0,0,0,0,0,
0,0,0,0,0,0,0,0,0,0,0,0,0,0,0,0,0,0,0,0,0,0,0,0,0,259,260,259,260,259,260,0,0,0,0,0,0,0,0,0,0,0,0,0,0,0,0,0,0,0,0,0,0,0,0,0,0,0,0,0,0,0,0,0,
0,0,0,0,0,0,0,0,0,0,0,0,0,0,0,0,0,0,0,0,0,0,0,0,0,268,269,268,269,268,269,0,0,0,0,0,0,0,0,0,0,0,0,0,0,0,0,0,0,0,0,0,0,0,0,0,0,0,0,0,0,0,0,0,
0,0,0,0,0,0,0,0,0,0,0,0,0,0,0,0,0,0,0,0,0,0,0,0,0,0,0,0,0,0,0,0,0,0,0,0,0,0,0,0,0,0,0,0,0,0,0,0,0,0,0,0,0,0,0,0,0,0,0,0,0,0,0,0,
0,0,0,0,0,0,0,0,0,0,0,0,0,0,0,0,0,0,0,0,0,0,0,0,0,0,0,0,0,0,0,0,0,0,0,0,0,0,0,0,0,0,0,0,0,0,0,0,0,0,0,0,0,0,0,0,0,0,0,0,0,0,0,0,
0,0,0,0,0,0,0,0,0,0,0,0,0,0,0,0,0,0,0,0,0,0,0,0,0,0,0,0,0,0,0,0,0,0,0,0,0,0,0,0,0,0,0,0,0,0,0,0,0,0,0,0,0,0,0,0,0,0,0,0,0,0,0,0,
0,0,0,0,0,0,0,0,0,0,0,0,0,0,0,0,0,0,0,0,0,0,0,0,0,0,0,0,0,0,0,0,259,260,0,0,0,286,286,286,286,286,0,0,0,0,0,0,0,0,0,0,0,0,0,0,0,0,0,0,0,0,0,0,
0,0,0,0,0,0,0,0,0,0,0,0,0,0,0,0,258,0,0,0,0,0,0,0,0,0,0,0,0,0,0,0,268,269,0,0,0,0,0,0,0,0,0,0,0,0,0,0,0,0,0,0,0,0,0,0,0,0,0,0,0,0,0,0,
0,0,0,0,0,0,0,0,0,0,0,0,0,0,0,0,267,0,0,0,0,0,0,0,0,0,0,0,0,0,0,0,0,0,0,0,0,0,0,0,0,0,0,0,0,0,0,0,0,0,0,0,0,0,0,0,0,0,0,0,0,0,0,0,
0,0,0,0,0,0,0,0,0,0,0,0,0,0,0,0,0,0,0,0,0,0,0,0,0,0,0,0,0,0,0,0,0,0,0,0,0,0,0,0,0,0,0,0,0,0,0,0,0,0,0,0,0,0,0,0,0,0,0,0,0,0,0,0,
0,0,0,0,0,0,0,0,0,0,0,0,0,0,0,0,0,0,0,0,0,0,0,0,0,0,0,0,0,0,0,0,0,0,0,0,0,0,0,0,0,0,0,0,0,0,0,0,0,0,0,0,0,0,0,0,0,0,0,0,0,0,0,0,
0,0,0,0,0,0,0,0,0,0,0,0,0,0,0,0,0,0,0,0,0,0,0,0,0,0,0,0,0,0,0,0,0,0,0,0,0,0,0,0,0,0,0,0,0,0,0,0,0,0,0,0,0,0,0,0,0,0,0,0,0,0,0,0,
0,0,0,0,0,0,0,0,0,0,0,0,0,0,0,0,0,0,0,0,0,0,0,0,0,0,0,0,0,0,0,0,0,0,0,0,0,0,0,0,0,0,0,0,0,0,0,0,0,0,0,0,0,0,0,0,0,0,0,0,0,0,0,0,
0,0,0,0,0,0,0,0,0,0,0,0,0,0,0,0,0,0,0,0,0,0,0,0,0,0,0,0,0,0,0,0,0,0,0,0,0,0,0,0,0,0,0,0,0,0,0,0,0,0,0,0,0,0,0,0,0,0,0,0,0,0,0,0,
0,0,0,0,0,0,0,0,0,0,0,0,0,0,0,0,0,0,0,0,0,0,0,0,0,0,0,0,0,0,0,0,0,0,0,0,0,0,0,0,0,0,0,0,0,0,0,0,0,0,0,0,0,0,0,0,0,0,0,0,0,0,0,0,
0,0,0,0,0,0,0,0,0,0,0,0,0,0,0,0,0,0,0,0,0,0,0,0,0,0,0,0,0,0,0,0,0,0,0,0,0,0,0,0,0,0,0,0,0,0,0,0,0,0,0,0,0,0,0,0,0,0,0,0,0,0,0,0,
0,0,0,0,0,0,0,0,0,0,0,0,0,0,0,0,0,0,0,0,0,0,0,0,0,0,0,0,0,0,0,0,0,0,0,0,0,0,0,0,0,0,0,0,0,0,0,0,0,0,0,0,0,0,0,0,0,0,0,0,0,0,0,0,
0,259,260,259,260,0,0,0,0,0,0,0,0,0,0,0,0,0,0,0,0,0,0,0,0,0,0,0,0,0,0,0,0,0,0,0,0,0,0,0,0,0,0,0,0,0,0,0,0,0,0,0,0,0,0,0,0,0,0,0,0,0,0,0,
0,268,269,268,269,0,0,0,0,0,0,0,0,0,0,0,0,0,0,0,0,0,0,0,0,0,0,0,0,0,0,0,0,0,0,0,0,0,0,0,0,0,0,0,0,0,0,0,0,0,0,0,0,0,0,0,0,0,0,0,0,0,0,0,
0,0,0,0,0,0,0,0,0,0,0,0,0,0,0,0,0,0,0,0,0,0,0,0,0,0,0,0,0,0,0,0,0,0,0,0,0,0,0,0,0,0,0,0,0,0,0,0,0,0,0,0,0,0,0,0,0,0,0,0,0,0,0,0,
0,0,0,0,0,0,0,0,0,0,0,0,0,0,0,0,0,0,0,0,0,0,0,0,0,0,0,0,0,0,0,0,0,0,0,0,0,0,0,0,0,0,0,0,0,0,0,0,0,0,0,0,0,0,0,0,0,0,0,0,0,0,0,0,
0,0,0,0,0,0,0,0,0,0,0,0,0,0,0,0,0,0,0,0,0,0,0,0,0,0,0,0,0,0,0,0,0,0,0,0,0,0,0,0,0,0,0,0,0,0,0,0,0,0,0,0,0,0,0,0,0,0,0,0,0,0,0,0,
0,0,0,0,0,0,0,0,0,0,0,0,0,0,0,0,0,0,0,0,0,0,0,0,0,0,0,0,0,0,0,0,0,0,0,0,0,0,0,0,0,0,0,0,0,0,0,0,0,0,0,0,0,0,0,0,0,0,0,0,0,0,0,0,
0,0,0,0,0,0,0,0,0,0,0,0,0,0,0,0,0,0,0,0,0,0,0,0,0,0,0,0,0,0,0,0,0,0,0,0,0,0,0,0,0,0,0,0,0,0,0,0,0,0,0,0,0,0,0,0,0,0,0,0,0,0,0,0,
0,0,0,0,0,0,0,0,0,0,0,0,0,0,0,0,0,0,0,0,0,0,0,0,0,0,0,0,0,0,0,0,0,0,0,0,0,0,0,0,0,0,0,0,0,0,0,0,0,0,0,0,0,0,0,0,0,0,0,0,0,0,0,0,
0,0,0,0,0,0,0,0,0,0,0,0,0,0,0,0,0,0,0,0,0,0,0,0,0,0,0,0,0,0,0,0,0,0,0,0,0,0,0,0,0,0,0,0,0,0,0,0,0,0,0,0,0,0,0,0,0,0,0,0,0,0,0,0,
0,0,0,0,0,0,0,0,0,0,0,0,0,0,0,0,0,0,0,0,0,0,0,0,0,0,0,0,0,0,0,0,0,0,0,0,0,0,0,0,0,0,0,0,0,0,0,0,0,0,0,0,0,0,0,0,0,0,0,0,0,0,0,0
</data>
 </layer>
 <objectgroup id="19" name="Walls" visible="0">
  <object id="6" x="33" y="144.667" width="45.6667" height="144"/>
  <object id="8" x="48.6667" y="80.3333" width="30" height="68.3333"/>
  <object id="9" x="64.3333" y="48.3333" width="14.6667" height="42.6667"/>
  <object id="11" x="80" y="32.3333" width="127.667" height="18"/>
  <object id="12" x="96.6667" y="16.6667" width="78.3333" height="18.3333"/>
  <object id="15" x="160.667" y="47.6667" width="191" height="31.6667"/>
  <object id="16" x="348.667" y="64.3333" width="18.6667" height="48.3333"/>
  <object id="18" x="304.667" y="97.6667" width="46.3333" height="30.6667"/>
  <object id="20" x="272" y="127.75" width="63.25" height="16.75"/>
  <object id="21" x="266.5" y="143.75" width="53" height="16.75"/>
  <object id="23" x="156" y="160" width="115" height="16.6667"/>
  <object id="24" x="138" y="176.333" width="21.125" height="15.5417"/>
  <object id="25" x="123" y="191.75" width="20.25" height="16.5"/>
  <object id="26" x="111.75" y="208" width="15.375" height="32.375"/>
  <object id="27" x="91.25" y="226.875" width="36.125" height="13.5"/>
  <object id="28" x="75.5" y="240.125" width="19.75" height="16.125"/>
  <object id="29" x="78.0909" y="48.3636" width="2.36364" height="3.09091"/>
  <object id="38" x="16" y="32.7273" width="16.1818" height="30.9091"/>
  <object id="42" x="127.818" y="0" width="16.3636" height="18.9091"/>
  <object id="44" x="224.182" y="15.8182" width="94.3636" height="15.8182"/>
  <object id="48" x="336.25" y="-0.25" width="142.75" height="16.75"/>
  <object id="49" x="369" y="15.5" width="126.25" height="17"/>
  <object id="50" x="432.75" y="32" width="78.25" height="16.75"/>
  <object id="51" x="416.727" y="48" width="15.2727" height="112"/>
  <object id="52" x="431.273" y="144.182" width="32.1818" height="16"/>
  <object id="54" x="432.043" y="47.9565" width="0.782609" height="0.869565"/>
  <object id="55" x="459.375" y="129.875" width="41.875" height="14.625"/>
  <object id="57" x="496.875" y="144" width="30.125" height="47.75"/>
  <object id="58" x="526.75" y="159.875" width="32.375" height="16.25"/>
  <object id="59" x="544" y="95.5" width="15.125" height="65.75"/>
  <object id="60" x="495.875" y="79.75" width="47.125" height="16.5"/>
  <object id="62" x="542.688" y="95.5625" width="1.84375" height="0.6875"/>
  <object id="63" x="496" y="48.5455" width="15" height="31.9091"/>
  <object id="65" x="510.455" y="64" width="16.6364" height="16.7273"/>
  <object id="66" x="510.636" y="49.5455" width="16.6364" height="15.3636"/>
  <object id="67" x="527.273" y="47.7273" width="15.8182" height="34"/>
  <object id="75" x="578.826" y="144.043" width="7.26087" height="9.95652"/>
  <object id="76" x="20.125" y="303.875" width="24" height="31.5"/>
  <object id="77" x="49.625" y="307.5" width="30.5" height="12.125"/>
  <object id="78" x="48.625" y="321.375" width="14.75" height="13.125"/>
  <object id="79" x="78.875" y="287.875" width="17.375" height="15.5"/>
  <object id="80" x="98.875" y="309.875" width="9.375" height="7.5"/>
  <object id="81" x="128.563" y="257.438" width="13.625" height="12.75"/>
  <object id="84" x="130.875" y="242.688" width="7.25" height="7.3125"/>
  <object id="85" x="144.813" y="223.938" width="14.3125" height="28.1875"/>
  <object id="87" x="160.727" y="208.091" width="14.3636" height="27.9091"/>
  <object id="89" x="177" y="191.909" width="14" height="28"/>
  <object id="90" x="208.091" y="207.909" width="16" height="15.3636"/>
  <object id="91" x="195" y="194.909" width="6.81818" height="7.09091"/>
  <object id="92" x="193.091" y="210.091" width="14" height="12"/>
  <object id="94" x="224" y="191.909" width="16" height="15.2727"/>
  <object id="95" x="240.545" y="209.455" width="13.6364" height="12.6364"/>
  <object id="97" x="289" y="178.739" width="14.087" height="11.3478"/>
  <object id="99" x="307.826" y="198.652" width="8.21739" height="5.3913"/>
  <object id="101" x="320.636" y="175.818" width="14.5455" height="28.2727"/>
  <object id="102" x="339" y="195" width="7.04348" height="7"/>
  <object id="105" x="339.727" y="161.091" width="24.3636" height="30"/>
  <object id="107" x="355.818" y="191.909" width="32.1818" height="15"/>
  <object id="108" x="369.818" y="180" width="30.1818" height="10.9091"/>
  <object id="109" x="369.636" y="148" width="30.2727" height="11.0909"/>
  <object id="110" x="384" y="127.818" width="16" height="15.2727"/>
  <object id="111" x="401" y="177.913" width="8" height="5.13043"/>
  <object id="112" x="406" y="184.913" width="8" height="5.08696"/>
  <object id="113" x="419.043" y="178.87" width="6.86957" height="7.13043"/>
  <object id="114" x="416" y="191.938" width="16.0313" height="15.0625"/>
  <object id="115" x="431.875" y="194.5" width="15.125" height="11.625"/>
  <object id="117" x="31.8182" y="15.9091" width="15" height="27.9091"/>
  <object id="118" x="32.5455" y="50.3636" width="14.6364" height="11.9091"/>
  <object id="119" x="35.9091" y="70.6364" width="8.18182" height="5.54545"/>
  <object id="120" x="50.913" y="18.8696" width="7.04348" height="7.08696"/>
  <object id="121" x="64.913" y="17.8261" width="13.1304" height="12.087"/>
  <object id="122" x="275.913" y="-0.73913" width="24.0435" height="16.9565"/>
  <object id="123" x="256.87" y="2.78261" width="14.0435" height="11.1739"/>
  <object id="124" x="557.455" y="95.6364" width="30.5455" height="31.2727"/>
  <object id="126" x="575.875" y="126.5" width="16.125" height="17.5625"/>
  <object id="127" x="563.813" y="134.625" width="8.3125" height="5.375"/>
  <object id="129" x="592" y="111.563" width="16.0625" height="15.625"/>
  <object id="131" x="592.063" y="131.063" width="14.875" height="10.8125"/>
  <object id="139" x="588.875" y="66.375" width="11.75" height="15.5"/>
  <object id="140" x="599.625" y="66.125" width="24.375" height="15.875"/>
  <object id="141" x="615.875" y="81.375" width="8.375" height="1.25"/>
  <object id="143" x="622" y="80.875" width="16.5" height="18"/>
  <object id="144" x="637.625" y="98.25" width="18.25" height="31.625"/>
  <object id="145" x="655.25" y="121.625" width="17.375" height="8.5"/>
  <object id="147" x="669.75" y="129.375" width="19.25" height="48.5"/>
  <object id="148" x="686.125" y="177.25" width="32.75" height="16.875"/>
  <object id="149" x="527" y="-0.25" width="15.0313" height="2.21875"/>
  <object id="150" x="525.969" y="-0.40625" width="1.53125" height="1.46875"/>
  <object id="151" x="535.969" y="1.84375" width="6.59375" height="1.1875"/>
  <object id="152" x="539.031" y="2.53125" width="2.96875" height="1.53125"/>
  <object id="153" x="539.938" y="3.96875" width="2.28125" height="1.03125"/>
  <object id="154" x="540.969" y="4.84375" width="1.8125" height="3.15625"/>
  <object id="156" x="542" y="7.95652" width="4" height="25.1304"/>
  <object id="157" x="543" y="32.8696" width="15.0435" height="1.17391"/>
  <object id="158" x="551.956" y="33.7778" width="7.37778" height="1.17778"/>
  <object id="161" x="554.933" y="34.8889" width="2.68889" height="1.08889"/>
  <object id="164" x="555.984" y="35.9219" width="2.15625" height="1.09375"/>
  <object id="165" x="557" y="36.9063" width="1.5625" height="3.125"/>
  <object id="166" x="557.969" y="39.9063" width="1.4375" height="9.0625"/>
  <object id="167" x="559" y="48.7778" width="9.08889" height="1.26667"/>
  <object id="168" x="567.984" y="50.0156" width="3.04688" height="1.01563"/>
  <object id="169" x="570.972" y="50.9889" width="1.12222" height="1.02222"/>
  <object id="170" x="572" y="51.9944" width="1.02222" height="1.01667"/>
  <object id="186" x="718.667" y="195.333">
   <polygon points="0,0 0,14 110.667,14.6667 111,30.6667 127.667,31 127.667,63.3333 144.667,63.3333 145,30.3333 113.333,-2.66667"/>
  </object>
  <object id="189" x="573.125" y="53.375">
   <polygon points="0,0 1.125,11.625 2,12.625 10.625,12.5 10.875,13.625 13.625,13.75 15.5,15.75"/>
  </object>
  <object id="190" x="618.818" y="82.7273">
   <polygon points="0,0 2.90909,5.27273 3.27273,0.0909091"/>
  </object>
  <object id="192" x="634.545" y="99.0909">
   <polygon points="0,0 3.09091,5.36364 3.27273,-0.272727"/>
  </object>
  <object id="195" x="663.938" y="130.313">
   <polygon points="0,0 5.875,5.875 3.0625,-0.1875"/>
  </object>
  <object id="198" x="679.688" y="177.875">
   <polygon points="0,0 6.25,6.25 6.375,-0.0625"/>
  </object>
  <object id="200" x="711.87" y="194.304">
   <polygon points="0,0 5.91304,5.73913 6.08696,-0.304348"/>
  </object>
  <object id="201" x="717.87" y="199.87">
   <polygon points="0,0 0.0869565,8.95652 1.08696,9.08696 1,-0.0869565"/>
  </object>
  <object id="203" x="823.313" y="210.25">
   <polygon points="0,0 6.0625,5.75 6.1875,-0.4375"/>
  </object>
  <object id="204" x="839.75" y="226.063">
   <polygon points="0,0 6.5625,6.625 6.5625,0.4375"/>
  </object>
  <object id="205" x="858.188" y="258.813">
   <polygon points="0,0 3.6875,5.5625 3.9375,-0.375"/>
  </object>
  <object id="206" x="861.875" y="258">
   <polygon points="0,0 0.25,14 0.125,14.875 1.5,15 1.0625,15.0625 1.1875,16 10.3125,15.9375"/>
  </object>
  <object id="207" x="871.091" y="272.727">
   <polygon points="0,0 6.90909,7.63636 7.81818,-0.727273"/>
  </object>
  <object id="208" x="879.091" y="273.091">
   <polygon points="0,0 -1.09091,16.7273 16.5455,17.4545 16.1818,-0.363636"/>
  </object>
  <object id="209" x="895.636" y="288.364">
   <polygon points="0,0 -1.81818,16.9091 17.0909,17.4545 17.4545,-0.545455"/>
  </object>
  <object id="210" x="910.545" y="303.818">
   <polygon points="0,0 -0.181818,18.1818 34,18.9091 34.3636,0"/>
  </object>
  <object id="211" x="942.625" y="321">
   <polygon points="0,0 -0.25,16.125 0.5,16.625 17.625,18.25 17.75,-1.125"/>
  </object>
  <object id="212" x="959.273" y="338.364">
   <polygon points="0,0 -0.363636,41.0909 1.81818,41.0909 3.09091,0.363636"/>
  </object>
  <object id="213" x="990.182" y="480.545">
   <polygon points="0,0 0.181818,17.2727 35.4545,17.8182 34.1818,-1.09091"/>
  </object>
  <object id="214" x="984" y="479.636">
   <polygon points="0,0 6,9.81818 6.54545,0"/>
  </object>
  <object id="215" x="910.545" y="463.818">
   <polygon points="0,0 0.454545,16.1383 1.49802,16.2688 1.36759,18.1818 73.2045,18.0568 73.5795,0.431818"/>
  </object>
  <object id="216" x="909.875" y="453.875">
   <polygon points="0,0 0.625,10.625 17.5,10.125 17.375,-1.875"/>
  </object>
  <object id="217" x="925.75" y="438">
   <polygon points="0,0 -0.125,13.75 17.625,4.25 17.125,-6"/>
  </object>
  <object id="218" x="941.75" y="373.75">
   <polygon points="0,0 0,58.25 5.75,58.25 5.125,-1.25"/>
  </object>
  <object id="219" x="941.875" y="374">
   <polygon points="0,0 0.125,9.875 19.375,10.25 19.5,-2.5"/>
  </object>
  <object id="220" x="954.5" y="338.25">
   <polygon points="0,0 4.5,8.375 5.125,1.125"/>
  </object>
  <object id="221" x="958.25" y="347.125">
   <polygon points="0,0 -0.25,26.5 6.25,26.25 6.875,0.125"/>
  </object>
  <object id="222" x="938.091" y="322.636">
   <polygon points="0,0 4.27273,7.09091 5,0.0909091"/>
  </object>
  <object id="223" x="904.125" y="305.625">
   <polygon points="0,0 6.625,7.75 8,1.25"/>
  </object>
  <object id="225" x="887.727" y="290.636">
   <polygon points="0,0 5.09091,2.54545 5.90909,-0.727273"/>
  </object>
  <object id="226" x="893.909" y="289.909">
   <polygon points="0,0 -1.18182,3.45455 -1.09091,6.09091 0.363636,6.18182 0.0909091,12.2727 2.81818,0.0909091"/>
  </object>
  <object id="227" x="749.5" y="768.5">
   <polygon points="0,0 -0.25,-29.25 29.75,-29 30,-44.25 93.75,-45 94.25,-60.25 158.136,-61.4091 159.227,-75.5909 237.409,-77.2273 238.5,-90.6818 242.5,-92.5 253.773,-93.5909 254.136,-108.318 275.045,-109.773 266.5,-16"/>
  </object>
  <object id="230" x="588" y="181.25">
   <polygon points="0,0 -1,12.75 -15.75,14.25 -16,47.75 -1.5,50.25 -1.5,60.5 0.5,63 4.25,63.25 4.75,85.25 17.25,85.75 18,78.25 29.5,82 31.25,91.25 21,91.5 20.25,104 34.5,106 36.75,107 40.25,116.5 46.5,118.75 50.75,111 53,109.75 152.25,109.75 156.75,112.75 159.25,120.75 168,120.5 167.5,125.5 173.5,130.5 175.75,130.5 175,136.5 184.75,136.75 185.75,130.5 189.25,128.5 191.5,127.75 193,115 185.75,108 184.75,102.25 189.5,102.5 192.25,98.25 184.5,98 185.25,80.5 178.25,77.5 169.75,76.75 167.75,63 165,61.5 121.5,60.5 119.25,48 115.5,45.25 103,41.75 103.75,32 102,29.75 57.25,28.75 56.25,0 51.75,-1.5"/>
  </object>
  <object id="231" x="560.909" y="224.727">
   <polygon points="0,0 -0.181818,13.6364 12.3636,13.8182 14.5455,1.63636"/>
  </object>
  <object id="232" x="577.455" y="240.364">
   <polygon points="0,0 -0.727273,15.6364 14.1818,12.5455 14.3636,4.54545"/>
  </object>
  <object id="233" x="643.091" y="291.818">
   <polygon points="0,0 -0.727273,6.90909 7.63636,6.36364 8.54545,0"/>
  </object>
  <object id="234" x="720.545" y="312.727">
   <polygon points="0,0 9.63636,-8 15.4545,-3.63636 3.45455,6.72727"/>
  </object>
  <object id="235" x="768" y="248.5">
   <polygon points="0,0 11.125,-7.125 15.75,-3.625 5.25,7.5"/>
  </object>
  <object id="236" x="787.75" y="246.5">
   <polygon points="0,0 8.25,0.125 8.375,5.25 0.125,5.25"/>
  </object>
  <object id="237" x="784.5" y="272.25">
   <polygon points="0,0 15.875,-0.5 15.625,16.125 -0.125,15.75"/>
  </object>
  <object id="238" x="787.375" y="291.125">
   <polygon points="0,0 6.75,-0.25 6.75,7.125 0,6.75"/>
  </object>
  <object id="239" x="848.75" y="312.125">
   <polygon points="0,0 11.625,-6.125 15,-3.375 11.5,2.375 3,6.75"/>
  </object>
  <object id="240" x="835.25" y="310.25">
   <polygon points="0,0 8.75,0.5 8.875,3 6.75,5.25 3,5.5 0.75,3.375"/>
  </object>
  <object id="241" x="832.125" y="320.125">
   <polygon points="0,0 15.625,0.125 15.75,16 31.625,15.75 31.875,32 47.75,32.25 47.625,48.125 59,47.5 59,40 52.25,36.25 51.75,23.25 59.375,16.375 68.5,16.375 76.125,23.375 76.125,34 73,38.625 69.5,40 68,40.5 68.375,44.875 64.75,47 60.5,46.5 60.375,48.625 63.875,52.875 63.75,59.5 59.125,62.75 58.875,64.875 63.875,67.125 64.125,75.875 59.125,79 51.5,78.625 47.5,76 47.125,69 51.25,64.375 51.375,62 47.75,60.5 42.875,62.75 35.25,62.875 30.875,59.125 31.125,55.625 31.75,52.25 36.125,47.625 31.875,44.125 26.125,47.25 18.625,46.625 15.5,43 15.375,36.75 19,31.875 16.125,28.25 9.25,30.375 4,30.75 -1,27.375 -0.875,21.5"/>
  </object>
  <object id="242" x="850.875" y="374.75">
   <polygon points="0,0 1.25,4.75 9.625,6 10.25,-0.875"/>
  </object>
  <object id="243" x="864.625" y="340.125">
   <polygon points="0,0 0.25,9.625 15,9.75 15.625,-1.625"/>
  </object>
  <object id="244" x="912.75" y="352.75">
   <polygon points="0,0 0,14.5 15.875,14.625 14.75,-1.125"/>
  </object>
  <object id="245" x="832.25" y="407.75">
   <polygon points="0,0 11.5,-5.75 16.625,-2.875 5.25,8.125 -0.25,6.875"/>
  </object>
  <object id="246" x="848.75" y="417.25">
   <polygon points="0,0 -0.5,14.125 15.375,14.875 15.625,-1.375"/>
  </object>
  <object id="247" x="853.625" y="435.375">
   <polygon points="0,0 26.5,0.375 26.25,11.625 -4,11.5 -4.125,0.75"/>
  </object>
  <object id="248" x="864.25" y="454.75">
   <polygon points="0,0 9,-4.875 15.75,-3 16.125,1.75 4.75,9"/>
  </object>
  <object id="249" x="835.875" y="465">
   <polygon points="0,0 -0.5,13.375 -15.125,15.5 -15.75,26.625 -10.875,29.5 5.5,30 7.375,28.75 16.125,27.625 16,15.75 25.625,12.375 31.625,12.125 32.375,0.25"/>
  </object>
  <object id="250" x="864.75" y="480.125">
   <polygon points="0,0 -0.5,14.75 15.25,14.75 15.5,0.625"/>
  </object>
  <object id="251" x="848.625" y="496.875">
   <polygon points="0,0 1.75,7 8.75,13.375 10.375,13 14,9.375 12.875,8 8.25,6.5 8.5,0.875"/>
  </object>
  <object id="252" x="864.5" y="504.375">
   <polygon points="0,0 10.625,-6.375 15.25,-3 11.875,2.125 5.75,4.5 2,5.125"/>
  </object>
  <object id="253" x="883.75" y="487.375">
   <polygon points="0,0 -0.25,3.125 6.625,4.25 8.875,2.25 8.125,-1.25"/>
  </object>
  <object id="254" x="899.25" y="533.875">
   <polygon points="0,0 0.75,4.25 5.625,6.125 9.125,3.625 9.125,1.25"/>
  </object>
  <object id="255" x="912.75" y="536.5">
   <polygon points="0,0 9.625,-6.125 13.25,-5.875 14.875,-3.75 14.875,-2.5 5,5.625 2.75,6.125"/>
  </object>
  <object id="257" x="932" y="519.5">
   <polygon points="0,0 5.125,-6.25 17.625,-6.625 23.875,-1.25 23.75,12.5 20.875,15.75 17.75,16.375 15.375,16.625 17.25,21.625 11.875,23.625 7.125,21.875 8.125,16.5 5.625,16.625 0,10.875"/>
  </object>
  <object id="258" x="943.875" y="498">
   <polygon points="0,0 8.875,-0.375 8.76136,3.63636 6.76136,5.27273 8.85227,7.18182 14.3068,7.09091 14.0341,9.72727 11.125,11.9091 8.94318,11.8182 6.125,9.36364 5.94318,7.27273 4.03409,3.63636 2.21591,3.54545"/>
  </object>
  <object id="259" x="962.875" y="516.75">
   <polygon points="0,0 2.0625,-2.125 5.15625,-1.84375 7.09375,0.3125 7.1875,2.25 5,5.0625 2.21875,5.1875"/>
  </object>
  <object id="260" x="980" y="519">
   <polygon points="0,0 7.96875,-0.09375 7.9375,2.875 4.90625,5 3.09375,5 2.90625,4.03125 0.96875,3.96875 0.75,2.9375 -0.03125,2.9375"/>
  </object>
  <object id="261" x="960.125" y="532.813">
   <polygon points="0,0 5,-4.875 11.125,-4.8125 14.9375,-2.125 15,0 15.875,-0.125 15.8125,7.3125 12,10.1875 3.9375,10.25 -0.3125,6.8125"/>
  </object>
  <object id="264" x="944.844" y="546.969">
   <polygon points="0,0 4.125,-2.9375 10.1563,-3 14.1875,0.21875 14.1563,1.96875 15.2813,1.9375 15.1563,8.90625 13.0313,10.7188 11.0625,11.0625 11.1563,11.8438 3.15625,11.9375 3,11.0938 1.21875,10.875 1.09375,9.9375 -0.875,9.03125 -0.84375,1.84375 0.0625,1.875"/>
  </object>
  <object id="265" x="995.063" y="533.219">
   <polygon points="0,0 1.90625,-2.125 4.96875,-2.0625 6.96875,-0.1875 6.75,1.9375 5.59375,2.75 4.75,3.125 4.8125,4.84375 1.8125,4.71875 1.96875,2.59375 0.875,2.375 0.84375,1.8125 -0.0625,1.53125"/>
  </object>
  <object id="266" x="1008.96" y="520.87">
   <polygon points="0,0 2.30435,-2.04348 4.91304,-1.91304 7,0.0869565 6.91304,2.3913 5.69565,3.04348 4.91304,3.52174 5.04348,4.91304 2.13043,5.08696 2.04348,3.43478 1.04348,3.13043 0.826087,2.30435 0.0434783,2.13043"/>
  </object>
  <object id="267" x="1016.07" y="517">
   <polygon points="0,0 1.93333,-1.86667 4.95556,-2.02222 6.82222,-0.0666667 6.91111,1.97778 5.84444,2.91111 4.97778,2.95556 4.95556,4.91111 1.91111,4.97778 1.93333,3 0.977778,2.93333 -0.0222222,2"/>
  </object>
  <object id="268" x="979.909" y="584.091">
   <polygon points="0,0 2.36364,-3.90909 8.54545,-7.09091 16.9091,-6.90909 21.9091,-3.36364 24.0909,-0.272727 24,9.54545 23.0474,9.99605 23.0474,12.6482 22.3083,12.9526 22.004,13.6482 21.3083,13.8656 21.004,14.8656 18.3518,14.7787 18.004,15.6917 15.9605,16.2569 15.9605,19.3874 16.9605,19.9091 17.1779,20.9091 16.004,21.5613 12.6561,22.8221 11.3518,22.8221 10.6126,21.7352 8.22134,21.6482 7.96047,21.0395 6.917,20.9091 7.09091,19.9091 7.96047,19.9091 8.00395,15.8221 4.917,15.8656 4.917,14.9526 2.78656,15.0395 2.917,13.996 2.17787,13.996 1.87352,12.996 1.00395,12.5178 1.17787,10.6917 0.134387,10.9091"/>
  </object>
  <object id="269" x="979.217" y="612.783">
   <polygon points="0,0 1.69565,-1.69565 4.95652,-1.73913 6.73913,0.478261 6.47826,2.13043 5.43478,3.04348 4.78261,3.21739 4.73913,5 1.78261,4.91304 1.78261,3.34783 0.782609,3.21739 0.782609,2.43478 -0.26087,2.08696"/>
  </object>
  <object id="270" x="996.087" y="614.87">
   <polygon points="0,0 -0.0869565,2.95652 2.95652,4.91304 4.91304,4.91304 7.95652,3.21739 7.86957,0.0434783 4.73913,0.26087 4.3913,1 2.95652,0.782609 2.95652,0.130435"/>
  </object>
  <object id="273" x="1009.02" y="610.089">
   <polygon points="0,0 3.02222,-0.155556 3.04444,0.8 4.84444,0.844444 4.88889,-0.0444444 7.88889,-0.0888889 7.91111,2.95556 6.91111,3.82222 4.97778,3.91111 4.91111,4.8 2.93333,4.77778 2.97778,4.02222 1,3.84444 0.955556,2.93333 -0.0888889,2.84444"/>
  </object>
  <object id="274" x="1014" y="617">
   <polygon points="0,0 3.11111,-0.0444444 3,0.866667 5.08889,0.777778 5.08889,0 7.91111,-0.0222222 7.91111,3.08889 7.04444,3.02222 7.02222,3.8 5,4.06667 5.04444,4.84444 3.04444,5 3,4.24444 1,3.93333 1.06667,3.06667 0.0888889,2.97778"/>
  </object>
  <object id="275" x="999.889" y="629.022">
   <polygon points="0,0 2.11111,-2.08889 4.95556,-2.08889 7.04444,0.0666667 7.08889,1.91111 6.11111,2.77778 4.84444,3.04444 5.02222,4.97778 2.04444,4.95556 2.33333,2.95556 1.24444,2.95556 0.2,1.84444"/>
  </object>
  <object id="276" x="992.906" y="632.875">
   <polygon points="0,0 1.90625,-1.6875 5.0625,-1.75 6.78125,0.0625 7.03125,1.9375 6.25,2.125 5.90625,2.84375 5.125,3.0625 5.03125,5.125 1.90625,5.0625 2.09375,3.1875 1.03125,3.03125 0.96875,2.09375 0.1875,2.0625"/>
  </object>
  <object id="277" x="976.25" y="645">
   <polygon points="0,0 2.625,-3.9375 4.8125,-4.8125 10.9375,-4.875 12.75,-3.8125 15.1875,-1.1875 15.75,-0.0625 15.75,6.8125 13.5,8.875 11.75,9.3125 11.6875,10.0625 3.625,10.0625 3.625,9.3125 1.9375,9 1.625,7.8125 0.6875,7.9375 0.125,6.75 -0.3125,6.875"/>
  </object>
  <object id="278" x="962.313" y="662.438">
   <polygon points="0,0 3.5625,-2.1875 19.6875,-2.375 22.8125,-0.625 22.8125,0.8125 27.875,1.1875 28.9375,3.1875 28.8125,4.375 29.8125,4.8125 29.6875,5.5625 28.875,5.9375 26.375,7.6875 19.75,7.625 19.625,8.4375 3.25,8.4375 -0.1875,5.25"/>
  </object>
  <object id="279" x="913" y="644.063">
   <polygon points="0,0 4.125,-4 9.9375,-4.0625 12.875,-1.875 14.0625,0.3125 14.0625,14.375 11.9375,16.5 10.0625,17.3125 10.4375,20.6875 11.0625,20.875 10.875,21.8125 6.6875,23.9375 3.1875,21.1875 3,20.75 3.75,20.75 3.9375,17.125 2.25,16.9375 0.0625,13.75"/>
  </object>
  <object id="280" x="899.043" y="677.087">
   <polygon points="0,0 1.86957,-2.34783 4.82609,-2.34783 6.91304,0.0434783 6.95652,1.95652 5.86957,2.91304 5.08696,3.17391 5.08696,4.73913 2.17391,4.82609 1.91304,2.91304 1.13043,2.91304 -0.130435,2"/>
  </object>
  <object id="281" x="880.818" y="658.727">
   <polygon points="0,0 0.0909091,2.54545 3.63636,4.18182 5.27273,7.81818 5.27273,9.27273 9,11 12,10.1818 13.4545,8.45455 13.1818,6.09091 7.72727,6.27273 5.27273,2.90909 7.54545,2.90909 8.18182,1.27273 7.90909,-1.09091"/>
  </object>
  <object id="284" x="848.783" y="680.87">
   <polygon points="0,0 2.17391,-2.13043 5.6087,-1.82609 7.08696,-0.0434783 7.21739,-3.82609 9.30435,-5.86957 12.1739,-5.82609 14.3043,-3.08696 14.087,-1.6087 13.1739,-1.08696 12.4348,-0.695652 11.8261,1.47826 9.21739,1 8.56522,-1.08696 7.91304,-0.826087 6.95652,1.95652 5.78261,3.08696 5.04348,3.08696 5.47826,4.82609 2.3913,5.26087 2.30435,3.34783 0.304348,2.04348"/>
  </object>
  <object id="396" x="783.273" y="660.273">
   <polygon points="0,0 4,-5.09091 11.6364,-5.45455 12.9091,-4.90909 16.3636,-2.54545 17.7273,-4.54545 16.0909,-8 15.3636,-8.90909 15.6364,-16.8182 20.0909,-20.8182 21.3636,-21.9091 28.6364,-21.3636 32.7273,-18.2727 33.7273,-17.0909 33.8182,-8.81818 33.0909,-6 30,-4.72727 32.4545,-1.90909 36.1818,-4.45455 37.3636,-5 44,-5.09091 48.0909,-2.18182 49.7273,0.454545 49.5455,8.36364 45.3636,11.3636 48.3636,14.0909 52.4545,11.3636 60.3636,10.6364 61.8182,11.4545 63.8182,13 65.1818,15.0909 65.5455,25.1818 61.1818,27.7273 51.9091,27.6364 48.2727,25.3636 43.3636,27.8182 35.6364,27.4545 32.6364,25.5455 29.7273,27.5455 19.8182,27.7273 16.2727,24.3636 15.8182,23.4545 15.7273,16.0909 20.3636,11.4545 16.7273,9.18182 13,11.6364 4.36364,11.3636 0.181818,9.09091 -0.181818,4.18182"/>
  </object>
  <object id="397" x="690.625" y="679.125">
   <polygon points="0,0 7.75,-7.5 18.5,-7.25 24.875,-2.25 26.875,1.5 26.375,11.125 25.5,14.875 20,18.25 18.75,18.5 19,20.5 19.875,21.75 16.375,24.375 14.75,25.25 13.5,25.5 7.375,23.375 6.25,22.75 6.25,21.25 6.5,19.75 7.375,19.5 7.25,17.875 5,17.375 1.875,15.5 0.375,12.875 -0.5,11"/>
  </object>
  <object id="398" x="671.636" y="704.273">
   <polygon points="0,0 -0.0909091,-13.1818 3.54545,-17 12.0909,-17.1818 15.6364,-14.2727 16.4545,1.72727 13.6364,5.09091 12,5.63636 12.0909,7.72727 13.3636,8.54545 13.0909,10.0909 8.63636,12.3636 7.36364,12.5455 3.63636,10.6364 2.72727,10.1818 2.72727,9.18182 3.27273,8.36364 4.18182,7.81818 4.09091,6.09091 1.72727,5.18182 0.727273,2.54545"/>
  </object>
  <object id="399" x="655.818" y="711.727">
   <polygon points="0,0 9.90909,-5.90909 13.4545,-5.90909 15.7273,-3.63636 16.3636,-0.454545 15.3636,1.09091 14.1818,1.81818 13.9091,3.90909 9.09091,3.63636 7.54545,5.54545 7.54545,7 2.09091,7.36364 2.09091,5.27273 0.0909091,3.45455"/>
  </object>
  <object id="401" x="642.313" y="726.438">
   <polygon points="0,0 0,-2.1875 0.6875,-2.3125 2.1875,-4.1875 5.75,-4.25 6.375,-3.125 7.4375,-1.875 8.125,-0.4375 8,0.5 7.9375,1.1875 7.125,1.3125 7.1875,2.0625 6.0625,2.1875 6.125,3.9375 2.1875,4 2.0625,2.1875 1.25,2.0625 1.1875,1.3125"/>
  </object>
  <object id="402" x="659.636" y="723.364">
   <polygon points="0,0 5.81818,-3.63636 18.3636,-3.72727 22.7273,-3.18182 25.0909,-1.72727 25.7273,0.0909091 27.2727,0.363636 28.6364,0.181818 30.2727,-0.0909091 31,0.181818 32.0909,0.727273 32.3636,3.63636 33,4.72727 33.2727,6.45455 32.7273,6.81818 32.0909,7.72727 32.3636,9.72727 31.8182,10 24.7273,10.2727 23.2727,10.7273 20.9091,11.5455 20.1818,11.6364 19.4545,12.7273 5.45455,12.2727 -0.0909091,8.72727 0,8.18182 -0.454545,6.81818 -0.727273,1.72727"/>
  </object>
  <object id="403" x="660.043" y="742.565">
   <polygon points="0,0 8.17391,-0.0434783 8.34783,-0.0434783 8.21739,3.56522 7.21739,4.52174 5.43478,4.82609 5.47826,5.56522 2.65217,5.95652 2.13043,4.91304 -0.565217,4.73913 -0.652174,0.26087"/>
  </object>
  <object id="404" x="646.063" y="766">
   <polygon points="0,0 -0.375,-5.125 0.4375,-5.75 3.25,-6.375 6,-9.375 6.6875,-12.375 6.625,-22.75 5.8125,-23.6875 5.5625,-24.75 -0.4375,-29.8125 -10.4375,-30 -10.9375,-29.1875 -12.1875,-29.1875 -13.125,-28.3125 -14.25,-28.0625 -18.0625,-24.25 -18.25,-23.1875 -19.1875,-22.8125 -19.1875,-17.3125 -18.25,-16.0625 -19.25,-15.625 -18.8125,-10.75 -17.75,-9.875 -17.75,-9 -15.5,-6.625 -14.25,-6.3125 -13.6875,-5.1875 -10.875,-5.25 -10.875,-3.3125 -12.3125,-2.125 -11.8125,-0.75 -10.5625,0.3125 -9,0.625 -8.375,1.0625 -5.4375,1.875 -4.1875,1.5 -3.5,0.875"/>
  </object>
  <object id="405" x="658" y="767.5">
   <polygon points="0,0 0.125,-9.375 4.5,-14.625 7.5,-15.75 15.75,-16 19.625,-16 24.25,-12.25 27.125,-10.25 27.5,0.25"/>
  </object>
  <object id="407" x="530.875" y="621.125">
   <polygon points="0,0 3,3.125 43.5,3.25 42.75,1.75"/>
  </object>
  <object id="408" x="499.75" y="606.25">
   <polygon points="0,0 4.5,2.375 26.5,2"/>
  </object>
  <object id="409" x="498.438" y="631.75">
   <polygon points="0,0 0.0625,-3.25 2.75,-5.4375 5.3125,-5.4375 8.125,-3.125 8.375,-0.75 6.3125,0.9375 6.0625,1.8125 6.4375,2.5625 2.375,2.5625 1.9375,2.5625 1.8125,0.875"/>
  </object>
  <object id="410" x="500" y="646.522">
   <polygon points="0,0 8.08696,0.0434783 8.56522,3.73913 7.13043,4.69565 5.73913,5.08696 5.69565,5.86957 2.82609,5.95652 2.34783,5.26087 0.913043,4.86957 0.565217,4.86957 0.26087,4.08696 -0.478261,3.78261 -0.608696,0.695652"/>
  </object>
  <object id="411" x="513.938" y="646.063">
   <polygon points="0,0 3.875,-2.6875 19.9375,-2.625 23.0625,-0.8125 23.875,0.1875 23.6875,1.1875 26.125,1.1875 26.75,0.5625 28.125,0.1875 28.75,0.25 28.75,2.25 29.75,2.8125 30,3.9375 30.875,4.5 31,5.875 30.5,6.0625 29.75,6.5 29.9375,7.5 29.625,8.3125 20.9375,8.75 20.8125,9.5 3.0625,9.5625 -0.75,5.8125 -0.75,0.6875"/>
  </object>
  <object id="412" x="497.625" y="662.375">
   <polygon points="0,0 3.9375,-3.1875 20,-3.375 21.5,-2.1875 23.8125,-1.4375 24.1875,0.4375 26.625,0.875 27.5625,-0.1875 28.5625,-0.1875 29,1.75 29.875,2.125 30,3.6875 30.8125,4 30.875,6.125 30,6.375 30.25,7.6875 29.4375,7.9375 21.0625,8.375 20.5625,9.125 4.5625,9.25 -0.5,4.875"/>
  </object>
  <object id="413" x="513.652" y="678.348">
   <polygon points="0,0 3.73913,-2.78261 20.4348,-2.95652 23.6522,-0.956522 23.8696,0.826087 26.913,0.826087 27.3043,-0.130435 28.5217,0.130435 28.8696,1.82609 29.4348,2 29.913,4.08696 30.7826,4.6087 30.7826,5.73913 30.4348,5.91304 29.9565,6 29.7826,8.17391 20.913,8.26087 20.6957,8.95652 4.04348,9 3.82609,9.04348 3.56522,8.08696 1.82609,8.08696 1.86957,7.3913 0.956522,7.21739 0.782609,6.30435 0.0869565,6.21739 -0.130435,6.13043"/>
  </object>
  <object id="414" x="512.957" y="696.087">
   <polygon points="0,0 1.6087,-1.73913 5.13043,-1.82609 7.56522,0.826087 7.56522,3.34783 5.82609,4.65217 5.69565,6.47826 1.26087,6.21739 1.43478,4.56522 -0.391304,2.91304 -0.521739,0.73913"/>
  </object>
  <object id="415" x="519.565" y="692.435">
   <polygon points="0,0 2.04348,-2 5.78261,-1.78261 7.95652,0.608696 7.78261,2.82609 6.04348,4.08696 6,6.08696 1.91304,6.04348 1.86957,4 1.17391,3.69565 0.0869565,2.52174 -0.0869565,2.21739"/>
  </object>
  <object id="416" x="544.435" y="657.826">
   <polygon points="0,0 -0.0434783,3.04348 3.30435,5.30435 3.95652,5.43478 5.52174,5.47826 6.30435,5.17391 7.73913,4.47826 8.56522,3.56522 9.08696,3.30435 9,-0.0869565 8.21739,-0.217391"/>
  </object>
  <object id="418" x="549.933" y="664.622">
   <polygon points="0,0 8.35556,0 8.42222,3.46667 8.04444,3.64444 7.42222,3.75556 7.42222,4.44444 7.17778,4.64444 5.37778,4.71111 5.37778,5.46667 1.86667,5.57778 1.8,4.66667 0.844444,4.62222 0.733333,3.6 -0.133333,3.53333"/>
  </object>
  <object id="419" x="528.188" y="707.031">
   <polygon points="0,0 4.46875,-3.6875 11.1875,-3.5625 11.5,-2.53125 13.1875,-2.375 15.4375,-0.125 15.5,1.15625 16.1563,1.09375 16.2188,-0.21875 18.5938,-2.59375 19.9375,-3.40625 19.25,-4.03125 19.0313,-4.46875 17.4688,-4.78125 15.4688,-6.625 15.3777,-7.63995 15.4647,-14.2921 15.9864,-14.8573 16.2038,-14.9878 16.2473,-16.3791 20.2038,-19.466 27.2908,-19.553 27.5951,-18.8573 28.9429,-18.466 30.5516,-16.8573 31.0299,-16.6399 31.2908,-16.466 31.3777,-14.9443 31.9429,-14.9878 32.2038,-16.5095 36.2908,-19.466 42.856,-19.5965 43.5516,-18.553 45.3342,-18.3356 45.4212,-17.6399 46.2908,-17.2486 46.2908,-16.7269 47.0734,-16.4226 47.2038,-14.6834 48.2908,-14.1617 48.4647,-6.81386 47.769,-6.42255 47.3777,-6.37908 47.3342,-5.7269 46.5082,-5.46603 46.5082,-4.50951 44.5082,-4.68342 44.4647,-3.63995 35.2038,-3.50951 34.9864,-4.55299 33.2908,-4.37908 33.2038,-5.3356 32.3777,-5.42255 32.2473,-6.37908 31.4212,-6.3356 30.9429,-5.59647 30.5082,-5.59647 30.3342,-4.98777 30.1603,-4.42255 28.4647,-4.37908 28.1168,-3.63995 27.4647,-3.7269 27.2038,-2.94429 29.4212,-2.7269 29.5516,-1.90082 30.2908,-1.50951 30.5516,-0.726902 31.2908,-0.552989 31.3342,1.22962 32.0734,1.49049 32.2038,9.31658 31.6821,9.57745 31.1168,9.75136 30.856,10.6644 30.3777,10.534 29.6821,11.6209 28.4647,11.4035 28.5082,12.1427 19.5082,12.6644 18.8995,12.447 18.8995,11.4035 17.2038,11.1427 16.9429,10.3166 16.1603,10.1427 15.5951,9.31658 15.2473,9.88179 15.3342,10.5774 14.3777,10.447 14.4647,11.3166 12.3342,11.4905 12.4212,12.534 3.16033,12.534 3.16033,11.6644 1.11685,11.3601 0.986413,10.447 -0.491848,10.1427 -0.92663,5.75136 -0.970109,3.96875 -0.622283,0.838315"/>
  </object>
  <object id="420" x="561.261" y="712.304">
   <polygon points="0,0 1.69565,-1.86957 4.73913,-2.08696 6.17391,-0.26087 6.08696,-3.52174 8.52174,-5.91304 12,-6.13043 14.1304,-3.47826 14.2609,-1.21739 13.3913,0.0434783 12.5217,1.21739 12.1304,2.21739 9.6087,2.52174 8.3913,2.52174 8.17391,2.47826 7.6087,0.652174 7.3913,2.43478 6.21739,3.73913 5.73913,5.21739 4.82609,6.21739 1.08696,6.30435 0.913043,4.47826 0.347826,4.21739 -0.130435,3.52174 -0.347826,3.34783 -0.608696,2.52174 -0.695652,0.73913"/>
  </object>
  <object id="421" x="560.25" y="723.813">
   <polygon points="0,0 0,-1.75 4.375,-4.5625 11.0625,-4.5 15.5625,-1.1875 15.6875,-0.125 16.375,0.3125 16.25,8.75 13.5625,11.125 12.625,11.25 12.125,12.0625 3,12.1875 2,10.875 -0.8125,8.6875 -1.0625,1.125"/>
  </object>
  <object id="422" x="579.217" y="724">
   <polygon points="0,0 1.82609,-1.65217 4.78261,-1.56522 7.17391,0.173913 7.47826,3.73913 6.34783,3.52174 5.95652,4.47826 5.21739,4.73913 5.34783,6.30435 1.34783,6.43478 1.17391,4.34783 -0.608696,3.47826 -0.869565,1.17391"/>
  </object>
  <object id="423" x="580.563" y="694.063">
   <polygon points="0,0 7.75,0.0625 8.0625,3.6875 6.75,5.1875 5.125,5.75 5.125,6.125 1.875,6.125 -0.125,5.5625 -1.25,4.6875 -1.5,0.1875"/>
  </object>
  <object id="290" x="449" y="584.333">
   <polygon points="0,0 -0.333333,-23.3333 14.3333,-25.3333 15,-41.6667 30.3333,-41.6667 32,-56 79.6667,-57.3333 79.6667,-73.3333 94.3333,-74 95.3333,-105.667 110.667,-105.667 111.333,-120.333 222.667,-121 222.333,-105.667 238.667,-104.333 239,-75.3333 236,-71.6667 221.667,-71.3333 222,-58.3333 235,-57 238.667,-54 238.333,-10.6667 254.667,-7.66667 255,5 270,7.66667 271,35.6667 266.333,40.6667 238.667,40.3333 239,66.3333 235,72 206.667,71.6667 206.667,82 202.667,87.3333 163.333,87.6667 159.333,83.3333 157,70.6667 128.667,70.3333 127,67 123.667,39.3333 82,37 78.3333,33.3333 78.6667,24 49.6667,22.3333 47.3333,15.3333 47.6667,8 3.66667,6.33333"/>
  </object>
  <object id="295" x="372" y="768">
   <polygon points="0,0 -3.63636,-4.90909 -3.81818,-17.2727 -15.2727,-16.5455 -20,-20.1818 -20,-32.3636 -47.4545,-31.4545 -51.8182,-36.9091 -54.1818,-48.7273 -79.8182,-48.3636 -83.8182,-55.0909 -83.4545,-64.9091 -97.0909,-64.7273 -99.4545,-68.9091 -99.4545,-95.6364 -126.727,-95.8182 -130.727,-100 -130.909,-124.545 -127.636,-128.364 -116.182,-129.091 -115.636,-138.727 -111.091,-144.545 -83.4545,-144.182 -84.1818,-154.909 -79.2727,-160.364 -3.5,-160 -3.25,-171.75 1.5,-176.25 22.875,-176 27.25,-171 28.125,-144.125 37.875,-144 44.125,-138.5 43.75,-127.875 70.25,-128 75.125,-123.375 75.75,-112.125 86.375,-112 91.375,-106.875 91.5,-96.75 102.625,-96.375 107.625,-91 107.75,-80.25 119,-79.625 123.5,-75.125 123.5,-37.125 119.5,-32 123.25,-26.5 123.375,-16.875 134,-16.375 139.125,-10.875 139.125,-0.5"/>
  </object>
  <object id="296" x="128.727" y="523.455">
   <polygon points="0,0 -0.181818,-38.9091 4.36364,-43.2727 31.8182,-43.4545 32,-54.9091 36,-59.8182 47.6364,-60 47.8182,-86.7273 52.3636,-92.1818 63.4545,-92.1818 63.8182,-102.909 68,-107.636 79.4545,-108.182 79.4545,-118 82.9091,-123.636 95.6364,-124.364 95.4545,-135.455 98.9091,-139.636 111.636,-140 111.398,-150.83 116.023,-155.33 127.523,-155.955 127.023,-167.455 132.148,-171.705 143.523,-172.33 143.523,-182.705 148.523,-187.58 234.023,-187.455 238.648,-182.205 239.148,-171.83 249.898,-171.705 254.273,-167.08 254.898,-124.08 265.273,-124.205 270.898,-117.955 271.273,-107.83 313.773,-107.33 318.523,-102.205 318.773,-92.2045 329.523,-91.9545 334.898,-86.8295 334.773,-48.3295 330.398,-43.2045 318.773,-43.3295 318.898,-32.2045 314.773,-27.4545 302.523,-27.3295 302.773,-16.7045 298.648,-11.3295 254.273,-11.3295 254.398,-0.704545 251.023,4.29545 238.523,4.92045 238.773,15.4205 234.648,20.2955 190.273,20.5455 190.398,31.7955 186.648,36.2955 174.398,36.5455 174.398,47.6705 170.398,52.7955 131.898,52.7955 127.898,47.6705 127.523,36.9205 84.0227,36.4205 79.6477,32.0455 79.5227,21.0455 20.3977,20.9205 15.8977,15.2955 15.7727,4.54545 3.77273,5.04545"/>
  </object>
  <object id="297" x="16.3636" y="737.091">
   <polygon points="0,0 -0.181818,12.3636 4.36364,14.5455 11.6364,14.9091 16.3636,10.3636 19.6364,9.81818 22.7273,12.1818 28.5455,8.72727 28.9091,4 31.8182,0.363636 32,-5.45455 34.3636,-7.27273 38.7273,-4.36364 46.1818,-6.90909 48.1818,-31.4545 45.6364,-33.4545 35.2727,-33.6364 31.2727,-27.4545 31.2727,-17.0909 19.6364,-18.3636 15.2727,-13.4545 11.0909,-0.545455"/>
  </object>
  <object id="298" x="48" y="767.273">
   <polygon points="0,0 -0.181818,-16.5455 15.4545,-15.8182 13.6364,0.545455"/>
  </object>
  <object id="299" x="95.4545" y="768">
   <polygon points="0,0 -13.6364,-5.81818 -14.7273,-31.4545 0.363636,-32.9091 0.909091,-48.9091 32.1818,-48.5455 33.0909,-64.5455 48.3636,-63.6364 48.5455,-48.3636 62.9091,-47.6364 65.0909,-42.9091 64.7273,-34 51.0909,-32.5455 45.8182,-37.8182 34,-38 29.4545,-19.8182 24.1818,-18.5455 13.0909,-19.8182 2,-20.5455 2.90909,-16.5455 12.3636,-16.5455 15.8182,-14.3636 16.5455,-0.909091"/>
  </object>
  <object id="300" x="164.375" y="743.125">
   <polygon points="0,0 7.875,-0.25 7.75,2.75 4.625,4.75 2.75,4.75 0.5,3.5 -0.25,2.5"/>
  </object>
  <object id="301" x="145.25" y="713">
   <polygon points="0,0 9.25,-6.25 12.625,-6.125 14,-3.875 14,-2.5 4.625,5.125 1.25,5.125"/>
  </object>
  <object id="302" x="144.125" y="689.375">
   <polygon points="0,0 0.5,3.875 8.75,12.25 10.875,12.25 13.75,10.875 13.625,7.875 9.25,7.375 9.125,1"/>
  </object>
  <object id="304" x="195.636" y="707.091">
   <polygon points="0,0 7.09091,-3.09091 18.7273,-3.09091 25.4545,-0.545455 25.8182,1.27273 30.3636,1.27273 33.4545,4.90909 33.8182,6.54545 31.2727,9.09091 9.45455,13.0909 1.45455,10"/>
  </object>
  <object id="305" x="211.455" y="724.182">
   <polygon points="0,0 7.45455,-4.90909 18.7273,-5.09091 26.5455,0.363636 30.7273,0.363636 32.5455,7.81818 24.1818,8.54545 17.2727,10.9091 6.54545,10.9091 0.181818,6.36364"/>
  </object>
  <object id="306" x="240.545" y="739.818">
   <polygon points="0,0 3.09091,-3.45455 10.9091,-3.63636 15.2727,-0.181818 15.6364,6.90909 11.6364,11.2727 2.72727,11.8182 -0.727273,8.18182"/>
  </object>
  <object id="307" x="255.455" y="724.727">
   <polygon points="0,0 3.27273,-4.90909 12,-5.27273 16.1818,-2.18182 16.3636,7.45455 13.0909,11.2727 4.72727,10.7273 0.727273,7.81818"/>
  </object>
  <object id="308" x="272.625" y="744.938">
   <polygon points="0,0 2.125,-2.3125 5.25,-2.1875 6.9375,-0.4375 6.75,-4.4375 8.875,-6.625 12.6875,-6.5 14.6875,-4.3125 14.6875,-2.3125 12.875,0.875 7.9375,1 5.6875,3.5625 5.75,5.25 2.1875,5.375 2.1875,3.25 1.3125,3.3125 1.1875,2 0.3125,2.125"/>
  </object>
  <object id="310" x="288.826" y="738.087">
   <polygon points="0,0 0.130435,2.82609 5.13043,10.1304 8.3913,11.8696 10.1304,11.913 13.087,9.73913 13.2609,6.78261 8.08696,6.21739 8,-0.478261"/>
  </object>
  <object id="312" x="224.182" y="689.364">
   <polygon points="0,0 -0.181818,12 3.36364,13.7273 11.9091,14.1818 15.0909,12.8182 16.0909,11.2727 16.6364,2.63636 12.0909,-1.81818 4.45455,-2.18182"/>
  </object>
  <object id="313" x="208.727" y="683.091">
   <polygon points="0,0 2.09091,3.63636 5.18182,3.36364 6.18182,1.54545 12.6364,-1.09091 15.2727,-4.81818 15,-6.90909 12.4545,-9 9,-9 0.909091,-4.18182"/>
  </object>
  <object id="314" x="32.0625" y="468.688">
   <polygon points="0,0 4.5,-4.9375 11.1875,-4.75 15.8125,-1.5625 15.9375,7.375 12.1875,10.3125 3.75,10.5625 -0.0625,7.5625"/>
  </object>
  <object id="316" x="18.9375" y="470.5">
   <polygon points="0,0 0.25,-1.625 2.25,-3.625 5.0625,-3.5625 7.1875,-1.5 7.1875,0.125 5,1.8125 5,3.5 2.0625,3.5625 2.125,1.8125"/>
  </object>
  <object id="317" x="33" y="489.438">
   <polygon points="0,0 2.1875,-2.75 5.0625,-2.625 8.6875,-6.375 12,-6.625 14.1875,-4.4375 14.3125,-2.5625 12.75,-1.5 12.125,-1.3125 12.125,0.25 9,0.3125 5.25,2.5625 5.125,4.25 2,4.4375 2.0625,2.875 -0.1875,1.3125"/>
  </object>
  <object id="318" x="48.9091" y="497.364">
   <polygon points="0,0 -0.272727,3.81818 7.36364,12.3636 10.0909,12.3636 13,10.6364 13,7.27273 8,6.90909 8,0.0909091"/>
  </object>
  <object id="320" x="51.9091" y="490.273">
   <polygon points="0,0 -0.0909091,-5.18182 6.27273,-10.3636 17.8182,-10.6364 24.5455,-8.45455 25.2727,-5.90909 32,-5.72727 32,3.36364 24,2.63636 18.8182,4.63636 5.63636,4.90909 0.545455,1.90909"/>
  </object>
  <object id="321" x="67.913" y="474.13">
   <polygon points="0,0 0.0434783,-5.3913 1.95652,-7.3913 3.78261,-7.73913 4.91304,-9.13043 7.95652,-10.2609 18.1495,-10.1929 22.337,-9.13043 23.6495,-8.50543 25.337,-5.94293 29.837,-6.31793 31.212,-5.44293 32.212,-1.50543 31.962,-0.00543478 30.5245,2.80707 23.962,2.93207 18.837,4.93207 6.02446,4.99457 1.83696,2.49457 0.711957,0.744565"/>
  </object>
  <object id="322" x="97" y="457.125">
   <polygon points="0,0 1.875,-1.9375 4.8125,-2.4375 8.9375,-6.125 12.25,-6.1875 13.875,-4.375 14.0625,-2.4375 12.4375,-1 12.0625,-0.375 11.8125,0.6875 9.125,0.6875 8.9375,-1.0625 8.1875,-1.1875 6.875,-0.4375 7.125,1.6875 5.3125,3.0625 5.25,4.5625 1.9375,4.5625 2,3 0.9375,3.0625 -0.125,1.8125"/>
  </object>
  <object id="326" x="143.545" y="420">
   <polygon points="0,0 2.72727,-3.90909 12.7273,-4 16.4545,-0.272727 19.5455,-3.81818 29.6364,-3.90909 32.7273,0.636364 32.5455,8.27273 26.6364,11.4545 20.4545,11.6364 16.4545,9.09091 12.8182,11.2727 16.2727,15.2727 16.4545,24.7273 12.7273,27.8182 3.90909,27.7273 0,24.3636 -0.0909091,16.8182 3.72727,11.9091 0.0909091,7.54545"/>
  </object>
  <object id="328" x="160.25" y="410.375">
   <polygon points="0,0 0.1875,-1.5625 2.375,-3.8125 5.75,-4.25 9.5,-7.625 14,-7.8125 15.625,-4.125 15.1875,-3.125 13.375,-1.875 13.4375,-0.5 8.9375,0 6.3125,2 6.25,3.25 2,3.875 2.1875,2.0625"/>
  </object>
  <object id="329" x="163.182" y="388">
   <polygon points="0,0 -0.0909091,-14.3636 8.36364,-20.0909 17.1818,-20.5455 26.2727,-12.0909 25.5455,0.727273 19.1818,4.90909 17.3636,4.90909 19.6364,9.18182 12.9091,11.9091 6.27273,9.81818 6.36364,5.36364"/>
  </object>
  <object id="330" x="211.625" y="344.125">
   <polygon points="0,0 -0.125,11.875 5.75,16 7.625,15.75 7.125,20.5 11.5,22.625 12.875,23.125 17.625,20.875 16.5,15.25 21.375,14.625 25,9.5 25,-0.625 18,-7.625 8.5,-7.5 3.875,-5.125"/>
  </object>
  <object id="331" x="240.75" y="344.938">
   <polygon points="0,0 2.25,-2.3125 5.125,-2.0625 6.4375,-0.8125 6.8125,-4.3125 9.1875,-6.125 12.4375,-6.375 14.5625,-4 14.6875,-2.25 12.75,-0.4375 12.375,1.1875 9.0625,1.375 7.5625,1.5 5.5625,3.3125 5.5625,5.125 2.1875,5.375 1.625,3.125 -0.125,1.3125"/>
  </object>
  <object id="332" x="240.957" y="322">
   <polygon points="0,0 0,3.08696 1.08696,3.91304 2.91304,4.91304 4.95652,4.95652 8.17391,2.82609 7.73913,-0.434783"/>
  </object>
  <object id="333" x="246" y="329.043">
   <polygon points="0,0 7.91304,-0.26087 7.73913,3.21739 4.91304,4.69565 2.91304,4.73913 0.869565,3.73913 -0.0869565,2.69565"/>
  </object>
  <object id="334" x="323.455" y="311">
   <polygon points="0,0 0.0909091,2.45455 3.18182,4.90909 5.09091,5.18182 8.72727,3.45455 8.54545,-0.454545"/>
  </object>
  <object id="335" x="336.455" y="315">
   <polygon points="0,0 0,-2.09091 2.54545,-3.72727 5.27273,-4.18182 7.63636,-1.54545 7.72727,-0.363636 6.45455,1.18182 6,2.81818 2.09091,2.81818 2.18182,1.63636"/>
  </object>
  <object id="336" x="343.364" y="310.727">
   <polygon points="0,0 -0.454545,-1.45455 2.27273,-4.54545 5.27273,-4.90909 8.36364,-2.63636 8,0.181818 7.09091,0.818182 6.27273,1.18182 6.09091,3.27273 2.27273,3.54545"/>
  </object>
  <object id="337" x="384.063" y="322.063">
   <polygon points="0,0 0.1875,2.375 4,5.375 5.5625,6.125 5.4375,9.8125 9.3125,12 10.6875,11.9375 14.4375,10.125 14.5,6.8125 6.5,6.375 6.375,5.375 9.1875,3.25 9,-0.5625"/>
  </object>
  <object id="339" x="50.4783" y="548.739">
   <polygon points="0,0 2.47826,-2.04348 5.69565,-2.04348 8,0.173913 7.91304,2.56522 6.04348,3.73913 6,5.30435 2.3913,5.52174 2.30435,3.3913 1.26087,3.30435 0.173913,2.08696"/>
  </object>
  <object id="340" x="63.375" y="547.625">
   <polygon points="0,0 3,-4.25 12.25,-4.875 15.875,-3.75 18.875,-5 17.375,-7.625 17.375,-13.625 21.5,-16.5 39.25,-16.375 42.375,-14.875 42.625,-13.25 46.625,-13.875 49.375,-10 49.75,-8.375 48.625,-5.75 40.25,-4.375 20.5,-3.875 18.5,-3.125 26.375,-2.75 27.25,3.5 31.125,4.25 31.75,8.75 26.75,11.75 22.375,9.5 21,5.5 17.625,3.25 17.375,7.875 13.25,12.375 3,12.625 -0.5,8.5"/>
  </object>
  <object id="341" x="79.1818" y="519.909">
   <polygon points="0,0 3.81818,-1.90909 6.72727,-2 9.36364,-5.45455 14.3636,-5.36364 16.7273,-2.54545 15.6364,0.545455 14.5455,2.90909 10.0909,3.27273 7.36364,7.09091 3,6.81818 1.09091,3.45455"/>
  </object>
  <object id="342" x="82.0909" y="500.636">
   <polygon points="0,0 2.36364,-2.54545 5.72727,-2.54545 8.45455,-0.545455 8.72727,2.09091 6.90909,4 6.81818,6.09091 2.45455,6.54545 1.81818,4.81818 0.181818,2.54545"/>
  </object>
  <object id="343" x="18.3636" y="612.727">
   <polygon points="0,0 7.45455,-5.63636 15.0909,-6 15.6364,-14.1818 21.2727,-20.9091 34.1818,-21.2727 41.8182,-16.1818 44,-6.18182 47.4545,-6.54545 47.6364,-15.0909 54.5455,-20.1818 69.2727,-20.9091 75.4545,-12.7273 75.0909,-0.545455 69.2727,4 67.0909,4.18182 68.3636,6.36364 69.2727,7.81818 63.0909,11.6364 59.4545,10.7273 58.9091,16.3636 51.4545,22.1818 49.0909,26.9091 40,25.6364 38.7273,20.1818 32.9091,17.6364 31.2727,11.8182 27.0909,10.3636 26.9091,14.5455 22.7273,19.8182 18.9091,20.3636 21.4545,26.5455 13.6364,27.0909 14,29.2727 15.6364,32.5455 15.8182,37.6364 10.7273,44.3636 -0.363636,44.3636 -4,40.1818 -4,31.2727 -0.181818,26.3636 6.90909,24.3636 6.90909,20.5455 3.45455,16.5455 0.181818,13.8182"/>
  </object>
  <object id="344" x="66.25" y="645.75">
   <polygon points="0,0 11.75,-0.375 15,-5.625 42.625,-5.625 47,1.5 46.375,23 42,25.125 33.375,25.625 28.875,20.375 29.25,13.75 32.5,9.875 30.125,7.625 27.375,9.625 16.375,10.125 13.125,7.5 12.125,0.75 10.625,4.625 7.75,6.375 4.5,6.875 0.625,4.5"/>
  </object>
  <object id="346" x="96.375" y="629.063">
   <polygon points="0,0 0.125,-3.6875 9.5,-3.5625 9.0625,0.5 6.5,2.0625 6,2.5625 14.25,3.125 14.5,6.625 10.875,9.4375 8.0625,9.5625 5.25,7.3125 4.625,2.75 3.1875,2.1875 2.375,1.6875"/>
  </object>
  <object id="348" x="80.4348" y="635.087">
   <polygon points="0,0 -0.0434783,-2.52174 2.47826,-4.56522 5.82609,-4.65217 6.91304,-3.3913 7.13043,-6.65217 9.13043,-8.69565 12.3913,-8.78261 14.8696,-6.52174 15.0435,-4.34783 13.2174,-2.52174 13.087,-1.13043 12.6957,-0.608696 9.34783,-0.608696 8.91304,-1.08696 8.86957,-2.52174 8.26087,-2.3913 8.30435,-0.26087 6.52174,1.47826 6.52174,2.82609 6.34783,3.52174 1.91304,3.47826 1.95652,1.78261"/>
  </object>
  <object id="349" x="98.25" y="613">
   <polygon points="0,0 2.40625,-2.6875 6.09375,-2.625 8.65625,-0.28125 8.53125,2.1875 6.40625,3.6875 6.46875,5.28125 2.3125,5.40625 2.1875,3.5625 0.34375,1.9375"/>
  </object>
  <object id="351" x="146.375" y="597.875">
   <polygon points="0,0 13,-0.375 12.875,-18.75 15.875,-22.25 25.625,-23 29.125,-19.75 29.625,-6.375 74.375,-6.5 78.125,-2.875 78.75,6.5 75.125,10.125 62.25,11.625 62.5,23.75 59.25,26 45.875,26.75 46.625,39.125 42.625,42.625 31.125,41.875 29,40.75 28.125,31.25 30.375,26.375 13.125,27 12.625,10.375 11.75,4.875 7.75,6.625 4.625,6.625 0.875,4.75"/>
  </object>
  <object id="352" x="161.625" y="643.375">
   <polygon points="0,0 2,-1.125 7,-1.625 9.375,1.25 9.375,3.625 7.5,6.5 4.25,7.75 2.375,7.625 2,5.5"/>
  </object>
  <object id="353" x="146.435" y="581.13">
   <polygon points="0,0 2,-2.43478 5.65217,-2.56522 7.91304,-0.391304 8,1.86957 6.13043,3.43478 6.08696,5.13043 2.08696,5.30435 1.82609,3.6087 -0.217391,2"/>
  </object>
  <object id="354" x="207.25" y="584">
   <polygon points="0,0 10.625,-6.5 14.75,-6.375 17.125,-2.875 17.25,-1.375 14,2.25 10.25,3.25 7.875,6.5 2.625,6.875"/>
  </object>
  <object id="356" x="224" y="608.875">
   <polygon points="0,0 0.125,4.75 6,12.5 10,14.625 14.375,12.75 14.625,7.25 9.125,7 10.375,0.25"/>
  </object>
  <object id="357" x="335.818" y="561.818">
   <polygon points="0,0 0.363636,5.09091 7.81818,12.9091 14.1818,13.6364 15.8182,6.72727 10.5455,4.90909 9.45455,-2"/>
  </object>
  <object id="358" x="353.273" y="567.636">
   <polygon points="0,0 9.27273,-7.45455 15.4545,-2.72727 11.8182,4.18182 3.27273,8.36364 0.181818,5.63636"/>
  </object>
  <object id="359" x="370" y="557.091">
   <polygon points="0,0 -0.363636,-7.27273 5.09091,-14 22,-13.8182 26.5,-9.59091 28,-6.09091 30.5,-12.3409 34.75,-15.5909 44.5,-15.8409 45,-30.0909 48,-31.3409 61,-30.8409 62.75,-8.59091 59.25,-6.34091 60.5,-0.590909 47.25,-0.340909 46.75,7.40909 44,8.90909 44.25,13.9091 39.25,16.6591 31.25,14.4091 30,10.4091 28.5,7.90909 24.5,9.65909 21.5,12.6591 23,17.9091 16.25,20.4091 8,18.9091 6.5,18.4091 7,11.1591 2.75,10.4091 0.25,3.65909"/>
  </object>
  <object id="360" x="432.727" y="536.364">
   <polygon points="0,0 8.81818,-6.72727 13.9091,-5.90909 15.2727,-2.09091 13.2727,1.54545 11.9091,2.81818 8.18182,1.81818 6.63636,4.27273 6.81818,5.81818 2.09091,6.63636 0.818182,3.90909 -0.272727,2.45455"/>
  </object>
  <object id="361" x="464.545" y="485.091">
   <polygon points="0,0 4.36364,-5.09091 10.3636,-2.54545 10.5455,2.54545 8.36364,5.63636 4.54545,6.72727"/>
  </object>
  <object id="362" x="480.364" y="502">
   <polygon points="0,0 8.90909,-5.63636 15.8182,-4.36364 16.9091,0 15.4545,4 6.72727,8.72727 3.27273,9.81818 0,7.27273"/>
  </object>
  <object id="363" x="479.455" y="469.727">
   <polygon points="0,0 6.36364,8.63636 11.6364,10.4545 16.4545,7.36364 16.6364,1.90909 10.6364,1.18182 11.2727,-5.45455 1.18182,-6.90909"/>
  </object>
  <object id="364" x="482.182" y="485.455">
   <polygon points="0,0 0.0909091,5.54545 4.27273,7.90909 8.27273,8 11.7273,5.54545 11.0909,0.636364 11.0909,-0.454545"/>
  </object>
  <object id="365" x="495.455" y="467.455">
   <polygon points="0,0 0,-15.6364 3.45455,-20.7273 11.3636,-21.5455 16.8182,-18.1818 17.2727,-2.45455 14.4545,2.90909 13.0909,3.36364 13.1818,4 14.1818,6 10.3636,9.63636 7.90909,10.4545 4.81818,8.63636 3.27273,7.45455 3.72727,3.18182"/>
  </object>
  <object id="366" x="513.273" y="441.455">
   <polygon points="0,0 -0.727273,-4.72727 3.81818,-8.72727 13.6364,-10.7273 14,-27.2727 28.9091,-28.3636 29.2727,-42 32.1818,-43.4545 45.0909,-43.6364 47.4545,-40.3636 49.0909,-30.3636 46.1818,-25.6364 32,-24.3636 31.2727,-8.54545 29.0909,-3.27273 28.9091,10.7273 24,16.1818 21.0909,16.9091 22.1818,20.5455 15.8182,23.2727 8,21.6364 7.09091,15.4545 2.18182,12.5455 0.363636,8"/>
  </object>
  <object id="367" x="462.909" y="400.364">
   <polygon points="0,0 -0.181818,14.1818 4.18182,16.1818 14.7273,15.4545 18.9091,11.4545 19.2727,2.36364 14.3636,-2.18182"/>
  </object>
  <object id="368" x="445.455" y="395.455">
   <polygon points="0,0 4.36364,5.09091 9.45455,4.54545 19.4545,-2.36364 19.6364,-9.09091 16.7273,-11.2727 12.3636,-12.3636"/>
  </object>
  <object id="369" x="482.182" y="331.091">
   <polygon points="0,0 9.81818,0.545455 9.09091,-9.27273 1.63636,-10 -0.727273,-9.45455"/>
  </object>
  <object id="371" x="498.636" y="346.273">
   <polygon points="0,0 0.272727,-4.45455 9.36364,-4.45455 10,-4.36364 10.0909,-0.0909091 7.63636,1.90909 5.09091,2.81818 3.45455,2.09091"/>
  </object>
  <object id="372" x="403" y="357.375">
   <polygon points="0,0 6.875,-5.5 15.125,-5.75 15.75,-15.625 22.5,-21.5 35.125,-21 41.375,-17.125 42.625,-5.375 48.25,-5.875 47.5,-14.375 54.25,-21.125 65.625,-22 73.625,-16.625 74.5,-6.375 82.5,-5.375 90.875,1.25 89.625,14.5 86.5,19.25 82.875,20.125 83,23.75 78,27.625 70.875,25.25 71,20.125 67.875,19.25 63.25,13.875 63.625,11.25 58.875,10.5 58.5,13.125 55.25,17.125 53.625,18.875 50.875,19.875 51,24.375 51,25.75 43.25,27.5 42.25,27.5 38.375,25.125 38.5,20.75 34.75,17.125 32.375,15.25 31.375,12 30.75,10.625 27,10.5 26,14.125 24.75,16.25 20.375,19 19,19.25 20.125,23 19.375,25.25 16.25,26 9.75,26.5 7.5,25.625 6.75,24.625 6.375,20.75 2.875,18.375 0.5,16.375 -0.25,14.375"/>
  </object>
  <object id="373" x="504.375" y="396.75">
   <polygon points="0,0 5.5,-2.25 4.375,-6.25 7.125,-10 8,-25.75 4.25,-29.5 -4,-29.875 -8.125,-26.125 -8.375,-10.875 -6.75,-7.375 -5.125,-6.875 -6,-3.75"/>
  </object>
  <object id="375" x="590.727" y="446.364">
   <polygon points="0,0 -0.545455,-12.9091 2.72727,-15.6364 16,-16.7273 15.6364,-28 20.1818,-31.8182 94,-31.6364 97.2727,-28.5455 97.6364,-11.0909 94.7273,-7.63636 94.3636,-3.09091 89.2727,-0.909091 83.6364,-4.18182 81.2727,0.909091 79.4545,2.18182 2.90909,2.18182"/>
  </object>
  <object id="380" x="688.5" y="448.625">
   <polygon points="0,0 9.875,0.125 9.75,7 14.75,7.125 14.75,11.75 11.5,14.625 8,14.625 4,12.125 4,7.75 -0.75,5"/>
  </object>
  <object id="382" x="703.938" y="440.938">
   <polygon points="0,0 2.4375,-2.75 7.0625,-2.4375 7,-4.75 9.5,-6.8125 13.4375,-7 16,-4.4375 16.25,-1.75 13.875,-0.3125 13.875,1.125 10.4375,1.625 9.125,1.75 7.4375,3.4375 6.25,5.1875 2.4375,5.25 2.25,3.5625 -0.125,2.0625"/>
  </object>
  <object id="384" x="706.348" y="532.652">
   <polygon points="0,0 2.3913,-2.30435 5.86957,-2.17391 7.91304,-0.434783 8.21739,2.56522 6.95652,3.86957 6.30435,4.08696 5.86957,6 2,6 1.95652,3.82609 0.0434783,2.47826"/>
  </object>
  <object id="385" x="708.217" y="550.043">
   <polygon points="0,0 3.65217,-3.82609 7.47826,-5.65217 16.7826,-5.73913 20.6522,-3.17391 23.1304,-0.565217 24.3043,2 24.3043,11.8261 23.3478,12.9565 23.3478,15.2174 20.9565,17.3913 18.2174,17.4348 18.4783,18.3043 16.3913,18.3043 16.2174,20.913 17.4783,22.0435 17.6087,23.087 12.6957,25.6087 10.6087,25.5652 9.91304,24.913 7.56522,24.5652 7.08696,23.6087 6.17391,23.2609 6.26087,21.4348 7,21.4783 7.04348,18.3913 4.65217,18.3043 3.78261,17.4783 2.52174,17.3478 0.217391,14.8696 0,13.3478 -0.608696,13.087 -0.782609,1.13043"/>
  </object>
  <object id="390" x="737.188" y="563.25">
   <polygon points="0,0 0.0625,-1.875 3.1875,-4 9.5625,-4.125 13.1875,-2.375 13.625,-0.125 14.375,-0.125 14.625,15 12.375,18.25 10.4375,18.5625 10.375,20.5 11.625,21.9375 11.375,22.75 10.125,23.125 9.5,23.375 9.5625,23.8125 7.6875,24.375 7.4375,25.1875 5.625,25.25 5.3125,25 5.0625,24.5 4.0625,23.3125 2.125,23.125 2.0625,21.4375 2.1875,20.9375 2.9375,20.875 2.9375,18.5 2,18.4375 0.25,16.625 0.125,15.6875 -0.875,14.75 -1.0625,0.75"/>
  </object>
  <object id="392" x="735.818" y="595">
   <polygon points="0,0 2.90909,-3.27273 12.1818,-3.72727 16.0909,-0.545455 16.9091,4.36364 20.9091,3.54545 23.0909,3.18182 23.4545,1.09091 27.3636,-1.54545 30.2727,-0.454545 32,1.54545 32.2727,4.09091 30.3636,6.54545 30.1818,8.27273 25.4545,8.18182 23.1818,10.1818 23.1818,11.6364 18.4545,12.0909 17.3636,10.4545 16.9091,9.81818 13.7273,12.5455 2.18182,12.7273 -1.27273,10.4545"/>
  </object>
  <object id="393" x="738.688" y="664.313">
   <polygon points="0,0 0.1875,-1.6875 10.1875,-2.125 10.25,1.9375 7.6875,3.8125 5.5,4.4375 3.8125,4.375 0.4375,1.9375"/>
  </object>
  <object id="395" x="719.455" y="675.818">
   <polygon points="0,0 3,-4.45455 12.3636,-4.90909 16.8182,-1.09091 17.6364,8.27273 13.0909,12 16.6364,14.9091 17.2727,24.5455 13.3636,28 4.09091,27.8182 0.272727,25.2727 -0.727273,21.8182 -0.545455,17.0909 2.54545,11.9091 2.36364,10.5455 0.272727,9.54545 -0.545455,7.36364"/>
  </object>
 </objectgroup>
 <objectgroup id="20" name="Portals" visible="0">
  <object id="429" x="0.181818" y="362" width="16" height="76.1818">
   <properties>
    <property name="maps/intersectionMap.lua" value=""/>
    <property name="spawnX" type="float" value="0"/>
    <property name="spawnY" type="float" value="0"/>
   </properties>
  </object>
 </objectgroup>
</map>
