<?xml version="1.0" encoding="UTF-8"?>
<map version="1.10" tiledversion="1.11.2" orientation="orthogonal" renderorder="right-down" width="64" height="48" tilewidth="16" tileheight="16" infinite="0" nextlayerid="10" nextobjectid="257">
 <editorsettings>
  <export target="mazeMap.lua" format="lua"/>
 </editorsettings>
 <tileset firstgid="1" name="grass" tilewidth="16" tileheight="16" tilecount="77" columns="11">
  <image source="tilesets/grass.png" width="176" height="112"/>
  <wangsets>
   <wangset name="Unnamed Set" type="mixed" tile="-1">
    <wangcolor name="" color="#ff0000" tile="-1" probability="1"/>
   </wangset>
  </wangsets>
 </tileset>
 <tileset firstgid="78" name="hills" tilewidth="16" tileheight="16" tilecount="99" columns="11">
  <image source="tilesets/hills.png" width="176" height="144"/>
  <wangsets>
   <wangset name="Hills" type="mixed" tile="-1">
    <wangcolor name="" color="#ff0000" tile="-1" probability="1"/>
    <wangtile tileid="0" wangid="0,0,0,1,0,0,0,0"/>
    <wangtile tileid="1" wangid="0,0,0,1,1,1,0,0"/>
    <wangtile tileid="2" wangid="0,0,0,0,0,1,0,0"/>
    <wangtile tileid="11" wangid="0,1,1,1,0,0,0,0"/>
    <wangtile tileid="12" wangid="1,1,1,1,1,1,1,1"/>
    <wangtile tileid="13" wangid="0,0,0,0,0,1,1,1"/>
    <wangtile tileid="16" wangid="1,1,0,0,0,1,1,1"/>
    <wangtile tileid="17" wangid="1,1,1,1,0,0,0,1"/>
    <wangtile tileid="22" wangid="0,1,0,0,0,0,0,0"/>
    <wangtile tileid="23" wangid="1,1,0,0,0,0,0,1"/>
    <wangtile tileid="24" wangid="0,0,0,0,0,0,0,1"/>
    <wangtile tileid="27" wangid="0,0,0,1,1,1,1,1"/>
    <wangtile tileid="28" wangid="0,1,1,1,1,1,0,0"/>
   </wangset>
  </wangsets>
 </tileset>
 <tileset firstgid="177" name="water" tilewidth="16" tileheight="16" tilecount="4" columns="4">
  <image source="tilesets/water.png" width="64" height="16"/>
 </tileset>
 <tileset firstgid="181" name="dirt" tilewidth="16" tileheight="16" tilecount="77" columns="11">
  <image source="tilesets/dirt.png" width="176" height="112"/>
  <wangsets>
   <wangset name="Road" type="mixed" tile="-1">
    <wangcolor name="" color="#ff0000" tile="-1" probability="1"/>
    <wangtile tileid="0" wangid="0,0,0,1,0,0,0,0"/>
    <wangtile tileid="1" wangid="0,0,0,1,1,1,0,0"/>
    <wangtile tileid="2" wangid="0,0,0,0,0,1,0,0"/>
    <wangtile tileid="11" wangid="0,1,1,1,0,0,0,0"/>
    <wangtile tileid="12" wangid="1,1,1,1,1,1,1,1"/>
    <wangtile tileid="13" wangid="0,0,0,0,0,1,1,1"/>
    <wangtile tileid="16" wangid="1,1,0,0,0,1,1,1"/>
    <wangtile tileid="17" wangid="1,1,1,1,0,0,0,1"/>
    <wangtile tileid="22" wangid="0,1,0,0,0,0,0,0"/>
    <wangtile tileid="23" wangid="1,1,0,0,0,0,0,1"/>
    <wangtile tileid="24" wangid="0,0,0,0,0,0,0,1"/>
    <wangtile tileid="27" wangid="0,0,0,1,1,1,1,1"/>
    <wangtile tileid="28" wangid="0,1,1,1,1,1,0,0"/>
   </wangset>
  </wangsets>
 </tileset>
 <tileset firstgid="258" name="whisper_dirt" tilewidth="16" tileheight="16" tilecount="77" columns="11">
  <image source="tilesets/whisper_dirt.png" width="176" height="112"/>
  <wangsets>
   <wangset name="Fog" type="mixed" tile="-1">
    <wangcolor name="" color="#ff0000" tile="-1" probability="1"/>
    <wangtile tileid="8" wangid="0,0,0,1,0,0,0,0"/>
    <wangtile tileid="9" wangid="0,0,0,1,1,1,0,0"/>
    <wangtile tileid="10" wangid="0,0,0,0,0,1,0,0"/>
    <wangtile tileid="19" wangid="0,1,1,1,0,0,0,0"/>
    <wangtile tileid="20" wangid="1,1,1,1,1,1,1,1"/>
    <wangtile tileid="21" wangid="0,0,0,0,0,1,1,1"/>
    <wangtile tileid="30" wangid="0,1,0,0,0,0,0,0"/>
    <wangtile tileid="31" wangid="1,1,0,0,0,0,0,1"/>
    <wangtile tileid="32" wangid="0,0,0,0,0,0,0,1"/>
    <wangtile tileid="42" wangid="1,1,0,0,0,1,1,1"/>
    <wangtile tileid="43" wangid="1,1,1,1,0,0,0,1"/>
    <wangtile tileid="53" wangid="0,0,0,1,1,1,1,1"/>
    <wangtile tileid="54" wangid="0,1,1,1,1,1,0,0"/>
   </wangset>
  </wangsets>
 </tileset>
 <tileset firstgid="335" name="furniture" tilewidth="16" tileheight="16" tilecount="54" columns="9">
  <image source="tilesets/furniture.png" width="144" height="96"/>
 </tileset>
 <layer id="1" name="Background" width="64" height="48">
  <data encoding="csv">
140,140,149,138,146,134,138,90,138,90,149,135,140,146,148,135,149,133,148,144,139,149,146,134,144,148,144,146,135,145,149,138,138,139,138,150,90,149,144,138,90,151,144,138,146,139,134,150,146,138,151,135,140,139,148,139,90,151,134,139,140,146,139,148,
148,148,138,148,138,150,148,147,145,139,147,140,145,133,139,146,135,135,133,135,146,138,151,144,138,145,135,144,147,139,139,140,139,149,150,149,144,90,146,146,150,148,90,146,144,135,144,149,150,146,133,145,135,146,151,145,135,150,135,140,134,139,150,135,
148,147,135,145,151,139,139,144,133,135,150,135,150,134,135,90,146,90,135,90,144,144,139,133,135,139,140,147,144,138,133,134,147,145,90,133,134,146,138,147,139,150,135,147,90,147,144,133,138,151,151,147,134,144,147,145,149,144,149,150,146,147,138,144,
134,134,134,148,139,145,90,135,150,148,138,150,133,135,90,147,133,139,135,149,139,147,90,139,90,145,144,134,138,145,138,140,148,148,90,147,135,147,90,148,151,90,90,90,149,140,134,149,151,151,133,145,148,138,90,144,139,147,149,140,133,135,150,151,
90,144,140,149,151,139,135,151,151,133,145,145,140,146,145,138,151,135,145,134,151,146,90,135,145,149,90,147,148,151,135,149,149,139,144,150,140,134,148,149,134,140,147,145,146,149,133,135,133,148,90,144,147,135,140,145,133,149,134,146,140,144,149,134,
151,145,148,134,149,144,147,149,147,145,145,134,139,151,135,134,90,147,133,146,135,147,133,149,147,149,135,90,138,151,134,151,151,139,147,151,133,145,134,90,147,134,148,149,134,146,138,144,134,139,133,135,90,90,139,151,144,133,140,145,148,139,90,149,
148,150,90,151,148,134,138,134,145,133,149,150,134,133,135,146,134,134,147,147,144,147,134,133,90,144,151,146,90,138,145,90,139,139,138,135,145,138,147,90,138,149,138,148,133,139,134,140,144,133,144,151,139,138,133,133,134,144,146,133,150,133,90,138,
140,146,140,90,135,90,134,144,135,151,148,148,145,144,140,133,134,140,90,146,138,151,147,135,138,149,139,148,133,144,150,146,149,139,138,147,147,147,135,135,145,150,144,139,144,140,150,150,150,144,145,150,139,147,147,134,138,145,144,139,135,139,90,150,
150,148,145,140,139,151,144,150,146,140,133,146,140,90,90,134,145,146,90,140,145,149,146,146,133,144,139,135,134,151,90,150,138,147,148,151,147,149,135,147,145,134,151,146,146,150,147,133,140,90,135,140,151,90,147,138,150,90,135,133,139,146,90,150,
149,90,147,150,135,90,145,138,139,150,135,140,148,150,138,134,139,150,150,90,140,150,147,145,90,147,145,150,150,145,90,150,144,140,147,144,135,144,133,148,146,147,147,134,148,148,149,150,149,146,133,147,148,145,145,135,147,148,149,150,144,140,147,138,
147,147,145,148,151,134,139,90,151,134,149,138,146,138,134,149,145,135,149,90,140,144,148,133,145,135,139,135,138,138,134,147,150,145,150,134,146,135,144,140,139,147,149,149,138,149,133,145,146,135,151,90,139,133,148,134,134,151,133,135,135,140,140,148,
151,151,150,146,138,144,135,134,90,151,139,149,140,139,147,144,151,135,139,146,151,148,138,151,90,145,149,138,133,140,90,139,90,148,147,151,146,147,145,90,139,150,148,149,151,145,151,138,139,134,147,90,146,146,140,145,140,150,135,145,146,135,144,147,
133,145,147,90,139,139,138,146,151,138,147,140,135,151,151,135,135,138,145,149,135,133,151,149,134,151,149,135,146,149,151,133,145,90,148,144,144,146,150,134,145,146,134,148,139,148,139,145,145,148,133,145,146,146,134,140,145,149,150,149,146,90,147,144,
140,147,146,139,147,146,151,145,150,146,144,135,146,133,90,133,149,138,145,135,147,146,151,145,148,133,138,138,135,139,140,135,149,151,148,139,149,138,135,145,150,146,138,138,149,146,149,146,144,144,139,134,140,134,148,148,133,140,148,134,147,135,151,150,
148,150,90,138,149,148,146,150,146,149,147,139,90,151,90,146,147,140,135,147,134,134,140,149,145,150,151,90,148,149,146,145,148,145,90,138,151,149,135,148,150,90,145,140,149,145,144,151,151,148,150,148,90,145,138,135,138,145,148,148,133,140,139,149,
139,148,138,140,135,133,144,139,150,151,151,133,144,135,150,150,133,140,134,148,147,134,138,138,133,133,148,150,140,133,90,150,145,133,148,146,133,134,138,138,139,139,139,150,133,139,135,150,135,148,139,145,138,139,145,148,148,139,146,149,149,150,146,147,
151,145,149,139,139,140,135,149,146,149,151,145,135,140,150,134,151,151,150,134,90,146,145,147,151,146,139,138,140,134,140,144,135,150,147,134,135,149,149,90,149,135,133,138,151,133,148,134,139,149,90,145,145,148,133,146,90,151,133,145,133,90,150,147,
140,149,144,144,151,135,138,138,145,90,135,139,150,135,150,146,150,134,135,150,134,145,135,151,135,145,134,149,138,133,147,139,151,139,147,139,139,151,145,149,134,146,134,90,151,146,144,144,148,149,150,147,134,139,134,147,134,151,140,151,138,146,145,148,
133,146,133,151,139,138,145,135,146,90,139,144,139,145,145,90,138,133,151,144,139,146,139,148,134,135,90,144,90,147,140,135,140,144,134,148,140,134,140,134,90,149,147,145,145,150,148,148,147,134,90,144,140,135,138,149,144,134,145,138,90,144,135,90,
149,138,90,146,146,146,151,144,139,90,145,138,90,138,151,139,139,133,144,134,146,138,146,133,151,144,134,138,148,133,151,139,144,140,133,148,148,90,150,147,145,138,133,138,134,90,147,139,148,139,151,148,133,140,138,133,139,149,146,146,135,90,138,149,
151,90,145,145,148,148,134,133,139,147,147,133,145,90,90,149,134,146,140,149,150,149,134,135,140,150,148,138,135,148,146,145,133,150,133,146,148,134,150,148,140,134,151,90,135,140,135,139,90,90,150,90,135,145,151,150,145,147,134,146,90,146,138,139,
145,134,145,138,144,147,133,151,134,135,147,150,146,148,151,144,90,139,90,146,134,149,133,140,149,144,151,148,150,139,134,134,138,133,134,135,150,133,145,90,151,151,144,149,133,148,144,149,146,150,139,147,139,146,146,133,148,134,133,135,149,149,139,147,
146,151,133,135,146,148,149,135,133,146,147,135,148,151,148,134,140,134,146,147,140,146,134,151,133,148,138,151,149,134,149,145,135,90,148,135,134,146,133,134,138,140,145,138,140,149,139,151,135,133,147,150,144,135,145,151,134,138,144,140,146,151,135,151,
135,134,148,151,134,147,144,133,144,145,146,134,138,140,149,140,148,151,135,147,139,149,134,145,139,135,140,147,151,149,140,150,145,146,150,147,135,139,134,147,149,145,90,144,144,151,90,134,151,133,138,150,144,150,151,147,140,150,134,138,147,134,148,134,
140,134,140,149,147,144,151,150,150,140,149,151,139,150,151,134,144,146,145,90,148,145,135,149,134,149,150,146,138,138,144,148,140,144,150,150,140,134,145,140,140,135,140,135,134,138,150,149,133,151,140,144,140,151,138,147,145,140,90,150,140,135,144,134,
134,139,145,148,149,138,151,135,149,133,139,145,147,139,147,149,139,133,148,145,133,135,140,133,138,148,151,134,139,90,139,138,139,149,90,133,138,151,138,146,147,140,151,144,150,133,90,150,140,135,139,146,147,148,138,147,150,148,150,148,147,145,90,133,
150,90,140,148,134,151,145,150,140,149,150,134,135,151,145,133,139,145,148,139,133,139,145,144,140,134,134,151,90,135,151,135,138,133,149,133,145,135,147,150,151,149,148,147,145,148,138,151,147,148,133,151,151,147,151,147,149,90,134,133,139,138,149,145,
144,135,149,144,146,135,90,135,135,150,135,138,133,135,134,133,140,90,146,133,140,148,133,150,148,148,144,135,148,135,144,135,139,133,139,146,144,149,151,135,138,133,138,151,148,144,133,146,145,147,134,149,149,150,147,139,144,90,145,149,138,139,140,151,
146,150,149,90,151,90,90,133,148,149,133,133,140,133,147,150,133,147,133,146,151,148,150,134,147,146,139,150,145,139,148,139,133,139,144,151,139,139,133,90,133,150,138,148,138,146,147,151,144,149,148,151,149,140,147,148,146,147,145,133,135,150,148,134,
133,138,90,133,138,134,147,140,147,148,90,133,133,147,149,138,139,135,148,147,146,138,146,150,148,139,138,144,149,146,140,150,140,151,134,144,134,147,135,133,140,139,151,145,134,147,144,149,151,90,139,90,146,134,134,146,134,150,151,140,144,139,150,140,
135,135,90,150,135,135,149,146,149,147,147,148,140,151,134,148,139,140,135,151,147,135,151,140,90,145,147,90,145,139,90,145,133,140,134,140,147,140,139,146,139,146,140,146,144,151,135,147,133,147,148,147,90,90,139,135,138,146,138,150,139,151,149,139,
150,149,145,139,145,139,150,150,149,147,138,151,146,150,133,150,148,145,145,151,147,134,144,147,145,133,135,133,146,145,138,134,135,151,147,90,151,139,133,146,134,146,134,150,151,134,138,149,140,133,135,135,146,138,145,150,145,144,140,144,149,140,144,140,
146,144,147,134,90,140,145,144,146,138,144,150,147,140,144,133,135,135,133,149,140,148,134,147,90,148,134,135,134,151,149,151,151,90,139,145,135,140,146,90,90,138,138,90,135,138,135,135,139,134,135,151,140,134,134,145,139,144,148,138,149,145,140,135,
90,150,140,147,151,138,146,151,135,151,150,145,145,140,140,145,147,146,149,134,140,140,139,151,146,147,135,151,140,133,151,133,140,151,134,145,151,145,151,149,135,151,90,150,151,139,149,90,139,151,133,148,149,140,149,146,140,140,147,146,140,149,150,150,
133,90,133,151,144,147,150,147,133,149,147,148,149,140,151,149,134,145,146,133,138,151,138,145,138,138,139,147,149,145,133,147,139,140,133,149,139,133,150,140,90,150,150,133,151,146,144,144,139,145,144,140,148,146,90,146,135,133,139,148,145,90,135,149,
135,144,134,144,150,146,145,90,134,139,134,147,151,150,138,146,140,140,147,133,139,145,133,147,151,151,144,135,139,140,144,147,144,145,90,144,150,149,133,134,140,134,151,149,90,149,140,140,134,151,149,148,149,144,135,149,135,147,149,139,134,134,149,148,
149,139,133,145,90,133,150,146,148,138,151,146,147,90,151,150,90,146,146,138,149,150,148,138,147,150,150,148,148,90,134,135,140,150,134,151,150,139,133,145,135,151,149,139,140,147,90,135,151,150,140,148,151,133,134,140,147,134,147,138,148,148,90,133,
144,134,151,144,145,138,147,147,145,135,139,148,149,151,90,150,145,140,146,134,90,150,146,139,90,135,144,149,148,151,146,151,148,90,140,147,150,146,149,135,139,146,149,150,140,146,144,139,149,140,151,148,150,149,148,134,145,140,139,151,134,151,146,149,
138,138,150,144,150,151,133,150,133,139,150,145,135,149,149,149,144,138,148,144,147,90,134,150,90,140,151,149,144,134,140,146,144,139,144,135,144,135,148,140,135,134,135,151,148,148,133,146,90,133,150,149,90,149,151,134,90,147,150,145,135,147,148,144,
145,150,134,149,145,149,146,135,145,148,133,144,133,139,139,146,144,151,133,134,147,140,151,150,148,145,148,149,149,151,150,146,139,145,150,148,138,140,151,147,139,135,148,144,150,133,90,146,150,139,139,139,144,140,147,145,139,140,146,134,139,90,144,151,
149,135,135,134,147,139,151,150,146,134,150,148,148,150,133,140,145,139,90,146,150,147,90,135,135,144,146,145,148,144,145,148,144,133,148,140,133,146,150,148,150,134,145,150,138,133,147,150,147,148,140,150,139,135,90,146,139,90,146,146,147,144,148,140,
149,148,133,139,135,147,90,149,135,145,147,139,144,138,147,90,140,147,150,135,138,151,150,134,144,150,90,139,138,145,138,135,148,151,145,140,144,148,144,135,134,146,133,145,138,147,150,146,144,149,151,151,139,135,90,149,133,148,134,133,150,90,134,135,
151,138,133,145,147,144,134,151,140,148,146,149,135,144,134,148,146,135,135,148,146,133,150,149,147,133,147,133,145,150,144,151,148,140,146,140,146,139,138,139,140,138,146,139,151,151,144,149,140,148,144,150,144,148,139,138,140,134,133,135,150,147,151,138,
151,140,135,146,144,146,151,140,148,146,146,146,147,150,138,134,145,135,133,150,138,135,146,147,90,146,146,140,149,90,90,150,135,149,138,146,144,149,140,140,147,145,147,147,148,146,133,139,145,144,151,90,151,139,144,150,149,144,148,148,138,139,145,147,
151,134,134,145,133,151,139,151,146,140,146,149,134,145,145,151,148,146,150,138,144,150,139,151,150,90,133,135,148,144,134,151,150,148,144,147,151,147,149,147,135,135,138,147,146,144,151,134,140,147,140,139,150,148,134,135,146,134,145,135,147,90,149,150,
151,133,135,148,139,134,150,140,139,151,148,139,140,134,151,135,90,90,144,149,133,144,90,135,144,138,148,90,145,138,151,139,90,139,135,145,151,134,151,144,133,146,145,90,148,138,146,90,90,133,139,145,140,147,147,139,140,140,144,138,149,139,138,134,
139,140,144,147,147,133,145,150,144,139,90,135,149,147,145,139,148,150,147,134,139,139,149,148,133,147,146,148,147,146,90,135,133,149,134,145,90,149,133,149,90,150,148,146,147,150,135,138,150,90,139,144,134,149,145,150,147,140,90,147,139,133,138,150,
150,134,90,151,151,149,150,149,151,133,135,134,150,147,90,151,134,147,150,133,146,148,90,135,149,145,90,146,151,135,135,151,151,146,146,134,140,145,151,140,144,146,147,151,150,138,150,144,150,151,145,150,144,90,135,140,134,90,150,151,138,145,144,133
</data>
 </layer>
 <layer id="4" name="Water" width="64" height="48">
  <data encoding="csv">
0,0,0,0,0,0,0,0,0,0,0,0,0,0,0,0,0,0,0,0,0,0,0,0,0,0,0,0,0,0,0,0,0,0,0,0,0,0,0,0,0,0,0,0,0,0,0,0,0,0,0,0,0,0,0,0,0,0,0,0,0,0,0,0,
0,0,0,0,0,0,0,0,0,0,0,0,0,0,0,0,0,0,0,0,0,0,0,0,0,0,0,0,0,0,0,0,0,0,0,0,0,0,0,0,0,0,0,0,0,0,0,0,0,0,0,0,0,0,0,0,0,0,0,0,0,0,0,0,
0,0,0,0,0,0,0,0,0,0,0,0,0,0,0,0,0,0,0,0,0,0,0,0,0,0,0,0,0,0,0,0,0,0,0,0,0,0,0,0,0,0,0,0,0,0,0,0,0,0,0,0,0,0,0,0,0,0,0,0,0,0,0,0,
0,0,0,0,0,0,0,0,0,0,0,0,0,0,0,0,0,0,0,0,0,0,0,0,0,0,0,0,0,0,0,0,0,0,0,0,0,0,0,0,0,0,0,0,0,0,0,0,0,0,0,0,0,0,0,0,0,0,0,0,0,0,0,0,
0,0,0,0,0,0,0,0,0,0,0,0,0,0,0,0,0,0,0,0,0,0,0,0,0,0,0,0,0,0,0,0,0,0,0,0,0,0,0,0,0,0,0,0,0,0,0,0,0,0,0,0,0,0,0,0,0,0,0,0,0,0,0,0,
0,0,0,0,0,0,0,0,0,0,0,0,0,0,0,0,0,0,0,0,0,0,0,0,0,0,0,0,0,0,0,0,0,0,0,0,0,0,0,0,0,0,0,0,0,0,0,0,0,0,0,0,0,0,0,0,0,0,0,0,0,0,0,0,
0,0,0,0,0,0,0,0,0,0,0,0,0,0,0,0,0,0,0,0,0,0,0,0,0,0,0,0,0,0,0,0,0,0,0,0,0,0,0,0,0,0,0,0,0,0,0,0,0,0,0,0,0,0,0,0,0,0,0,0,0,0,0,0,
0,0,0,0,0,0,0,0,0,0,0,0,0,0,0,0,0,0,0,0,0,0,0,0,0,0,0,0,0,0,0,0,0,0,0,0,0,0,0,0,0,0,0,0,0,0,0,0,0,0,0,0,0,0,0,0,0,0,0,0,0,0,0,0,
0,0,0,0,0,0,0,0,0,0,0,0,0,0,0,0,0,0,0,0,0,0,0,0,0,0,0,0,0,0,0,0,0,0,0,0,0,0,0,0,0,0,0,0,0,0,0,0,0,0,0,0,0,0,0,0,0,0,0,0,0,0,0,0,
0,0,0,0,0,0,0,0,0,0,0,0,0,0,0,0,0,0,0,0,0,0,0,0,0,0,0,0,0,0,0,0,0,0,0,0,0,0,0,0,0,0,0,0,0,0,0,0,0,0,0,0,0,0,0,0,0,0,0,0,0,0,0,0,
0,0,0,0,0,0,0,0,0,0,0,0,0,0,0,0,0,0,0,0,0,0,0,0,0,0,0,0,0,0,0,0,0,0,0,0,0,0,0,0,0,0,0,0,0,0,0,0,0,0,0,0,0,0,0,0,0,0,0,0,0,0,0,0,
0,0,0,0,0,0,0,0,0,0,0,0,0,0,0,0,0,0,0,0,0,0,0,0,0,0,0,0,0,0,0,0,0,0,0,0,0,0,0,0,0,0,0,0,0,0,0,0,0,0,0,0,0,0,0,0,0,0,0,0,0,0,0,0,
0,0,0,0,0,0,0,0,0,0,0,0,0,0,0,0,0,0,0,0,0,0,0,0,0,0,0,0,0,0,0,0,0,0,0,0,0,0,0,0,0,0,0,0,0,0,0,0,0,0,0,0,0,0,0,0,0,0,0,0,0,0,0,0,
0,0,0,0,0,0,0,0,0,0,0,0,0,0,0,0,0,0,0,0,0,0,0,0,0,0,0,0,0,0,0,0,0,0,0,0,0,0,0,0,0,0,0,0,0,0,0,0,0,0,0,0,0,0,0,0,0,0,0,0,0,0,0,0,
0,0,0,0,0,0,0,0,0,0,0,0,0,0,0,0,0,0,0,0,0,0,0,0,0,0,0,0,0,0,0,0,0,0,0,0,0,0,0,0,0,0,0,0,0,0,0,0,0,0,0,0,0,0,0,0,0,0,0,0,0,0,0,0,
0,0,0,0,0,0,0,0,0,0,0,0,0,0,0,0,0,0,0,0,0,0,0,0,0,0,0,0,0,0,0,0,0,0,0,0,0,0,0,0,0,0,0,0,0,0,0,0,0,0,0,0,0,0,0,0,0,0,0,0,0,0,0,0,
0,0,0,0,0,0,0,0,0,0,0,0,0,0,0,0,0,0,0,0,0,0,0,0,0,0,0,0,0,0,0,0,0,0,0,0,0,0,0,0,0,0,0,0,0,0,0,0,0,0,0,0,0,0,0,0,0,0,0,0,0,0,0,0,
0,0,0,0,0,0,0,0,0,0,0,0,0,0,0,0,0,0,0,0,0,0,0,0,0,0,0,0,0,0,0,0,0,0,0,0,0,0,0,0,0,0,0,0,0,0,0,0,0,0,0,0,0,0,0,0,0,0,0,0,0,0,0,0,
0,0,0,0,0,0,0,0,0,0,0,0,0,0,0,0,0,0,0,0,0,0,0,0,0,0,0,0,0,0,0,0,0,0,0,0,0,0,0,0,0,0,0,0,0,0,0,0,0,0,0,0,0,0,0,0,0,0,0,0,0,0,0,0,
0,0,0,0,0,0,0,0,0,0,0,0,0,0,0,0,0,0,0,0,0,0,0,0,0,0,0,0,0,0,0,0,0,0,0,0,0,0,0,0,0,0,0,0,0,0,0,0,0,0,0,0,0,0,0,0,0,0,0,0,0,0,0,0,
0,0,0,0,0,0,0,0,0,0,0,0,0,0,0,0,0,0,0,0,0,0,0,0,0,0,0,0,0,0,0,0,0,0,0,0,0,0,0,0,0,0,0,0,0,0,0,0,0,0,0,0,0,0,0,0,0,0,0,0,0,0,0,0,
0,0,0,0,0,0,0,0,0,0,0,0,0,0,0,0,0,0,0,0,0,0,0,0,0,0,0,0,0,0,0,0,0,0,0,0,0,0,0,0,0,0,0,0,0,0,0,0,0,0,0,0,0,0,0,0,0,0,0,0,0,0,0,0,
0,0,0,0,0,0,0,0,0,0,0,0,0,0,0,0,0,0,0,0,0,0,0,0,0,0,0,0,0,0,0,0,0,0,0,0,0,0,0,0,0,0,0,0,0,0,0,0,0,0,0,0,0,0,0,0,0,0,0,0,0,0,0,0,
0,0,0,0,0,0,0,0,0,0,0,0,0,0,0,0,0,0,0,0,0,0,0,0,0,0,0,0,0,0,0,0,0,0,0,0,0,0,0,0,0,0,0,0,0,0,0,0,0,0,0,0,0,0,0,0,0,0,0,0,0,0,0,0,
0,0,0,0,0,0,0,0,0,0,0,0,0,0,0,0,0,0,0,0,0,0,0,0,0,0,0,0,0,0,0,0,0,0,0,0,0,0,0,0,0,0,0,0,0,0,0,0,0,0,0,0,0,0,0,0,0,0,0,0,0,0,0,0,
0,0,0,0,0,0,0,0,0,0,0,0,0,0,0,0,0,0,0,0,0,0,0,0,0,0,0,0,0,0,0,0,0,0,0,0,0,0,0,0,0,0,0,0,0,0,0,0,0,0,0,0,0,0,0,0,0,0,0,0,0,0,0,0,
0,0,0,0,0,0,0,0,0,0,0,0,0,0,0,0,0,0,0,0,0,0,0,0,0,0,0,0,0,0,0,0,0,0,0,0,0,0,0,0,0,0,0,0,0,0,0,0,0,0,0,0,0,0,0,0,0,0,0,0,0,0,0,0,
0,0,0,0,0,0,0,0,0,0,0,0,0,0,0,0,0,0,0,0,0,0,0,0,0,0,0,0,0,0,0,0,0,0,0,0,0,0,0,0,0,0,0,0,0,0,0,0,0,0,0,0,0,0,0,0,0,0,0,0,0,0,0,0,
0,0,0,0,0,0,0,0,0,0,0,0,0,0,0,0,0,0,0,0,0,0,0,0,0,0,0,0,0,0,0,0,0,0,0,0,0,0,0,0,0,0,0,0,0,0,0,0,0,0,0,0,0,0,0,0,0,0,0,0,0,0,0,0,
0,0,0,0,0,0,0,0,0,0,0,0,0,0,0,0,0,0,0,0,0,0,0,0,0,0,0,0,0,0,0,0,0,0,0,0,0,0,0,0,0,0,0,0,0,0,0,0,0,0,0,0,0,0,0,0,0,0,0,0,0,0,0,0,
0,0,0,0,0,0,0,0,0,0,0,0,0,0,0,0,0,0,0,0,0,0,0,0,0,0,0,0,0,0,0,0,0,0,0,0,0,0,0,0,0,0,0,0,0,0,0,0,0,0,0,0,0,0,0,0,0,0,0,0,0,0,0,0,
0,0,0,0,0,0,0,0,0,0,0,0,0,0,0,0,0,0,0,0,0,0,0,0,0,0,0,0,0,0,0,0,0,0,0,0,0,0,0,0,0,0,0,0,0,0,0,0,0,0,0,0,0,0,0,0,0,0,0,0,0,0,0,0,
0,0,0,0,0,0,0,0,0,0,0,0,0,0,0,0,0,0,0,0,0,0,0,0,0,0,0,0,0,0,0,0,0,0,0,0,0,0,0,0,0,0,0,0,0,0,0,0,0,0,0,0,0,0,0,0,0,0,0,0,0,0,0,0,
0,0,0,0,0,0,0,0,0,0,0,0,0,0,0,0,0,0,0,0,0,0,0,0,0,0,0,0,0,179,179,180,178,180,180,0,0,0,0,0,0,0,0,0,0,0,0,0,0,0,0,0,0,0,0,0,0,0,0,0,0,0,0,0,
0,0,0,0,0,0,0,0,0,0,0,0,0,0,0,0,0,0,0,0,0,0,0,0,0,0,0,0,180,178,180,180,177,179,177,178,0,0,0,0,0,0,0,0,0,0,0,0,0,0,0,0,0,0,0,0,0,0,0,0,0,0,0,0,
0,0,0,0,0,0,0,0,0,0,0,0,0,0,0,0,0,0,0,0,0,0,0,0,0,0,0,180,178,178,178,180,177,180,178,179,179,0,0,0,0,0,0,0,0,0,0,0,0,0,0,0,0,0,0,0,0,0,0,0,0,0,0,0,
0,0,0,0,0,0,0,0,0,0,0,0,0,0,0,0,0,0,0,0,0,0,0,0,0,0,179,179,178,179,180,180,177,177,180,177,180,178,0,0,0,0,0,0,0,0,0,0,0,0,0,0,0,0,0,0,0,0,0,0,0,0,0,0,
0,0,0,0,0,0,0,0,0,0,0,0,0,0,0,0,0,0,0,0,0,0,0,0,0,0,180,180,180,177,179,178,179,180,179,179,179,180,0,0,0,0,0,0,0,0,0,0,0,0,0,0,0,0,0,0,0,0,0,0,0,0,0,0,
0,0,0,0,0,0,0,0,0,0,0,0,0,0,0,0,0,0,0,0,0,0,0,0,0,179,178,179,177,179,179,178,179,180,179,179,180,179,180,0,0,0,0,0,0,0,0,0,0,0,0,0,0,0,0,0,0,0,0,0,0,0,0,0,
0,0,0,0,0,0,0,0,0,0,0,0,0,0,0,0,0,0,0,0,0,0,0,0,0,177,179,178,177,177,179,177,180,177,178,178,180,177,178,0,0,0,0,0,0,0,0,0,0,0,0,0,0,0,0,0,0,0,0,0,0,0,0,0,
0,0,0,0,0,0,0,0,0,0,0,0,0,0,0,0,0,0,0,0,0,0,0,0,0,180,180,177,178,178,180,180,177,179,177,178,179,179,179,0,0,0,0,0,0,0,0,0,0,0,0,0,0,0,0,0,0,0,0,0,0,0,0,0,
0,0,0,0,0,0,0,0,0,0,0,0,0,0,0,0,0,0,0,0,0,0,0,0,0,177,179,180,177,180,180,177,179,179,180,178,178,179,179,0,0,0,0,0,0,0,0,0,0,0,0,0,0,0,0,0,0,0,0,0,0,0,0,0,
0,0,0,0,0,0,0,0,0,0,0,0,0,0,0,0,0,0,0,0,0,0,0,0,0,0,179,180,178,179,180,177,178,180,180,178,179,178,0,0,0,0,0,0,0,0,0,0,0,0,0,0,0,0,0,0,0,0,0,0,0,0,0,0,
0,0,0,0,0,0,0,0,0,0,0,0,0,0,0,0,0,0,0,0,0,0,0,0,0,0,178,178,180,179,178,179,180,178,177,180,179,180,0,0,0,0,0,0,0,0,0,0,0,0,0,0,0,0,0,0,0,0,0,0,0,0,0,0,
0,0,0,0,0,0,0,0,0,0,0,0,0,0,0,0,0,0,0,0,0,0,0,0,0,0,0,180,177,179,179,177,177,177,179,178,180,0,0,0,0,0,0,0,0,0,0,0,0,0,0,0,0,0,0,0,0,0,0,0,0,0,0,0,
0,0,0,0,0,0,0,0,0,0,0,0,0,0,0,0,0,0,0,0,0,0,0,0,0,0,0,0,178,178,179,178,177,180,177,178,0,0,0,0,0,0,0,0,0,0,0,0,0,0,0,0,0,0,0,0,0,0,0,0,0,0,0,0,
0,0,0,0,0,0,0,0,0,0,0,0,0,0,0,0,0,0,0,0,0,0,0,0,0,0,0,0,0,177,179,178,177,179,177,0,0,0,0,0,0,0,0,0,0,0,0,0,0,0,0,0,0,0,0,0,0,0,0,0,0,0,0,0,
0,0,0,0,0,0,0,0,0,0,0,0,0,0,0,0,0,0,0,0,0,0,0,0,0,0,0,0,0,0,0,0,0,0,0,0,0,0,0,0,0,0,0,0,0,0,0,0,0,0,0,0,0,0,0,0,0,0,0,0,0,0,0,0
</data>
 </layer>
 <layer id="5" name="Edge" width="64" height="48">
  <data encoding="csv">
0,0,0,0,0,0,0,0,0,0,0,0,0,0,0,0,0,0,0,0,0,0,0,0,0,0,0,0,0,0,0,0,0,0,0,0,0,0,0,0,0,0,0,0,0,0,0,0,0,0,0,0,0,0,0,0,0,0,0,0,0,0,0,0,
0,0,0,0,0,0,0,0,0,0,0,0,0,0,0,0,0,0,0,0,0,0,0,0,0,0,0,0,0,0,0,0,0,0,0,0,0,0,0,0,0,0,0,0,0,0,0,0,0,0,0,0,0,0,0,0,0,0,0,0,0,0,0,0,
0,0,0,0,0,0,0,0,0,0,0,0,0,0,0,0,0,0,0,0,0,0,0,0,0,0,0,0,0,0,0,0,0,0,0,0,0,0,0,0,0,0,0,0,0,0,0,0,0,0,0,0,0,0,0,0,0,0,0,0,0,0,0,0,
0,0,0,0,0,0,0,0,0,0,0,0,0,0,0,0,0,0,0,0,0,0,0,0,0,0,0,0,0,0,0,0,0,0,0,0,0,0,0,0,0,0,0,0,0,0,0,0,0,0,0,0,0,0,0,0,0,0,0,0,0,0,0,0,
0,0,0,0,0,0,0,0,0,0,0,0,0,0,0,0,0,0,0,0,0,0,0,0,0,0,0,0,0,0,0,0,0,0,0,0,0,0,0,0,0,0,0,0,0,0,0,0,0,0,0,0,0,0,0,0,0,0,0,0,0,0,0,0,
0,0,0,0,0,0,0,0,0,0,0,0,0,0,0,0,0,0,0,0,0,0,0,0,0,0,0,0,0,0,0,0,0,0,0,0,0,0,0,0,0,0,0,0,0,0,0,0,0,0,0,0,0,0,0,0,0,0,0,0,0,0,0,0,
0,0,0,0,0,0,0,0,0,0,0,0,0,0,0,0,0,0,0,0,0,0,0,0,0,0,0,0,0,0,0,0,0,0,0,0,0,0,0,0,0,0,0,0,0,0,0,0,0,0,0,0,0,0,0,0,0,0,0,0,0,0,0,0,
0,0,0,0,0,0,0,0,0,0,0,0,0,0,0,0,0,0,0,0,0,0,0,0,0,0,0,0,0,0,0,0,0,0,0,0,0,0,0,0,0,0,0,0,0,0,0,0,0,0,0,0,0,0,0,0,0,0,0,0,0,0,0,0,
0,0,0,0,0,0,0,0,0,0,0,0,0,0,0,0,0,0,0,0,0,0,0,0,0,0,0,0,0,0,0,0,0,0,0,0,0,0,0,0,0,0,0,0,0,0,0,0,0,0,0,0,0,0,0,0,0,0,0,0,0,0,0,0,
0,0,0,0,0,0,0,0,0,0,0,0,0,0,0,0,0,0,0,0,0,0,0,0,0,0,0,0,0,0,0,0,0,0,0,0,0,0,0,0,0,0,0,0,0,0,0,0,0,0,0,0,0,0,0,0,0,0,0,0,0,0,0,0,
0,0,0,0,0,0,0,0,0,0,0,0,0,0,0,0,0,0,0,0,0,0,0,0,0,0,0,0,0,0,0,0,0,0,0,0,0,0,0,0,0,0,0,0,0,0,0,0,0,0,0,0,0,0,0,0,0,0,0,0,0,0,0,0,
0,0,0,0,0,0,0,0,0,0,0,0,0,0,0,0,0,0,0,0,0,0,0,0,0,0,0,0,0,0,0,0,0,0,0,0,0,0,0,0,0,0,0,0,0,0,0,0,0,0,0,0,0,0,0,0,0,0,0,0,0,0,0,0,
0,0,0,0,0,0,0,0,0,0,0,0,0,0,0,0,0,0,0,0,0,0,0,0,0,0,0,0,0,0,0,0,0,0,0,0,0,0,0,0,0,0,0,0,0,0,0,0,0,0,0,0,0,0,0,0,0,0,0,0,0,0,0,0,
0,0,0,0,0,0,0,0,0,0,0,0,0,0,0,0,0,0,0,0,0,0,0,0,0,0,0,0,0,0,0,0,0,0,0,0,0,0,0,0,0,0,0,0,0,0,0,0,0,0,0,0,0,0,0,0,0,0,0,0,0,0,0,0,
0,0,0,0,0,0,0,0,0,0,0,0,0,0,0,0,0,0,0,0,0,0,0,0,0,0,0,0,0,0,0,0,0,0,0,0,0,0,0,0,0,0,0,0,0,0,0,0,0,0,0,0,0,0,0,0,0,0,0,0,0,0,0,0,
0,0,0,0,0,0,0,0,0,0,0,0,0,0,0,0,0,0,0,0,0,0,0,0,0,0,0,0,0,0,0,0,0,0,0,0,0,0,0,0,0,0,0,0,0,0,0,0,0,0,0,0,0,0,0,0,0,0,0,0,0,0,0,0,
0,0,0,0,0,0,0,0,0,0,0,0,0,0,0,0,0,0,0,0,0,0,0,0,0,0,0,0,0,0,0,0,0,0,0,0,0,0,0,0,0,0,0,0,0,0,0,0,0,0,0,0,0,0,0,0,0,0,0,0,0,0,0,0,
0,0,0,0,0,0,0,0,0,0,0,0,0,0,0,0,0,0,0,0,0,0,0,0,0,0,0,0,0,0,0,0,0,0,0,0,0,0,0,0,0,0,0,0,0,0,0,0,0,0,0,0,0,0,0,0,0,0,0,0,0,0,0,0,
0,0,0,0,0,0,0,0,0,0,0,0,0,0,0,0,0,0,0,0,0,0,0,0,0,0,0,0,0,0,0,0,0,0,0,0,0,0,0,0,0,0,0,0,0,0,0,0,0,0,0,0,0,0,0,0,0,0,0,0,0,0,0,0,
0,0,0,0,0,0,0,0,0,0,0,0,0,0,0,0,0,0,0,0,0,0,0,0,0,0,0,0,0,0,0,0,0,0,0,0,0,0,0,0,0,0,0,0,0,0,0,0,0,0,0,0,0,0,0,0,0,0,0,0,0,0,0,0,
0,0,0,0,0,0,0,0,0,0,0,0,0,0,0,0,0,0,0,0,0,0,0,0,0,0,0,0,0,0,0,0,0,0,0,0,0,0,0,0,0,0,0,0,0,0,0,0,0,0,0,0,0,0,0,0,0,0,0,0,0,0,0,0,
0,0,0,0,0,0,0,0,0,0,0,0,0,0,0,0,0,0,0,0,0,0,0,0,0,0,0,0,0,0,0,0,0,0,0,0,0,0,0,0,0,0,0,0,0,0,0,0,0,0,0,0,0,0,0,0,0,0,0,0,0,0,0,0,
0,0,0,0,0,0,0,0,0,0,0,0,0,0,0,0,0,0,0,0,0,0,0,0,0,0,0,0,0,0,0,0,0,0,0,0,0,0,0,0,0,0,0,0,0,0,0,0,0,0,0,0,0,0,0,0,0,0,0,0,0,0,0,0,
0,0,0,0,0,0,0,0,0,0,0,0,0,0,0,0,0,0,0,0,0,0,0,0,0,0,0,0,0,0,0,0,0,0,0,0,0,0,0,0,0,0,0,0,0,0,0,0,0,0,0,0,0,0,0,0,0,0,0,0,0,0,0,0,
0,0,0,0,0,0,0,0,0,0,0,0,0,0,0,0,0,0,0,0,0,0,0,0,0,0,0,0,0,0,0,0,0,0,0,0,0,0,0,0,0,0,0,0,0,0,0,0,0,0,0,0,0,0,0,0,0,0,0,0,0,0,0,0,
0,0,0,0,0,0,0,0,0,0,0,0,0,0,0,0,0,0,0,0,0,0,0,0,0,0,0,0,0,0,0,0,0,0,0,0,0,0,0,0,0,0,0,0,0,0,0,0,0,0,0,0,0,0,0,0,0,0,0,0,0,0,0,0,
0,0,0,0,0,0,0,0,0,0,0,0,0,0,0,0,0,0,0,0,0,0,0,0,0,0,0,0,0,0,0,0,0,0,0,0,0,0,0,0,0,0,0,0,0,0,0,0,0,0,0,0,0,0,0,0,0,0,0,0,0,0,0,0,
0,0,0,0,0,0,0,0,0,0,0,0,0,0,0,0,0,0,0,0,0,0,0,0,0,0,0,0,0,0,0,0,0,0,0,0,0,0,0,0,0,0,0,0,0,0,0,0,0,0,0,0,0,0,0,0,0,0,0,0,0,0,0,0,
0,0,0,0,0,0,0,0,0,0,0,0,0,0,0,0,0,0,0,0,0,0,0,0,0,0,0,0,0,0,0,0,0,0,0,0,0,0,0,0,0,0,0,0,0,0,0,0,0,0,0,0,0,0,0,0,0,0,0,0,0,0,0,0,
0,0,0,0,0,0,0,0,0,0,0,0,0,0,0,0,0,0,0,0,0,0,0,0,0,0,0,0,0,0,0,0,0,0,0,0,0,0,0,0,0,0,0,0,0,0,0,0,0,0,0,0,0,0,0,0,0,0,0,0,0,0,0,0,
0,0,0,0,0,0,0,0,0,0,0,0,0,0,0,0,0,0,0,0,0,0,0,0,0,0,0,0,0,0,0,0,0,0,0,0,0,0,0,0,0,0,0,0,0,0,0,0,0,0,0,0,0,0,0,0,0,0,0,0,0,0,0,0,
0,0,0,0,0,0,0,0,0,0,0,0,0,0,0,0,0,0,0,0,0,0,0,0,0,0,0,0,0,0,0,0,0,0,0,0,0,0,0,0,0,0,0,0,0,0,0,0,0,0,0,0,0,0,0,0,0,0,0,0,0,0,0,0,
0,0,0,0,0,0,0,0,0,0,0,0,0,0,0,0,0,0,0,0,0,0,0,0,0,0,0,0,0,0,0,0,0,0,0,0,0,0,0,0,0,0,0,0,0,0,0,0,0,0,0,0,0,0,0,0,0,0,0,0,0,0,0,0,
0,0,0,0,0,0,0,0,0,0,0,0,0,0,0,0,0,0,0,0,0,0,0,0,0,0,0,0,17,24,24,24,24,24,24,18,0,0,0,0,0,0,0,0,0,0,0,0,0,0,0,0,0,0,0,0,0,0,0,0,0,0,0,0,
0,0,0,0,0,0,0,0,0,0,0,0,0,0,0,0,0,0,0,0,0,0,0,0,0,0,0,17,25,0,0,0,0,0,0,23,18,0,0,0,0,0,0,0,0,0,0,0,0,0,0,0,0,0,0,0,0,0,0,0,0,0,0,0,
0,0,0,0,0,0,0,0,0,0,0,0,0,0,0,0,0,0,0,0,0,0,0,0,0,0,17,25,0,0,0,0,0,0,0,0,23,18,0,0,0,0,0,0,0,0,0,0,0,0,0,0,0,0,0,0,0,0,0,0,0,0,0,0,
0,0,0,0,0,0,0,0,0,0,0,0,0,0,0,0,0,0,0,0,0,0,0,0,0,0,14,0,0,0,0,0,0,0,0,0,0,12,0,0,0,0,0,0,0,0,0,0,0,0,0,0,0,0,0,0,0,0,0,0,0,0,0,0,
0,0,0,0,0,0,0,0,0,0,0,0,0,0,0,0,0,0,0,0,0,0,0,0,0,17,25,0,0,0,0,0,0,0,0,0,0,23,18,0,0,0,0,0,0,0,0,0,0,0,0,0,0,0,0,0,0,0,0,0,0,0,0,0,
0,0,0,0,0,0,0,0,0,0,0,0,0,0,0,0,0,0,0,0,0,0,0,0,0,14,0,0,0,0,0,0,0,0,0,0,0,0,12,0,0,0,0,0,0,0,0,0,0,0,0,0,0,0,0,0,0,0,0,0,0,0,0,0,
0,0,0,0,0,0,0,0,0,0,0,0,0,0,0,0,0,0,0,0,0,0,0,0,0,14,0,0,0,0,0,0,0,0,0,0,0,0,12,0,0,0,0,0,0,0,0,0,0,0,0,0,0,0,0,0,0,0,0,0,0,0,0,0,
0,0,0,0,0,0,0,0,0,0,0,0,0,0,0,0,0,0,0,0,0,0,0,0,0,14,0,0,0,0,0,0,0,0,0,0,0,0,12,0,0,0,0,0,0,0,0,0,0,0,0,0,0,0,0,0,0,0,0,0,0,0,0,0,
0,0,0,0,0,0,0,0,0,0,0,0,0,0,0,0,0,0,0,0,0,0,0,0,0,14,0,0,0,0,0,0,0,0,0,0,0,0,12,0,0,0,0,0,0,0,0,0,0,0,0,0,0,0,0,0,0,0,0,0,0,0,0,0,
0,0,0,0,0,0,0,0,0,0,0,0,0,0,0,0,0,0,0,0,0,0,0,0,0,28,3,0,0,0,0,0,0,0,0,0,0,1,29,0,0,0,0,0,0,0,0,0,0,0,0,0,0,0,0,0,0,0,0,0,0,0,0,0,
0,0,0,0,0,0,0,0,0,0,0,0,0,0,0,0,0,0,0,0,0,0,0,0,0,0,14,0,0,0,0,0,0,0,0,0,0,12,0,0,0,0,0,0,0,0,0,0,0,0,0,0,0,0,0,0,0,0,0,0,0,0,0,0,
0,0,0,0,0,0,0,0,0,0,0,0,0,0,0,0,0,0,0,0,0,0,0,0,0,0,28,3,0,0,0,0,0,0,0,0,1,29,0,0,0,0,0,0,0,0,0,0,0,0,0,0,0,0,0,0,0,0,0,0,0,0,0,0,
0,0,0,0,0,0,0,0,0,0,0,0,0,0,0,0,0,0,0,0,0,0,0,0,0,0,0,28,3,0,0,0,0,0,0,1,29,0,0,0,0,0,0,0,0,0,0,0,0,0,0,0,0,0,0,0,0,0,0,0,0,0,0,0,
0,0,0,0,0,0,0,0,0,0,0,0,0,0,0,0,0,0,0,0,0,0,0,0,0,0,0,0,28,2,2,2,2,2,2,29,0,0,0,0,0,0,0,0,0,0,0,0,0,0,0,0,0,0,0,0,0,0,0,0,0,0,0,0,
0,0,0,0,0,0,0,0,0,0,0,0,0,0,0,0,0,0,0,0,0,0,0,0,0,0,0,0,0,0,0,0,0,0,0,0,0,0,0,0,0,0,0,0,0,0,0,0,0,0,0,0,0,0,0,0,0,0,0,0,0,0,0,0
</data>
 </layer>
 <layer id="3" name="Hills" width="64" height="48">
  <data encoding="csv">
89,94,102,0,0,0,100,101,95,90,90,94,101,101,101,101,101,101,101,101,101,101,101,101,101,101,101,102,0,0,0,0,0,0,0,0,100,101,101,101,101,101,101,101,101,101,101,101,101,101,102,0,89,90,90,90,90,90,91,0,78,79,79,79,
106,91,0,0,0,0,78,79,106,94,101,102,0,0,0,0,0,0,0,0,0,0,0,0,0,0,0,0,0,0,0,0,0,0,0,0,0,0,0,0,0,0,0,0,0,0,0,0,0,0,0,0,100,101,101,95,90,94,102,78,106,94,101,95,
90,91,0,78,80,0,100,101,101,102,0,0,0,0,78,79,79,79,79,79,79,79,79,79,79,79,79,79,80,0,0,0,0,0,78,79,79,79,79,79,80,0,0,0,78,79,79,79,79,80,0,0,0,0,0,100,95,105,79,106,94,102,0,100,
95,91,0,100,102,0,0,0,0,0,0,0,78,79,106,90,90,90,90,90,90,90,94,101,101,101,101,95,91,0,0,0,0,0,100,95,94,101,101,95,105,79,80,0,89,90,94,101,95,105,80,0,0,0,0,0,100,101,95,90,91,0,0,0,
106,91,0,0,78,79,79,80,0,0,0,78,106,94,101,101,101,101,101,101,101,101,102,0,0,0,0,100,102,0,0,0,0,0,0,100,102,0,0,100,95,90,105,79,106,94,102,0,100,95,105,79,79,79,80,0,0,0,100,101,102,0,0,0,
94,102,0,0,100,101,101,102,0,0,78,106,94,102,0,0,0,0,0,0,0,0,0,0,0,0,0,0,0,0,0,0,0,0,0,0,0,0,0,0,100,101,101,101,101,102,0,0,0,100,101,95,90,90,105,80,0,0,0,0,0,0,0,78,
102,0,0,0,0,0,0,0,0,0,89,94,102,0,0,0,78,79,79,79,79,79,79,79,79,79,79,79,80,0,0,0,0,0,78,79,79,79,80,0,0,0,0,0,0,0,78,80,0,0,0,100,101,101,95,91,0,78,79,79,79,80,0,89,
0,0,0,0,0,0,78,79,80,0,89,91,0,0,0,78,106,94,101,101,95,94,101,101,101,95,94,101,102,0,0,0,0,0,100,101,95,90,91,0,0,0,0,0,78,79,106,91,0,0,0,0,0,0,100,102,0,89,90,94,101,102,0,89,
0,78,80,0,0,78,106,94,102,0,89,91,0,0,78,106,94,102,0,0,100,102,0,0,0,100,102,0,0,0,0,0,0,0,0,0,89,90,105,79,80,0,78,79,106,90,94,102,0,0,78,80,0,0,0,0,0,100,101,102,0,0,0,89,
78,106,91,0,0,89,90,91,0,0,89,91,0,78,106,94,102,0,0,0,0,0,0,0,0,0,0,0,0,0,0,0,0,0,0,0,100,95,90,90,105,79,106,90,94,101,102,0,0,0,89,105,80,0,0,0,0,0,0,0,0,0,0,89,
89,94,102,0,0,100,95,91,0,0,89,91,0,89,94,102,0,0,78,79,79,79,79,80,0,78,79,79,79,80,0,0,0,0,78,79,79,106,90,90,90,90,90,90,105,79,79,79,80,0,89,90,105,79,79,79,79,79,80,0,78,80,0,89,
106,91,0,0,0,0,100,102,0,0,89,105,79,106,91,0,0,0,100,95,94,101,101,102,0,100,101,101,95,91,0,0,0,0,89,94,101,101,95,94,101,101,101,101,101,101,101,101,102,0,100,101,101,101,101,101,101,95,91,0,89,91,0,89,
94,102,0,78,80,0,0,0,0,0,89,90,94,101,102,0,0,0,0,89,91,0,0,0,0,0,0,0,89,91,0,0,0,0,89,91,0,0,89,91,0,0,0,0,0,0,0,0,0,0,0,0,0,0,0,0,0,89,91,0,89,91,0,89,
102,0,0,89,91,0,0,78,80,0,89,90,91,0,0,0,0,0,0,89,105,79,80,0,78,79,80,0,89,91,0,78,80,0,89,91,0,0,100,102,0,0,78,79,79,80,0,0,0,0,0,0,78,79,79,80,0,89,91,0,89,91,0,89,
0,0,78,106,91,0,0,89,105,79,106,94,102,0,0,0,78,80,0,100,101,101,102,0,100,95,91,0,89,91,0,89,91,0,89,91,0,0,0,0,0,78,106,90,90,91,0,78,80,0,0,0,89,90,90,91,0,89,91,0,89,91,0,89,
0,78,106,94,102,0,0,100,101,95,94,102,0,0,78,79,106,91,0,0,0,0,0,78,79,106,91,0,89,91,0,89,91,0,89,105,79,80,0,0,78,106,90,94,101,102,0,89,105,79,80,0,100,101,95,91,0,89,91,0,89,91,0,89,
78,106,90,91,0,0,0,0,78,106,91,0,0,78,106,94,101,102,0,78,80,0,0,89,94,101,102,0,89,91,0,89,91,0,89,94,101,102,0,0,100,101,101,102,0,0,0,100,95,90,91,0,0,0,89,91,0,89,91,0,89,91,0,89,
106,94,101,102,0,78,80,0,89,94,102,0,78,106,94,102,0,0,0,89,91,0,0,89,91,0,0,0,89,91,0,89,91,0,89,91,0,0,0,0,0,0,0,0,0,0,0,0,100,95,105,80,0,0,100,102,0,89,91,0,89,91,0,89,
101,102,0,0,0,89,91,0,89,91,0,0,89,94,102,0,0,78,79,106,105,79,79,106,105,79,79,79,106,91,0,89,91,0,89,105,79,79,79,79,79,79,79,79,79,79,80,0,0,100,95,105,80,0,0,0,0,89,91,0,89,91,0,89,
0,0,0,0,0,100,102,0,100,102,0,0,100,102,0,0,78,106,94,101,101,101,101,101,101,101,101,101,101,102,0,89,91,0,100,101,101,101,101,101,101,101,101,101,101,95,105,80,0,0,100,95,105,80,0,78,79,106,91,0,89,91,0,89,
0,0,78,80,0,0,0,0,0,0,0,0,0,0,0,78,106,94,102,0,0,0,0,0,0,0,0,0,0,0,0,89,91,0,0,0,0,0,0,0,0,0,0,0,0,100,95,105,80,0,0,100,95,91,0,100,101,95,91,0,89,91,0,89,
0,78,106,105,80,0,78,79,79,79,79,80,0,0,78,106,94,102,0,0,78,79,79,79,79,79,79,79,79,79,79,106,105,79,79,79,79,79,79,79,79,79,79,80,0,0,100,95,105,80,0,0,89,91,0,0,0,89,91,0,89,91,0,89,
0,89,94,101,102,0,100,95,94,101,101,102,0,78,106,94,102,0,0,78,106,94,101,101,101,101,101,95,94,101,101,101,101,101,101,101,101,101,101,101,101,101,95,105,80,0,0,100,95,105,80,0,100,102,0,0,0,100,102,0,89,91,0,89,
0,89,91,0,0,0,0,89,91,0,0,0,0,100,101,102,0,0,78,106,94,102,0,0,0,0,0,89,91,0,0,0,0,0,0,0,0,0,0,0,0,0,100,95,105,80,0,0,100,101,102,0,0,0,0,0,0,0,0,0,89,91,0,89,
0,89,91,0,0,78,79,106,105,79,79,80,0,0,0,0,0,78,106,94,102,0,0,78,79,80,0,89,91,0,78,79,79,79,79,79,79,79,79,79,80,0,0,100,95,105,80,0,0,0,0,0,0,0,78,80,0,78,80,0,89,91,0,89,
0,89,91,0,0,100,95,90,94,101,101,102,0,0,78,80,0,89,94,102,0,0,78,106,90,91,0,89,91,0,100,101,101,101,101,101,101,101,101,95,105,80,0,0,100,101,102,0,78,80,0,78,80,0,100,102,0,89,91,0,89,91,0,89,
0,89,91,0,0,0,100,95,105,80,0,0,0,0,89,91,0,100,102,0,0,78,106,94,95,91,0,89,91,0,0,0,0,0,0,0,0,0,0,100,95,105,80,0,0,0,0,0,89,91,0,89,91,0,0,0,0,89,91,0,89,91,0,89,
0,89,105,80,0,0,0,100,95,91,0,78,79,79,106,91,0,0,0,0,78,106,94,102,89,91,0,89,105,79,79,79,79,79,79,79,79,80,0,0,100,95,105,79,79,79,79,79,106,91,0,89,105,80,0,0,0,89,91,0,89,91,0,89,
0,100,95,105,80,0,0,0,89,91,0,100,101,101,95,105,79,79,79,79,106,94,102,0,89,91,0,89,94,101,101,101,101,95,94,101,101,102,0,0,0,100,101,101,101,101,101,101,101,102,0,100,95,105,79,80,0,89,91,0,89,91,0,89,
0,0,100,95,105,80,0,0,89,91,0,0,0,0,100,95,94,101,101,101,95,91,0,0,89,91,0,89,91,0,0,0,0,100,102,0,0,0,0,0,0,0,0,0,0,0,0,0,0,0,0,0,100,101,95,91,0,89,91,0,89,91,0,89,
0,0,0,100,95,91,0,0,100,102,0,78,80,0,0,89,91,0,0,0,100,102,0,78,106,91,0,89,91,0,78,80,0,0,0,0,78,80,0,0,78,79,79,79,79,79,79,79,79,79,80,0,0,0,100,102,0,89,91,0,89,91,0,89,
0,0,0,0,100,102,0,0,0,0,0,89,91,0,0,89,105,79,80,0,0,0,0,100,95,105,79,106,105,79,106,105,79,79,79,79,106,91,0,0,100,95,90,94,101,101,101,101,101,101,102,0,0,0,0,0,0,89,91,0,89,91,0,89,
0,78,80,0,0,0,0,78,79,79,79,106,91,0,0,100,101,95,105,80,0,0,0,0,89,90,90,94,101,101,101,101,101,101,101,101,95,105,80,0,0,100,95,91,0,0,0,0,0,0,0,0,78,80,0,0,0,89,91,0,89,91,0,89,
0,89,91,0,78,80,0,100,101,95,90,90,91,0,0,0,0,100,95,105,80,0,0,0,89,90,94,102,0,0,0,0,0,0,0,0,100,95,105,80,0,0,89,105,80,0,78,79,79,79,79,79,106,91,0,0,0,89,105,79,106,91,0,89,
0,89,91,0,100,102,0,0,0,100,101,95,105,79,80,0,0,0,100,101,102,0,0,0,89,94,102,0,0,0,0,0,0,0,0,0,0,100,95,91,0,0,100,95,91,0,100,101,101,101,101,101,101,102,0,0,0,89,94,101,95,91,0,89,
0,89,91,0,0,0,0,0,0,0,0,100,101,95,105,80,0,0,0,0,0,0,0,78,106,91,0,0,0,0,0,0,0,0,0,0,0,0,89,105,80,0,0,89,91,0,0,0,0,0,0,0,0,0,0,0,0,89,91,0,89,91,0,89,
0,89,91,0,78,79,79,79,79,80,0,0,0,100,95,105,79,79,79,79,80,0,0,89,94,102,0,0,0,0,0,0,0,0,0,0,0,0,100,95,105,79,79,106,105,79,79,79,79,79,79,79,79,80,0,0,78,106,91,0,89,91,0,89,
0,89,91,0,100,95,90,90,90,105,79,80,0,0,89,94,101,101,101,95,105,79,79,106,91,0,0,0,0,0,0,0,0,0,0,0,0,0,0,89,94,101,101,95,94,101,101,101,101,101,101,101,95,105,80,78,106,94,102,0,89,91,0,89,
79,106,91,0,0,100,95,90,90,90,90,91,0,0,89,91,0,0,0,100,101,101,101,101,102,0,0,0,0,0,0,0,0,0,0,0,0,0,0,100,102,0,0,100,102,0,0,0,0,0,0,0,100,95,105,106,94,102,0,0,89,91,0,89,
101,101,102,0,0,0,100,95,90,90,90,91,0,0,89,91,0,0,0,0,0,0,0,0,0,0,0,0,0,0,0,0,0,0,0,0,0,0,0,0,0,0,0,0,0,0,78,80,0,78,80,0,0,100,101,101,102,0,0,78,106,91,0,89,
0,0,0,0,0,0,0,100,95,90,90,105,79,79,106,91,0,78,79,79,79,79,79,79,80,0,0,0,0,0,0,0,0,0,0,0,0,0,0,78,80,0,0,78,79,79,106,91,0,89,91,0,0,0,0,0,0,0,78,106,94,102,0,89,
0,0,0,78,79,80,0,0,100,95,90,90,94,101,95,91,0,100,101,95,94,101,101,95,91,0,0,0,0,0,0,0,0,0,0,0,0,0,0,89,105,79,79,106,94,101,101,102,0,89,91,0,78,80,0,0,0,78,106,94,102,0,0,89,
79,80,0,100,95,105,80,0,0,100,101,95,91,0,89,91,0,0,0,89,91,0,0,89,105,80,0,0,0,0,0,0,0,0,0,0,0,0,78,106,94,101,101,101,102,0,0,0,0,89,91,0,89,91,0,0,78,106,94,102,0,0,0,89,
90,91,0,0,100,95,105,80,0,0,0,100,102,0,100,102,0,0,0,89,91,0,0,100,95,91,0,0,0,0,0,0,0,0,0,0,0,0,89,90,91,0,0,0,0,0,78,80,0,89,91,0,89,105,79,79,106,94,102,0,0,0,0,89,
101,102,0,0,0,100,95,105,79,80,0,0,0,0,0,0,0,0,78,106,91,0,0,0,89,105,80,0,0,0,0,0,0,0,0,0,0,78,106,94,102,0,78,79,79,79,106,91,0,89,91,0,100,101,95,94,101,102,0,0,78,80,0,89,
0,0,0,0,0,0,100,101,95,105,79,79,79,79,79,79,79,79,106,94,102,0,0,0,100,95,105,80,0,0,0,0,0,0,0,0,78,106,94,102,0,0,89,94,101,101,95,91,0,89,91,0,0,0,89,91,0,0,0,0,89,91,0,89,
80,0,78,79,79,80,0,0,100,101,101,101,101,101,101,101,101,101,101,102,0,0,78,80,0,89,90,105,80,0,0,0,0,0,0,78,106,90,91,0,0,78,106,91,0,0,100,102,0,89,105,79,80,0,100,102,0,78,80,0,89,91,0,89,
105,79,106,90,90,105,79,80,0,0,0,0,0,0,0,0,0,0,0,0,0,78,106,91,0,89,90,90,105,79,79,79,79,79,79,106,90,90,91,0,0,89,94,102,0,0,0,0,0,89,90,90,91,0,0,0,0,89,91,0,89,91,0,89
</data>
 </layer>
 <layer id="2" name="Road" width="64" height="48" offsetx="-16" offsety="0">
  <data encoding="csv">
0,0,0,0,0,0,0,0,0,0,0,0,0,0,0,0,0,0,0,0,0,0,0,0,0,0,0,0,0,0,0,192,193,193,194,0,0,0,0,0,0,0,0,0,0,0,0,0,0,0,0,0,0,0,0,0,0,0,0,0,0,0,0,0,
0,0,0,0,0,0,0,0,0,0,0,0,0,0,0,0,0,0,0,0,0,0,0,0,0,0,0,0,0,0,0,192,193,193,194,0,0,0,0,0,0,0,0,0,0,0,0,0,0,0,0,0,0,0,0,0,0,0,0,0,0,0,0,0,
0,0,0,0,0,0,0,0,0,0,0,0,0,0,0,0,0,0,0,0,0,0,0,0,0,0,0,0,0,0,0,192,193,193,194,0,0,0,0,0,0,0,0,0,0,0,0,0,0,0,0,0,0,0,0,0,0,0,0,0,0,0,0,0,
0,0,0,0,0,0,0,0,0,0,0,0,0,0,0,0,0,0,0,0,0,0,0,0,0,0,0,0,0,0,0,192,193,193,194,0,0,0,0,0,0,0,0,0,0,0,0,0,0,0,0,0,0,0,0,0,0,0,0,0,0,0,0,0,
0,0,0,0,0,0,0,0,0,0,0,0,0,0,0,0,0,0,0,0,0,0,0,0,0,0,0,0,0,0,0,192,193,193,194,0,0,0,0,0,0,0,0,0,0,0,0,0,0,0,0,0,0,0,0,0,0,0,0,0,0,0,0,0,
0,0,0,0,0,0,0,0,0,0,0,0,0,0,0,0,0,0,0,0,0,0,0,0,0,0,0,0,0,0,0,192,193,193,194,0,0,0,0,0,0,0,0,0,0,0,0,0,0,0,0,0,0,0,0,0,0,0,0,0,0,0,0,0,
0,0,0,0,0,0,0,0,0,0,0,0,0,0,0,0,0,0,0,0,0,0,0,0,0,0,0,0,0,0,0,192,193,193,194,0,0,0,0,0,0,0,0,0,0,0,0,0,0,0,0,0,0,0,0,0,0,0,0,0,0,0,0,0,
0,0,0,0,0,0,0,0,0,0,0,0,0,0,0,0,0,0,0,0,0,0,0,0,0,0,0,0,0,0,0,192,193,193,194,0,0,0,0,0,0,0,0,0,0,0,0,0,0,0,0,0,0,0,0,0,0,0,0,0,0,0,0,0,
0,0,0,0,0,0,0,0,0,0,0,0,0,0,0,0,0,0,0,0,0,0,0,0,0,0,0,0,0,0,0,192,193,193,194,0,0,0,0,0,0,0,0,0,0,0,0,0,0,0,0,0,0,0,0,0,0,0,0,0,0,0,0,0,
0,0,0,0,0,0,0,0,0,0,0,0,0,0,0,0,0,0,0,0,0,0,0,0,0,0,0,0,0,0,0,192,193,193,194,0,0,0,0,0,0,0,0,0,0,0,0,0,0,0,0,0,0,0,0,0,0,0,0,0,0,0,0,0,
0,0,0,0,0,0,0,0,0,0,0,0,0,0,0,0,0,0,0,0,0,0,0,0,0,0,0,0,0,0,0,192,193,193,194,0,0,0,0,0,0,0,0,0,0,0,0,0,0,0,0,0,0,0,0,0,0,0,0,0,0,0,0,0,
0,0,0,0,0,0,0,0,0,0,0,0,0,0,0,0,0,0,0,0,0,0,0,0,0,0,0,0,0,0,0,192,193,193,194,0,0,0,0,0,0,0,0,0,0,0,0,0,0,0,0,0,0,0,0,0,0,0,0,0,0,0,0,0,
0,0,0,0,0,0,0,0,0,0,0,0,0,0,0,0,0,0,0,0,0,0,0,0,0,0,0,0,0,0,0,203,204,204,205,0,0,0,0,0,0,0,0,0,0,0,0,0,0,0,0,0,0,0,0,0,0,0,0,0,0,0,0,0,
0,0,0,0,0,0,0,0,0,0,0,0,0,0,0,0,0,0,0,0,0,0,0,0,0,0,0,0,0,0,0,0,0,0,0,0,0,0,0,0,0,0,0,0,0,0,0,0,0,0,0,0,0,0,0,0,0,0,0,0,0,0,0,0,
0,0,0,0,0,0,0,0,0,0,0,0,0,0,0,0,0,0,0,0,0,0,0,0,0,0,0,0,0,0,0,0,0,0,0,0,0,0,0,0,0,0,0,0,0,0,0,0,0,0,0,0,0,0,0,0,0,0,0,0,0,0,0,0,
0,0,0,0,0,0,0,0,0,0,0,0,0,0,0,0,0,0,0,0,0,0,0,0,0,0,0,0,0,0,0,0,0,0,0,0,0,0,0,0,0,0,0,0,0,0,0,0,0,0,0,0,0,0,0,0,0,0,0,0,0,0,0,0,
0,0,0,0,0,0,0,0,0,0,0,0,0,0,0,0,0,0,0,0,0,0,0,0,0,0,0,0,0,0,0,0,0,0,0,0,0,0,0,0,0,0,0,0,0,0,0,0,0,0,0,0,0,0,0,0,0,0,0,0,0,0,0,0,
0,0,0,0,0,0,0,0,0,0,0,0,0,0,0,0,0,0,0,0,0,0,0,0,0,0,0,0,0,0,0,0,0,0,0,0,0,0,0,0,0,0,0,0,0,0,0,0,0,0,0,0,0,0,0,0,0,0,0,0,0,0,0,0,
0,0,0,0,0,0,0,0,0,0,0,0,0,0,0,0,0,0,0,0,0,0,0,0,0,0,0,0,0,0,0,0,0,0,0,0,0,0,0,0,0,0,0,0,0,0,0,0,0,0,0,0,0,0,0,0,0,0,0,0,0,0,0,0,
0,0,0,0,0,0,0,0,0,0,0,0,0,0,0,0,0,0,0,0,0,0,0,0,0,0,0,0,0,0,0,0,0,0,0,0,0,0,0,0,0,0,0,0,0,0,0,0,0,0,0,0,0,0,0,0,0,0,0,0,0,0,0,0,
0,0,0,0,0,0,0,0,0,0,0,0,0,0,0,0,0,0,0,0,0,0,0,0,0,0,0,0,0,0,0,0,0,0,0,0,0,0,0,0,0,0,0,0,0,0,0,0,0,0,0,0,0,0,0,0,0,0,0,0,0,0,0,0,
0,0,0,0,0,0,0,0,0,0,0,0,0,0,0,0,0,0,0,0,0,0,0,0,0,0,0,0,0,0,0,0,0,0,0,0,0,0,0,0,0,0,0,0,0,0,0,0,0,0,0,0,0,0,0,0,0,0,0,0,0,0,0,0,
0,0,0,0,0,0,0,0,0,0,0,0,0,0,0,0,0,0,0,0,0,0,0,0,0,0,0,0,0,0,0,0,0,0,0,0,0,0,0,0,0,0,0,0,0,0,0,0,0,0,0,0,0,0,0,0,0,0,0,0,0,0,0,0,
0,0,0,0,0,0,0,0,0,0,0,0,0,0,0,0,0,0,0,0,0,0,0,0,0,0,0,0,0,0,0,0,0,0,0,0,0,0,0,0,0,0,0,0,0,0,0,0,0,0,0,0,0,0,0,0,0,0,0,0,0,0,0,0,
0,0,0,0,0,0,0,0,0,0,0,0,0,0,0,0,0,0,0,0,0,0,0,0,0,0,0,0,0,0,0,0,0,0,0,0,0,0,0,0,0,0,0,0,0,0,0,0,0,0,0,0,0,0,0,0,0,0,0,0,0,0,0,0,
0,0,0,0,0,0,0,0,0,0,0,0,0,0,0,0,0,0,0,0,0,0,0,0,0,0,0,0,0,0,0,0,0,0,0,0,0,0,0,0,0,0,0,0,0,0,0,0,0,0,0,0,0,0,0,0,0,0,0,0,0,0,0,0,
0,0,0,0,0,0,0,0,0,0,0,0,0,0,0,0,0,0,0,0,0,0,0,0,0,0,0,0,0,0,0,0,0,0,0,0,0,0,0,0,0,0,0,0,0,0,0,0,0,0,0,0,0,0,0,0,0,0,0,0,0,0,0,0,
0,0,0,0,0,0,0,0,0,0,0,0,0,0,0,0,0,0,0,0,0,0,0,0,0,0,0,0,0,0,0,0,0,0,0,0,0,0,0,0,0,0,0,0,0,0,0,0,0,0,0,0,0,0,0,0,0,0,0,0,0,0,0,0,
0,0,0,0,0,0,0,0,0,0,0,0,0,0,0,0,0,0,0,0,0,0,0,0,0,0,0,0,0,0,0,0,0,0,0,0,0,0,0,0,0,0,0,0,0,0,0,0,0,0,0,0,0,0,0,0,0,0,0,0,0,0,0,0,
0,0,0,0,0,0,0,0,0,0,0,0,0,0,0,0,0,0,0,0,0,0,0,0,0,0,0,0,0,0,0,0,0,0,0,0,0,0,0,0,0,0,0,0,0,0,0,0,0,0,0,0,0,0,0,0,0,0,0,0,0,0,0,0,
0,0,0,0,0,0,0,0,0,0,0,0,0,0,0,0,0,0,0,0,0,0,0,0,0,0,0,0,0,0,0,0,0,0,0,0,0,0,0,0,0,0,0,0,0,0,0,0,0,0,0,0,0,0,0,0,0,0,0,0,0,0,0,0,
0,0,0,0,0,0,0,0,0,0,0,0,0,0,0,0,0,0,0,0,0,0,0,0,0,0,0,0,0,0,0,0,0,0,0,0,0,0,0,0,0,0,0,0,0,0,0,0,0,0,0,0,0,0,0,0,0,0,0,0,0,0,0,0,
0,0,0,0,0,0,0,0,0,0,0,0,0,0,0,0,0,0,0,0,0,0,0,0,0,0,0,0,0,0,0,0,0,0,0,0,0,0,0,0,0,0,0,0,0,0,0,0,0,0,0,0,0,0,0,0,0,0,0,0,0,0,0,0,
0,0,0,0,0,0,0,0,0,0,0,0,0,0,0,0,0,0,0,0,0,0,0,0,0,0,0,0,0,0,0,0,0,0,0,0,0,0,0,0,0,0,0,0,0,0,0,0,0,0,0,0,0,0,0,0,0,0,0,0,0,0,0,0,
0,0,0,0,0,0,0,0,0,0,0,0,0,0,0,0,0,0,0,0,0,0,0,0,0,0,0,0,0,0,0,0,0,0,0,0,0,0,0,0,0,0,0,0,0,0,0,0,0,0,0,0,0,0,0,0,0,0,0,0,0,0,0,0,
0,0,0,0,0,0,0,0,0,0,0,0,0,0,0,0,0,0,0,0,0,0,0,0,0,0,0,0,0,0,0,0,0,0,0,0,0,0,0,0,0,0,0,0,0,0,0,0,0,0,0,0,0,0,0,0,0,0,0,0,0,0,0,0,
0,0,0,0,0,0,0,0,0,0,0,0,0,0,0,0,0,0,0,0,0,0,0,0,0,0,0,0,0,0,0,0,0,0,0,0,0,0,0,0,0,0,0,0,0,0,0,0,0,0,0,0,0,0,0,0,0,0,0,0,0,0,0,0,
0,0,0,0,0,0,0,0,0,0,0,0,0,0,0,0,0,0,0,0,0,0,0,0,0,0,0,0,0,0,0,0,0,0,0,0,0,0,0,0,0,0,0,0,0,0,0,0,0,0,0,0,0,0,0,0,0,0,0,0,0,0,0,0,
0,0,0,0,0,0,0,0,0,0,0,0,0,0,0,0,0,0,0,0,0,0,0,0,0,0,0,0,0,0,0,0,0,0,0,0,0,0,0,0,0,0,0,0,0,0,0,0,0,0,0,0,0,0,0,0,0,0,0,0,0,0,0,0,
0,0,0,0,0,0,0,0,0,0,0,0,0,0,0,0,0,0,0,0,0,0,0,0,0,0,28,2,2,2,2,3,0,0,1,2,2,2,2,29,0,0,0,0,0,0,0,0,0,0,0,0,0,0,0,0,0,0,0,0,0,0,0,0,
0,0,0,0,0,0,0,0,0,0,0,0,0,0,0,0,0,0,0,0,0,0,0,0,0,0,17,24,24,24,24,25,0,0,23,24,24,24,24,18,0,0,0,0,0,0,0,0,0,0,0,0,0,0,0,0,0,0,0,0,0,0,0,0,
0,0,0,0,0,0,0,0,0,0,0,0,0,0,0,0,0,0,0,0,0,0,0,0,0,0,0,0,0,0,0,0,0,0,0,0,0,0,0,0,0,0,0,0,0,0,0,0,0,0,0,0,0,0,0,0,0,0,0,0,0,0,0,0,
0,0,0,0,0,0,0,0,0,0,0,0,0,0,0,0,0,0,0,0,0,0,0,0,0,0,0,0,0,0,0,0,0,0,0,0,0,0,0,0,0,0,0,0,0,0,0,0,0,0,0,0,0,0,0,0,0,0,0,0,0,0,0,0,
0,0,0,0,0,0,0,0,0,0,0,0,0,0,0,0,0,0,0,0,0,0,0,0,0,0,0,0,0,0,0,0,0,0,0,0,0,0,0,0,0,0,0,0,0,0,0,0,0,0,0,0,0,0,0,0,0,0,0,0,0,0,0,0,
0,0,0,0,0,0,0,0,0,0,0,0,0,0,0,0,0,0,0,0,0,0,0,0,0,0,0,0,0,0,0,0,0,0,0,0,0,0,0,0,0,0,0,0,0,0,0,0,0,0,0,0,0,0,0,0,0,0,0,0,0,0,0,0,
0,0,0,0,0,0,0,0,0,0,0,0,0,0,0,0,0,0,0,0,0,0,0,0,0,0,0,0,0,0,0,0,0,0,0,0,0,0,0,0,0,0,0,0,0,0,0,0,0,0,0,0,0,0,0,0,0,0,0,0,0,0,0,0,
0,0,0,0,0,0,0,0,0,0,0,0,0,0,0,0,0,0,0,0,0,0,0,0,0,0,0,0,0,0,0,0,0,0,0,0,0,0,0,0,0,0,0,0,0,0,0,0,0,0,0,0,0,0,0,0,0,0,0,0,0,0,0,0,
0,0,0,0,0,0,0,0,0,0,0,0,0,0,0,0,0,0,0,0,0,0,0,0,0,0,0,0,0,0,0,0,0,0,0,0,0,0,0,0,0,0,0,0,0,0,0,0,0,0,0,0,0,0,0,0,0,0,0,0,0,0,0,0
</data>
 </layer>
 <layer id="9" name="Sign" width="64" height="48">
  <data encoding="csv">
0,0,0,0,0,0,0,0,0,0,0,0,0,0,0,0,0,0,0,0,0,0,0,0,0,0,0,0,0,0,0,0,0,0,0,0,0,0,0,0,0,0,0,0,0,0,0,0,0,0,0,0,0,0,0,0,0,0,0,0,0,0,0,0,
0,0,0,0,0,0,0,0,0,0,0,0,0,0,0,0,0,0,0,0,0,0,0,0,0,0,0,0,0,0,0,0,0,0,0,0,0,0,0,0,0,0,0,0,0,0,0,0,0,0,0,0,0,0,0,0,0,0,0,0,0,0,0,0,
0,0,0,0,0,0,0,0,0,0,0,0,0,0,0,0,0,0,0,0,0,0,0,0,0,0,0,0,0,0,0,0,0,0,0,0,0,0,0,0,0,0,0,0,0,0,0,0,0,0,0,0,0,0,0,0,0,0,0,0,0,0,0,0,
0,0,0,0,0,0,0,0,0,0,0,0,0,0,0,0,0,0,0,0,0,0,0,0,0,0,0,0,0,0,0,0,0,0,0,0,0,0,0,0,0,0,0,0,0,0,0,0,0,0,0,0,0,0,0,0,0,0,0,0,0,0,0,0,
0,0,0,0,0,0,0,0,0,0,0,0,0,0,0,0,0,0,0,0,0,0,0,0,0,0,0,0,0,0,0,0,0,0,0,0,0,0,0,0,0,0,0,0,0,0,0,0,0,0,0,0,0,0,0,0,0,0,0,0,0,0,0,0,
0,0,0,0,0,0,0,0,0,0,0,0,0,0,0,0,0,0,0,0,0,0,0,0,0,0,0,0,0,0,0,0,0,0,0,0,0,0,0,0,0,0,0,0,0,0,0,0,0,0,0,0,0,0,0,0,0,0,0,0,0,0,0,0,
0,0,0,0,0,0,0,0,0,0,0,0,0,0,0,0,0,0,0,0,0,0,0,0,0,0,0,0,0,0,0,0,0,0,0,0,0,0,0,0,0,0,0,0,0,0,0,0,0,0,0,0,0,0,0,0,0,0,0,0,0,0,0,0,
0,0,0,0,0,0,0,0,0,0,0,0,0,0,0,0,0,0,0,0,0,0,0,0,0,0,0,0,0,0,0,0,0,0,0,0,0,0,0,0,0,0,0,0,0,0,0,0,0,0,0,0,0,0,0,0,0,0,0,0,0,0,0,0,
0,0,0,0,0,0,0,0,0,0,0,0,0,0,0,0,0,0,0,0,0,0,0,0,0,0,0,0,0,0,0,0,0,0,0,0,0,0,0,0,0,0,0,0,0,0,0,0,0,0,0,0,0,0,0,0,0,0,0,0,0,0,0,0,
0,0,0,0,0,0,0,0,0,0,0,0,0,0,0,0,0,0,0,0,0,0,0,0,0,0,0,0,0,0,0,0,0,0,0,0,0,0,0,0,0,0,0,0,0,0,0,0,0,0,0,0,0,0,0,0,0,0,0,0,0,0,0,0,
0,0,0,0,0,0,0,0,0,0,0,0,0,0,0,0,0,0,0,0,0,0,0,0,0,0,0,0,0,0,0,0,0,0,0,0,0,0,0,0,0,0,0,0,0,0,0,0,0,0,0,0,0,0,0,0,0,0,0,0,0,0,0,0,
0,0,0,0,0,0,0,0,0,0,0,0,0,0,0,0,0,0,0,0,0,0,0,0,0,0,0,0,0,0,0,0,0,0,0,0,0,0,0,0,0,0,0,0,0,0,0,0,0,0,0,0,0,0,0,0,0,0,0,0,0,0,0,0,
0,0,0,0,0,0,0,0,0,0,0,0,0,0,0,0,0,0,0,0,0,0,0,0,0,0,0,0,0,0,0,0,0,0,0,0,0,0,0,0,0,0,0,0,0,0,0,0,0,0,0,0,0,0,0,0,0,0,0,0,0,0,0,0,
0,0,0,0,0,0,0,0,0,0,0,0,0,0,0,0,0,0,0,0,0,0,0,0,0,0,0,0,0,0,0,0,0,0,0,0,0,0,0,0,0,0,0,0,0,0,0,0,0,0,0,0,0,0,0,0,0,0,0,0,0,0,0,0,
0,0,0,0,0,0,0,0,0,0,0,0,0,0,0,0,0,0,0,0,0,0,0,0,0,0,0,0,0,0,0,0,0,0,0,0,0,0,0,0,0,0,0,0,0,0,0,0,0,0,0,0,0,0,0,0,0,0,0,0,0,0,0,0,
0,0,0,0,0,0,0,0,0,0,0,0,0,0,0,0,0,0,0,0,0,0,0,0,0,0,0,0,0,0,0,0,0,0,0,0,0,0,0,0,0,0,0,0,0,0,0,0,0,0,0,0,0,0,0,0,0,0,0,0,0,0,0,0,
0,0,0,0,0,0,0,0,0,0,0,0,0,0,0,0,0,0,0,0,0,0,0,0,0,0,0,0,0,0,0,0,0,0,0,0,0,0,0,0,0,0,0,0,0,0,0,0,0,0,0,0,0,0,0,0,0,0,0,0,0,0,0,0,
0,0,0,0,0,0,0,0,0,0,0,0,0,0,0,0,0,0,0,0,0,0,0,0,0,0,0,0,0,0,0,0,0,0,0,0,0,0,0,0,0,0,0,0,0,0,0,0,0,0,0,0,0,0,0,0,0,0,0,0,0,0,0,0,
0,0,0,0,0,0,0,0,0,0,0,0,0,0,0,0,0,0,0,0,0,0,0,0,0,0,0,0,0,0,0,0,0,0,0,0,0,0,0,0,0,0,0,0,0,0,0,0,0,0,0,0,0,0,0,0,0,0,0,0,0,0,0,0,
0,0,0,0,0,0,0,0,0,0,0,0,0,0,0,0,0,0,0,0,0,0,0,0,0,0,0,0,0,0,0,0,0,0,0,0,0,0,0,0,0,0,0,0,0,0,0,0,0,0,0,0,0,0,0,0,0,0,0,0,0,0,0,0,
0,0,0,0,0,0,0,0,0,0,0,0,0,0,0,0,0,0,0,0,0,0,0,0,0,0,0,0,0,0,0,0,0,0,0,0,0,0,0,0,0,0,0,0,0,0,0,0,0,0,0,0,0,0,0,0,0,0,0,0,0,0,0,0,
0,0,0,0,0,0,0,0,0,0,0,0,0,0,0,0,0,0,0,0,0,0,0,0,0,0,0,0,0,0,0,0,0,0,0,0,0,0,0,0,0,0,0,0,0,0,0,0,0,0,0,0,0,0,0,0,0,0,0,0,0,0,0,0,
0,0,0,0,0,0,0,0,0,0,0,0,0,0,0,0,0,0,0,0,0,0,0,0,0,0,0,0,0,0,0,0,0,0,0,0,0,0,0,0,0,0,0,0,0,0,0,0,0,0,0,0,0,0,0,0,0,0,0,0,0,0,0,0,
0,0,0,0,0,0,0,0,0,0,0,0,0,0,0,0,0,0,0,0,0,0,0,0,0,0,0,0,0,0,0,0,0,0,0,0,0,0,0,0,0,0,0,0,0,0,0,0,0,0,0,0,0,0,0,0,0,0,0,0,0,0,0,0,
0,0,0,0,0,0,0,0,0,0,0,0,0,0,0,0,0,0,0,0,0,0,0,0,0,0,0,0,0,0,0,0,0,0,0,0,0,0,0,0,0,0,0,0,0,0,0,0,0,0,0,0,0,0,0,0,0,0,0,0,0,0,0,0,
0,0,0,0,0,0,0,0,0,0,0,0,0,0,0,0,0,0,0,0,0,0,0,0,0,0,0,0,0,0,0,0,0,0,0,0,0,0,0,0,0,0,0,0,0,0,0,0,0,0,0,0,0,0,0,0,0,0,0,0,0,0,0,0,
0,0,0,0,0,0,0,0,0,0,0,0,0,0,0,0,0,0,0,0,0,0,0,0,0,0,0,0,0,0,0,0,0,0,0,0,0,0,0,0,0,0,0,0,0,0,0,0,0,0,0,0,0,0,0,0,0,0,0,0,0,0,0,0,
0,0,0,0,0,0,0,0,0,0,0,0,0,0,0,0,0,0,0,0,0,0,0,0,0,0,0,0,0,0,0,0,0,0,0,0,0,0,0,0,0,0,0,0,0,0,0,0,0,0,0,0,0,0,0,0,0,0,0,0,0,0,0,0,
0,0,0,0,0,0,0,0,0,0,0,0,0,0,0,0,0,0,0,0,0,0,0,0,0,0,0,0,0,0,0,0,0,0,0,0,0,0,0,0,0,0,0,0,0,0,0,0,0,0,0,0,0,0,0,0,0,0,0,0,0,0,0,0,
0,0,0,0,0,0,0,0,0,0,0,0,0,0,0,0,0,0,0,0,0,0,0,0,0,0,0,0,0,0,0,0,0,0,0,0,0,0,0,0,0,0,0,0,0,0,0,0,0,0,0,0,0,0,0,0,0,0,0,0,0,0,0,0,
0,0,0,0,0,0,0,0,0,0,0,0,0,0,0,0,0,0,0,0,0,0,0,0,0,0,0,0,0,0,0,0,0,0,0,0,0,0,0,0,0,0,0,0,0,0,0,0,0,0,0,0,0,0,0,0,0,0,0,0,0,0,0,0,
0,0,0,0,0,0,0,0,0,0,0,0,0,0,0,0,0,0,0,0,0,0,0,0,0,0,0,0,0,0,0,0,0,0,0,0,0,0,0,0,0,0,0,0,0,0,0,0,0,0,0,0,0,0,0,0,0,0,0,0,0,0,0,0,
0,0,0,0,0,0,0,0,0,0,0,0,0,0,0,0,0,0,0,0,0,0,0,0,0,0,0,0,0,0,0,0,0,0,0,0,0,0,0,0,0,0,0,0,0,0,0,0,0,0,0,0,0,0,0,0,0,0,0,0,0,0,0,0,
0,0,0,0,0,0,0,0,0,0,0,0,0,0,0,0,0,0,0,0,0,0,0,0,0,0,0,0,0,0,0,0,0,0,0,0,0,0,0,0,0,0,0,0,0,0,0,0,0,0,0,0,0,0,0,0,0,0,0,0,0,0,0,0,
0,0,0,0,0,0,0,0,0,0,0,0,0,0,0,0,0,0,0,0,0,0,0,0,0,0,0,0,0,0,0,0,0,0,0,0,0,0,0,0,0,0,0,0,0,0,0,0,0,0,0,0,0,0,0,0,0,0,0,0,0,0,0,0,
0,0,0,0,0,0,0,0,0,0,0,0,0,0,0,0,0,0,0,0,0,0,0,0,0,0,0,0,0,0,0,0,0,0,0,0,0,0,0,0,0,0,0,0,0,0,0,0,0,0,0,0,0,0,0,0,0,0,0,0,0,0,0,0,
0,0,0,0,0,0,0,0,0,0,0,0,0,0,0,0,0,0,0,0,0,0,0,0,0,0,0,0,0,0,0,0,0,0,0,0,0,0,0,0,0,0,0,0,0,0,0,0,0,0,0,0,0,0,0,0,0,0,0,0,0,0,0,0,
0,0,0,0,0,0,0,0,0,0,0,0,0,0,0,0,0,0,0,0,0,0,0,0,0,0,0,0,0,0,0,0,0,0,0,0,0,0,0,0,0,0,0,0,0,0,0,0,0,0,0,0,0,0,0,0,0,0,0,0,0,0,0,0,
0,0,0,0,0,0,0,0,0,0,0,0,0,0,0,0,0,0,0,0,0,0,0,0,0,0,0,0,0,0,0,0,0,0,0,0,0,0,0,0,0,0,0,0,0,0,0,0,0,0,0,0,0,0,0,0,0,0,0,0,0,0,0,0,
0,0,0,0,0,0,0,0,0,0,0,0,0,0,0,0,0,0,0,0,0,0,0,0,0,288,0,0,0,0,0,0,0,0,0,0,0,0,0,0,0,0,0,0,0,0,0,0,0,0,0,0,0,0,0,0,0,0,0,0,0,0,0,0,
0,0,0,0,0,0,0,0,0,0,0,0,0,0,0,0,0,0,0,0,0,0,0,0,0,0,0,0,0,0,0,0,0,0,0,0,0,0,0,0,0,0,0,0,0,0,0,0,0,0,0,0,0,0,0,0,0,0,0,0,0,0,0,0,
0,0,0,0,0,0,0,0,0,0,0,0,0,0,0,0,0,0,0,0,0,0,0,0,0,0,0,0,0,0,0,0,0,0,0,0,0,0,0,0,0,0,0,0,0,0,0,0,0,0,0,0,0,0,0,0,0,0,0,0,0,0,0,0,
0,0,0,0,0,0,0,0,0,0,0,0,0,0,0,0,0,0,0,0,0,0,0,0,0,0,0,0,0,0,0,0,0,0,0,0,0,0,0,0,0,0,0,0,0,0,0,0,0,0,0,0,0,0,0,0,0,0,0,0,0,0,0,0,
0,0,0,0,0,0,0,0,0,0,0,0,0,0,0,0,0,0,0,0,0,0,0,0,0,0,0,0,0,0,0,0,0,0,0,0,0,0,0,0,0,0,0,0,0,0,0,0,0,0,0,0,0,0,0,0,0,0,0,0,0,0,0,0,
0,0,0,0,0,0,0,0,0,0,0,0,0,0,0,0,0,0,0,0,0,0,0,0,0,0,0,0,0,0,0,0,0,0,0,0,0,0,0,0,0,0,0,0,0,0,0,0,0,0,0,0,0,0,0,0,0,0,0,0,0,0,0,0,
0,0,0,0,0,0,0,0,0,0,0,0,0,0,0,0,0,0,0,0,0,0,0,0,0,0,0,0,0,0,0,0,0,0,0,0,0,0,0,0,0,0,0,0,0,0,0,0,0,0,0,0,0,0,0,0,0,0,0,0,0,0,0,0,
0,0,0,0,0,0,0,0,0,0,0,0,0,0,0,0,0,0,0,0,0,0,0,0,0,0,0,0,0,0,0,0,0,0,0,0,0,0,0,0,0,0,0,0,0,0,0,0,0,0,0,0,0,0,0,0,0,0,0,0,0,0,0,0,
0,0,0,0,0,0,0,0,0,0,0,0,0,0,0,0,0,0,0,0,0,0,0,0,0,0,0,0,0,0,0,0,0,0,0,0,0,0,0,0,0,0,0,0,0,0,0,0,0,0,0,0,0,0,0,0,0,0,0,0,0,0,0,0
</data>
 </layer>
 <layer id="6" name="Fog" width="64" height="48">
  <data encoding="csv">
0,0,0,0,0,277,278,278,311,267,267,267,268,0,0,0,0,266,267,267,268,266,268,0,266,268,0,0,0,266,312,311,267,267,267,267,267,268,266,267,267,312,278,278,278,278,278,278,278,278,278,279,0,266,267,267,267,267,268,0,0,0,0,0,
267,268,0,0,0,288,301,278,278,278,278,278,279,0,0,266,268,288,289,289,290,288,290,266,312,311,267,268,0,277,278,278,278,278,278,278,278,311,312,278,300,301,278,278,300,289,301,278,300,301,278,279,266,312,278,300,301,278,311,267,267,267,268,0,
278,311,268,0,0,0,288,301,278,278,278,300,290,0,0,277,311,267,268,266,267,267,267,312,278,278,300,290,266,312,278,278,300,289,289,289,301,278,278,278,279,288,289,289,290,0,277,278,311,312,278,311,312,300,289,290,312,278,278,278,278,278,311,267,
301,278,311,268,0,0,0,288,301,278,300,290,0,0,0,277,278,300,290,288,301,278,278,278,278,278,311,267,312,278,278,278,279,0,0,0,288,301,278,278,279,0,0,0,0,266,312,278,300,301,278,300,289,290,0,288,289,289,301,278,278,278,278,278,
277,278,278,311,268,0,0,0,277,278,279,0,0,0,266,312,278,311,267,312,278,278,278,278,278,278,278,278,278,278,278,278,279,0,266,268,0,288,289,289,290,0,266,268,0,277,278,278,311,312,278,311,268,0,0,0,0,0,288,301,278,278,278,278,
277,278,278,278,311,268,0,0,277,278,311,268,0,0,277,300,301,278,278,300,301,278,300,289,289,289,289,289,289,289,289,301,279,0,277,279,266,268,0,0,0,0,288,290,0,277,278,278,278,278,278,300,290,0,0,266,268,0,0,288,301,278,278,278,
277,278,278,278,278,279,0,0,288,289,301,279,0,0,277,279,288,289,301,311,288,289,290,0,0,266,267,267,267,267,267,312,311,268,277,279,277,279,0,0,0,288,290,266,268,277,278,278,278,278,300,290,0,0,266,312,279,0,0,0,277,278,278,300,
288,301,278,278,278,279,0,0,0,0,277,279,0,0,277,278,278,311,312,300,266,267,267,267,267,312,300,301,278,278,278,278,278,268,288,311,312,311,267,268,288,290,0,277,279,277,278,278,278,300,290,0,0,266,312,278,311,268,0,266,312,278,300,290,
0,277,278,278,278,311,268,0,0,0,288,290,0,0,277,278,278,300,289,290,277,278,300,289,301,278,311,312,278,278,278,278,278,311,268,277,278,278,300,289,290,0,266,312,311,312,278,278,278,311,312,311,267,312,278,278,278,311,268,277,278,278,279,0,
0,288,301,278,278,278,311,267,268,0,0,0,0,266,312,278,278,311,268,266,312,278,311,268,288,301,278,278,278,278,278,278,278,278,279,288,289,289,290,0,0,0,277,278,278,278,278,278,278,278,278,278,278,278,300,289,289,301,279,277,278,300,290,0,
0,0,277,300,289,289,301,278,279,0,0,0,0,277,278,300,301,300,290,288,289,289,289,290,266,312,278,278,278,278,278,278,278,278,279,0,0,0,0,0,0,0,277,278,278,278,278,278,278,278,278,278,278,278,311,267,267,312,279,288,289,290,0,0,
0,0,277,279,0,0,288,289,290,0,266,268,0,288,289,290,288,290,0,0,0,0,0,0,288,301,278,278,278,278,278,278,300,301,279,0,0,0,0,0,266,268,277,278,278,278,278,300,289,278,278,300,289,301,278,278,278,300,290,0,0,266,267,267,
0,0,277,311,268,0,0,0,0,0,288,290,0,0,0,0,0,0,0,0,0,0,0,0,0,288,289,301,278,278,300,301,279,288,290,266,267,268,0,266,312,311,312,278,278,278,278,279,0,289,301,311,267,312,300,289,289,290,0,0,0,277,278,278,
0,0,288,289,290,0,0,0,0,0,266,268,0,0,0,0,0,0,0,266,0,0,0,0,0,0,0,277,278,278,279,277,279,266,268,288,301,311,268,288,301,278,278,278,278,278,300,290,0,0,277,300,289,289,290,0,288,290,0,0,266,312,278,278,
0,0,0,0,0,0,0,0,0,0,277,279,0,0,0,0,0,0,0,288,266,267,267,268,0,0,0,277,300,289,290,277,311,312,311,268,288,301,279,0,277,278,300,301,278,278,311,268,0,266,267,267,267,267,267,267,267,268,0,266,312,278,278,278,
0,0,0,266,267,267,267,268,0,0,277,279,0,0,0,0,0,0,0,0,277,278,278,311,268,0,0,288,290,0,0,288,289,289,289,290,0,288,290,0,277,278,279,288,301,278,278,311,267,312,278,278,278,278,300,289,289,290,266,312,278,278,278,278,
0,0,0,288,289,301,278,311,267,267,312,311,268,266,267,268,0,0,266,267,312,278,278,278,279,0,0,0,0,0,0,0,0,0,0,0,266,268,288,290,288,289,289,0,288,301,278,300,289,289,289,289,301,278,311,267,267,267,312,278,300,289,289,289,
267,267,268,0,0,288,289,289,289,289,301,278,311,312,300,290,0,266,312,278,278,278,278,278,279,0,266,0,0,0,0,0,0,0,0,0,277,279,266,267,268,0,0,0,0,277,300,290,266,267,267,267,312,278,278,278,278,300,301,278,279,0,266,267,
301,278,311,267,268,0,0,0,0,266,312,278,278,278,279,0,266,288,301,278,278,278,278,278,311,268,288,266,267,267,267,267,268,0,266,267,267,268,288,289,290,0,0,0,0,288,290,0,277,278,278,300,301,278,300,289,301,279,288,278,311,267,312,278,
288,289,301,278,279,266,267,267,267,312,300,289,301,278,279,0,288,0,288,301,300,301,278,278,278,279,0,277,278,278,278,278,311,267,312,278,278,311,268,268,0,0,0,0,0,266,268,0,288,289,289,290,277,278,311,268,277,311,268,278,278,289,301,300,
0,0,288,289,290,277,278,278,278,278,279,0,277,278,279,0,0,0,266,312,311,312,278,278,278,311,268,288,301,278,278,278,278,278,278,278,278,278,311,311,268,0,0,0,0,277,279,0,288,0,0,266,312,278,278,311,312,278,279,289,289,0,277,311,
0,0,0,0,0,277,278,278,300,289,290,0,288,301,279,94,101,0,288,301,278,300,301,278,278,278,279,0,288,301,278,278,278,278,278,300,301,278,278,278,279,0,0,0,0,277,311,268,0,0,288,289,301,278,278,278,278,278,279,0,0,266,312,278,
266,267,268,0,266,312,278,278,279,0,266,268,0,288,290,0,266,267,267,312,300,290,277,278,278,300,290,0,0,288,301,300,301,278,300,290,288,289,301,300,290,0,0,0,0,288,289,290,0,0,0,0,288,301,278,278,278,278,279,0,0,277,278,278,
312,278,311,267,312,278,278,278,279,0,288,290,266,268,0,266,312,278,278,300,290,266,312,278,278,279,0,0,0,266,312,311,312,278,279,0,0,0,288,290,0,0,0,0,0,0,266,267,268,0,0,0,0,288,301,278,278,278,311,268,0,277,278,278,
278,300,301,278,278,278,278,278,279,0,0,0,288,290,266,268,288,289,289,290,0,277,300,301,278,279,0,0,0,277,278,278,300,289,290,0,0,0,0,0,0,0,0,0,0,266,312,278,311,268,0,0,0,0,288,301,278,278,278,311,268,277,278,278,
278,279,288,289,301,278,278,278,311,268,0,0,0,266,312,279,0,0,0,0,0,288,290,277,278,279,0,0,0,277,300,289,290,0,0,0,266,268,266,268,266,267,267,267,267,312,278,278,278,279,0,0,0,0,0,288,289,289,301,300,290,277,278,278,
278,311,267,268,288,289,289,301,300,290,0,0,0,288,301,311,268,0,266,267,268,0,0,277,300,290,266,268,266,312,279,0,0,0,0,0,277,311,312,311,312,278,278,278,278,278,278,278,300,290,0,0,0,0,0,0,0,0,288,290,266,312,278,278,
289,289,301,311,268,0,0,277,311,268,0,0,0,0,277,278,311,268,288,289,290,0,0,288,290,266,312,279,288,289,290,0,266,267,268,0,288,301,278,278,278,278,278,278,278,278,300,289,290,0,266,268,0,0,0,0,0,0,0,266,312,278,278,278,
0,0,277,278,311,267,267,312,278,279,0,266,267,268,288,289,301,311,268,0,0,0,0,0,266,312,278,311,268,0,266,267,312,278,279,0,0,288,289,301,278,278,278,278,278,278,311,267,312,311,312,279,0,0,0,0,0,0,0,277,278,300,301,278,
268,0,277,278,278,278,278,278,278,279,0,288,289,290,0,0,288,301,279,266,267,268,0,0,277,278,278,278,311,267,312,300,289,289,290,0,266,267,268,288,289,289,289,301,278,278,278,300,301,300,289,290,266,267,268,0,0,0,0,288,301,311,277,278,
290,0,277,278,278,300,301,278,278,279,0,0,0,0,0,0,0,288,290,277,278,279,266,268,277,278,278,278,300,301,300,290,266,267,267,267,312,300,290,0,0,0,0,288,289,301,278,311,312,311,267,267,312,278,311,268,0,0,266,267,312,300,277,278,
0,266,312,300,301,279,288,289,289,290,0,0,0,266,268,0,0,0,277,278,300,290,288,290,277,278,278,278,311,312,311,267,312,278,300,289,289,290,0,0,0,0,0,0,0,288,289,289,289,289,289,289,301,278,278,279,0,266,312,278,300,290,277,278,
266,312,300,290,288,290,0,266,267,267,268,0,0,277,311,267,267,268,0,288,290,266,268,0,277,278,300,289,301,300,301,300,289,289,290,266,267,267,267,267,267,268,0,0,0,0,0,0,0,0,0,0,277,278,278,311,268,277,278,278,279,0,277,300,
277,300,290,0,0,0,266,312,300,301,279,0,0,288,301,278,278,311,268,0,0,0,266,268,288,289,290,266,312,279,288,290,0,266,267,288,289,289,301,278,278,311,268,0,0,0,0,0,0,0,0,0,288,289,289,289,290,288,289,301,311,268,288,290,
312,279,0,0,266,268,288,301,279,288,290,0,0,0,288,301,300,301,311,268,0,266,268,0,0,266,267,312,300,290,0,0,0,277,278,268,0,0,288,289,289,289,290,0,0,0,0,0,0,0,0,0,0,0,0,0,0,0,0,288,301,279,266,268,
278,279,0,266,312,311,268,288,290,266,268,0,0,0,266,312,311,312,278,311,267,312,311,267,267,312,300,289,290,0,0,0,0,288,289,290,0,0,0,0,0,0,0,0,0,0,0,0,0,0,0,0,0,0,0,266,268,266,267,268,277,311,312,279,
278,279,266,312,278,278,311,268,0,288,290,0,266,267,312,278,278,278,289,301,278,300,301,278,278,278,311,267,268,0,266,267,268,0,0,0,0,0,0,0,0,0,0,0,0,0,0,0,0,0,0,0,0,266,267,312,279,288,289,290,277,278,278,279,
289,290,277,278,278,278,278,311,268,0,0,266,312,278,278,278,300,289,0,288,289,290,288,289,289,289,301,278,279,0,277,278,311,268,0,0,0,0,0,0,0,0,266,267,267,267,267,268,266,267,267,267,267,312,278,278,311,0,266,267,312,278,278,279,
0,266,312,278,278,278,278,278,311,267,268,288,301,278,278,300,290,0,266,267,267,267,267,267,267,267,312,278,311,268,288,301,278,279,0,0,0,0,0,0,0,266,312,278,278,278,278,279,277,278,278,278,300,289,289,301,289,0,277,300,301,278,278,279,
0,288,289,289,289,301,278,278,278,278,279,0,277,278,300,290,0,0,277,278,278,278,278,278,300,301,278,278,278,311,267,312,278,311,268,0,0,0,0,0,0,277,300,289,289,289,289,290,277,278,278,278,311,268,0,288,266,0,288,290,277,278,278,279,
0,0,0,0,266,312,278,278,278,278,279,0,277,300,290,0,0,0,277,278,300,289,301,278,311,312,278,278,278,278,278,278,300,289,290,0,0,0,0,266,267,312,311,267,267,267,312,278,278,278,278,278,278,279,0,0,288,266,267,268,288,289,301,279,
0,0,266,268,288,301,278,278,278,278,311,268,277,279,0,0,0,0,277,278,279,0,288,289,289,289,289,289,289,289,289,289,290,0,0,0,0,266,267,312,278,278,278,278,278,278,278,278,300,289,289,289,289,290,0,0,0,288,301,311,268,0,277,279,
0,0,277,311,268,288,301,278,278,278,278,279,288,290,0,266,268,0,277,278,311,267,267,268,0,0,0,0,0,0,0,0,0,0,0,0,0,288,289,289,289,289,289,289,289,289,289,289,290,0,0,0,0,0,0,0,0,0,288,289,290,266,279,266,
0,0,277,278,311,267,312,278,278,278,278,311,267,268,266,312,279,266,312,278,278,278,278,311,267,268,0,0,0,0,0,0,0,0,0,0,0,0,0,266,268,0,268,0,0,0,0,0,0,0,0,0,0,0,0,0,0,0,0,0,266,312,279,277,
0,0,277,278,278,278,278,278,278,300,289,301,278,311,312,300,290,277,278,300,289,289,289,301,278,279,266,267,267,268,268,0,0,0,0,266,267,267,267,312,279,0,0,0,266,268,0,0,0,0,0,0,0,0,0,0,0,266,267,267,312,278,311,312,
268,266,312,278,278,278,278,278,278,311,267,312,278,278,278,311,267,268,289,290,0,0,0,288,301,311,312,278,278,311,311,268,0,0,266,312,300,289,301,278,279,266,267,267,312,279,266,268,0,0,0,0,266,267,267,267,267,312,278,278,278,278,278,300,
279,277,300,289,289,289,289,289,301,278,278,278,278,278,278,278,300,290,0,0,0,0,0,0,288,289,301,278,278,278,278,311,267,267,312,278,311,267,312,278,311,312,278,278,278,279,288,290,267,267,267,267,312,278,278,278,278,278,278,278,278,278,278,311,
290,288,290,0,0,0,0,0,288,289,289,289,289,289,301,278,279,0,0,0,0,0,0,0,0,0,288,289,289,289,301,278,278,278,278,278,278,278,278,278,278,300,289,289,289,290,0,266,278,278,278,278,278,278,278,278,278,278,278,278,278,300,289,289
</data>
 </layer>
 <objectgroup id="7" name="Portals" visible="0">
  <object id="1" x="490.75" y="-0.25" width="42" height="15.75">
   <properties>
    <property name="spawnX" type="float" value="510"/>
    <property name="spawnY" type="float" value="60"/>
    <property name="targetMap" value="maps/intersectionMap.lua"/>
   </properties>
  </object>
  <object id="3" x="492.5" y="625.75" width="38" height="29.5"/>
 </objectgroup>
 <objectgroup id="8" name="Walls">
  <object id="4" x="1.33333" y="0" width="4.33337" height="766.667"/>
  <object id="5" x="5.3333" y="762.667" width="1018.67" height="4"/>
  <object id="6" x="1012" y="0" width="10.6667" height="762.667"/>
  <object id="7" x="2.66667" y="0" width="1018.67" height="5.00003"/>
  <object id="8" x="351.818" y="735.909" width="31.2727" height="31.6364"/>
  <object id="9" x="337" y="751.909" width="14.8182" height="15.4545"/>
  <object id="10" x="0.818182" y="736.273" width="14" height="30.3636"/>
  <object id="11" x="32.75" y="736.375" width="59.625" height="29.875"/>
  <object id="12" x="8.54545" y="751.636" width="118.182" height="15.6364"/>
  <object id="13" x="0" y="671.636" width="30.5455" height="47.6364"/>
  <object id="14" x="-0.909091" y="608.727" width="47.0909" height="30.9091"/>
  <object id="15" x="17" y="512.25" width="28.5" height="98.75"/>
  <object id="16" x="65.25" y="527.875" width="29" height="31.25"/>
  <object id="17" x="48.9545" y="655.75" width="45.4205" height="31.3409"/>
  <object id="18" x="66.5" y="672.75" width="44" height="28.7955"/>
  <object id="21" x="80.9432" y="689.625" width="44.9318" height="27.75"/>
  <object id="22" x="97.875" y="704" width="60.625" height="26.4091"/>
  <object id="23" x="129.5" y="719.5" width="188.5" height="32.8864"/>
  <object id="24" x="289.75" y="704.25" width="43.5" height="30.3409"/>
  <object id="25" x="274" y="639.75" width="124" height="31.6818"/>
  <object id="26" x="305" y="663" width="28" height="51.5"/>
  <object id="27" x="370" y="662" width="28" height="36.2727"/>
  <object id="28" x="385.5" y="672.5" width="28" height="58.8864"/>
  <object id="29" x="401.25" y="704.5" width="28.75" height="64"/>
  <object id="30" x="430.25" y="721.5" width="15" height="46"/>
  <object id="31" x="445.25" y="736.5" width="17.375" height="31.375"/>
  <object id="32" x="462" y="753" width="159.5" height="15.5"/>
  <object id="34" x="564.182" y="738.364" width="56.9091" height="15.2727"/>
  <object id="35" x="577.818" y="721.091" width="44" height="16.5455"/>
  <object id="36" x="593.818" y="704.727" width="44.5455" height="25.0909"/>
  <object id="37" x="610.364" y="672.909" width="42.7273" height="39.6364"/>
  <object id="38" x="624.909" y="640.364" width="29.2727" height="38.3636"/>
  <object id="39" x="413.5" y="653.75" width="195" height="20"/>
  <object id="40" x="427.75" y="673.25" width="164.75" height="31.75"/>
  <object id="41" x="413" y="604.5" width="197" height="21.75"/>
  <object id="42" x="430.5" y="574.25" width="163.25" height="28.75"/>
  <object id="43" x="446.5" y="558" width="131.25" height="15.25"/>
  <object id="44" x="462" y="541.5" width="100.5" height="15.75"/>
  <object id="45" x="646.727" y="655.636" width="70.1818" height="32.0227"/>
  <object id="46" x="690" y="640" width="75.0909" height="30.8409"/>
  <object id="47" x="737.636" y="624.545" width="27.4545" height="17.0909"/>
  <object id="48" x="657.75" y="737" width="42.5" height="19.75"/>
  <object id="49" x="657.5" y="755.5" width="29.5" height="12"/>
  <object id="50" x="674" y="704.75" width="26.25" height="36.5"/>
  <object id="51" x="700.5" y="704" width="65" height="26.6364"/>
  <object id="52" x="737.75" y="688.75" width="28.25" height="61.5"/>
  <object id="53" x="784.25" y="623.75" width="30.5" height="143.75"/>
  <object id="54" x="812" y="735.636" width="34.9091" height="32.3636"/>
  <object id="55" x="832.545" y="655.818" width="30.1818" height="62.1591"/>
  <object id="57" x="863.273" y="688.727" width="31.4545" height="54.1818"/>
  <object id="58" x="894.545" y="688.727" width="31.2727" height="22.7273"/>
  <object id="59" x="897.091" y="672.364" width="45.0909" height="22.1818"/>
  <object id="60" x="913.273" y="655.455" width="44.9091" height="22"/>
  <object id="61" x="929.091" y="639.818" width="45.8182" height="23.8182"/>
  <object id="62" x="946" y="624.545" width="43.4545" height="20.7273"/>
  <object id="63" x="960.667" y="158.667" width="29.3333" height="472"/>
  <object id="64" x="961.273" y="704" width="29.0909" height="64.5455"/>
  <object id="65" x="912.909" y="735.636" width="29.4545" height="33.6364"/>
  <object id="66" x="940.909" y="528.545" width="21.8182" height="30.1591"/>
  <object id="67" x="913.333" y="383" width="28" height="223"/>
  <object id="68" x="897.125" y="576" width="29" height="46.625"/>
  <object id="69" x="848" y="592" width="62" height="46.7273"/>
  <object id="70" x="625.5" y="575.25" width="237" height="31.9091"/>
  <object id="71" x="625" y="594.5" width="29" height="28.7727"/>
  <object id="72" x="688.25" y="596.125" width="30.375" height="27.4091"/>
  <object id="73" x="834" y="596.182" width="20.1818" height="26.5682"/>
  <object id="74" x="641.455" y="479.818" width="173.636" height="31.9943"/>
  <object id="75" x="657.818" y="503.818" width="44.3636" height="22.1818"/>
  <object id="76" x="673.091" y="518.182" width="28.9091" height="41.6364"/>
  <object id="77" x="687.818" y="527.636" width="31.6364" height="51.6364"/>
  <object id="78" x="737.125" y="527.375" width="125.25" height="31.7614"/>
  <object id="79" x="833" y="512" width="29.25" height="15.875"/>
  <object id="80" x="912.25" y="160.667" width="30.0833" height="206.5"/>
  <object id="81" x="881" y="304" width="33" height="30.25"/>
  <object id="82" x="832.75" y="207.5" width="61.25" height="47.75"/>
  <object id="83" x="864.5" y="248" width="29.75" height="38.25"/>
  <object id="84" x="800.5" y="128.25" width="30.25" height="53.5"/>
  <object id="85" x="830.5" y="144.5" width="16.75" height="37.75"/>
  <object id="86" x="847" y="159.75" width="74" height="23"/>
  <object id="87" x="864.909" y="383.818" width="29.7273" height="31.1818"/>
  <object id="88" x="817.273" y="399.818" width="29.0909" height="62.8409"/>
  <object id="89" x="833.273" y="432.182" width="29.6364" height="46"/>
  <object id="90" x="856" y="447.273" width="38" height="26.3636"/>
  <object id="91" x="864.909" y="472.909" width="29.2727" height="22.5909"/>
  <object id="92" x="448.458" y="161.833" width="29.625" height="150.75"/>
  <object id="93" x="545.25" y="33.25" width="109.25" height="29.7273"/>
  <object id="94" x="561.375" y="55.75" width="28.875" height="22.6364"/>
  <object id="95" x="624" y="48.25" width="62.5" height="30.4091"/>
  <object id="96" x="640.909" y="63.6364" width="93.4546" height="32"/>
  <object id="97" x="705.455" y="32.1818" width="45.0909" height="47.2728"/>
  <object id="98" x="748.545" y="31.4545" width="49.8182" height="31.4546"/>
  <object id="99" x="768.545" y="49.0909" width="45.0909" height="29.2727"/>
  <object id="100" x="786.545" y="65.4545" width="90.7273" height="28.5454"/>
  <object id="101" x="817.818" y="84.9091" width="74.9091" height="26"/>
  <object id="102" x="866.364" y="101.636" width="26.9091" height="24.7273"/>
  <object id="103" x="874" y="81.4545" width="18" height="4.90909"/>
  <object id="104" x="498.75" y="198.625" width="30.5" height="150.75"/>
  <object id="105" x="272.884" y="287.958" width="205.928" height="32.9167"/>
  <object id="106" x="321.96" y="336.057" width="379.595" height="31.2803"/>
  <object id="107" x="672.975" y="351.473" width="45.6177" height="30.9167"/>
  <object id="108" x="689.577" y="367.792" width="44.345" height="31.4622"/>
  <object id="109" x="705.077" y="384.542" width="44.345" height="30.5531"/>
  <object id="110" x="770.577" y="352.042" width="44.345" height="31.1667"/>
  <object id="111" x="752.827" y="336.292" width="44.345" height="31.1667"/>
  <object id="112" x="737.577" y="320.792" width="44.345" height="31.1667"/>
  <object id="113" x="720.577" y="304.042" width="45.345" height="31.7349"/>
  <object id="114" x="546.077" y="288.542" width="204.345" height="30.7349"/>
  <object id="115" x="546.327" y="161.292" width="27.595" height="129.167"/>
  <object id="116" x="566.577" y="240.417" width="40.345" height="30.6667"/>
  <object id="117" x="572.827" y="161.292" width="208.345" height="29.5834"/>
  <object id="118" x="609.577" y="184.792" width="28.595" height="38.5303"/>
  <object id="119" x="544.577" y="96.0417" width="77.595" height="22.9167"/>
  <object id="120" x="578.452" y="119.542" width="43.845" height="39.4394"/>
  <object id="121" x="592.452" y="129.292" width="62.095" height="34.4167"/>
  <object id="122" x="673.202" y="128.542" width="77.595" height="29.5834"/>
  <object id="123" x="705.452" y="112.792" width="61.1859" height="22.9167"/>
  <object id="124" x="736.657" y="95.7235" width="29.8677" height="24.644"/>
  <object id="125" x="833.015" y="0.395817" width="109.231" height="30.9167"/>
  <object id="126" x="880.839" y="16.178" width="45.9586" height="30.3712"/>
  <object id="127" x="897.021" y="31.8144" width="45.9586" height="31.0985"/>
  <object id="128" x="928.475" y="47.2689" width="45.9586" height="31.644"/>
  <object id="129" x="928.475" y="24.7235" width="45.9586" height="22.9167"/>
  <object id="130" x="979.93" y="-1.27653" width="45.9586" height="31.4622"/>
  <object id="131" x="949.203" y="14.5417" width="41.7768" height="32.7349"/>
  <object id="132" x="913.021" y="96.2917" width="45.9586" height="39.4167"/>
  <object id="133" x="944.771" y="96.4167" width="45.9586" height="22.9167"/>
  <object id="134" x="432.998" y="358.587" width="29.9586" height="160.563"/>
  <object id="135" x="445.384" y="495.905" width="160.868" height="29.2803"/>
  <object id="136" x="460.112" y="432.36" width="145.959" height="22.9167"/>
  <object id="137" x="528.93" y="448.633" width="29.8677" height="22.9167"/>
  <object id="138" x="480.998" y="480.269" width="29.8677" height="22.9167"/>
  <object id="139" x="577.259" y="479.973" width="29.8677" height="58.8257"/>
  <object id="140" x="593.066" y="512.178" width="29.8677" height="43.5531"/>
  <object id="141" x="609.157" y="528.269" width="29.8677" height="58.553"/>
  <object id="142" x="624.703" y="560.178" width="29.8677" height="22.9167"/>
  <object id="143" x="481.129" y="384.104" width="173.504" height="22.9167"/>
  <object id="144" x="625.612" y="400.269" width="45.4132" height="22.9167"/>
  <object id="145" x="641.884" y="415.814" width="44.8677" height="30.5531"/>
  <object id="146" x="657.941" y="431.917" width="141.073" height="30.7349"/>
  <object id="147" x="769.157" y="400.269" width="29.8677" height="54.8258"/>
  <object id="148" x="832.581" y="304.148" width="29.8677" height="62.9394"/>
  <object id="149" x="816.884" y="288.633" width="29.8677" height="47.0985"/>
  <object id="150" x="801.066" y="271.996" width="29.8677" height="47.0985"/>
  <object id="151" x="784.521" y="240.542" width="29.8677" height="63.0985"/>
  <object id="152" x="753.066" y="224.542" width="29.8677" height="46.553"/>
  <object id="153" x="769.066" y="240.36" width="29.8677" height="47.0985"/>
  <object id="154" x="641.191" y="240.405" width="61.3677" height="31.4508"/>
  <object id="155" x="656.691" y="224.343" width="77.7427" height="31.4508"/>
  <object id="156" x="673.066" y="208.218" width="61.3677" height="21.8144"/>
  <object id="157" x="65.6797" y="576.547" width="92.6405" height="29.9962"/>
  <object id="158" x="80.5888" y="592.547" width="109.549" height="30.7235"/>
  <object id="159" x="97.6798" y="608.911" width="92.4586" height="28.7235"/>
  <object id="160" x="114.589" y="623.456" width="75.7313" height="29.6326"/>
  <object id="161" x="128.589" y="640.184" width="125.549" height="31.2689"/>
  <object id="162" x="112.816" y="512.093" width="93.9927" height="30.5644"/>
  <object id="163" x="176.941" y="480.218" width="29.7427" height="32.4394"/>
  <object id="164" x="145.464" y="528.638" width="61.3677" height="29.3144"/>
  <object id="165" x="177.066" y="544.093" width="61.3677" height="30.0644"/>
  <object id="166" x="209.043" y="560.275" width="45.8222" height="29.8599"/>
  <object id="167" x="224.566" y="576.593" width="109.368" height="30.0871"/>
  <object id="168" x="304.475" y="592.138" width="93.8677" height="30.678"/>
  <object id="169" x="368.953" y="560.123" width="29.3904" height="31.777"/>
  <object id="170" x="385.123" y="384.157" width="29.3904" height="203.641"/>
  <object id="171" x="369.18" y="480.111" width="29.3904" height="31.652"/>
  <object id="172" x="406.805" y="496.486" width="39.3904" height="43.9588"/>
  <object id="173" x="390.93" y="513.611" width="39.3904" height="43.0497"/>
  <object id="174" x="224.471" y="598.153" width="30.5154" height="105.572"/>
  <object id="175" x="176.322" y="655.532" width="30.5154" height="47.0952"/>
  <object id="176" x="144.652" y="638.464" width="31.2427" height="49.0724"/>
  <object id="177" x="177.787" y="432.237" width="77.2427" height="31.4361"/>
  <object id="178" x="492.727" y="626.182" width="37.8182" height="27.0909"/>
  <object id="180" x="640.077" y="144.644" width="43.845" height="39.4394"/>
  <object id="181" x="224.651" y="400.1" width="30.3052" height="79.5554"/>
  <object id="182" x="232.591" y="448.13" width="118.697" height="31.4361"/>
  <object id="183" x="240.484" y="447.677" width="30.3052" height="79.5554"/>
  <object id="184" x="272.847" y="495.859" width="30.3052" height="47.3736"/>
  <object id="185" x="288.575" y="511.131" width="30.3052" height="47.3736"/>
  <object id="186" x="315.181" y="528.522" width="19.9302" height="30.3736"/>
  <object id="187" x="321.285" y="432.563" width="29.6802" height="62.1236"/>
  <object id="188" x="368.796" y="384.575" width="29.6802" height="38.8509"/>
  <object id="189" x="353.524" y="400.756" width="29.6802" height="38.8509"/>
  <object id="190" x="336.796" y="416.756" width="29.6802" height="38.8509"/>
  <object id="192" x="288.705" y="368.915" width="29.6802" height="46.3054"/>
  <object id="193" x="305.16" y="353.075" width="29.6802" height="45.2145"/>
  <object id="194" x="321.41" y="336.325" width="29.6802" height="47.0327"/>
  <object id="195" x="305.16" y="256.908" width="29.6802" height="38.8509"/>
  <object id="196" x="368.493" y="240.908" width="29.6802" height="49.1842"/>
  <object id="197" x="386.493" y="208.741" width="43.0135" height="61.5175"/>
  <object id="198" x="303.827" y="161.575" width="31.3468" height="77.5175"/>
  <object id="199" x="289.205" y="160.484" width="93.3468" height="30.4266"/>
  <object id="200" x="307.872" y="208.605" width="58.9832" height="30.4266"/>
  <object id="201" x="400.842" y="160.787" width="76.6499" height="30.4266"/>
  <object id="202" x="257.675" y="95.7867" width="203.65" height="30.4266"/>
  <object id="203" x="226.675" y="32.7867" width="235.4" height="30.4266"/>
  <object id="204" x="192.925" y="48.2867" width="174.4" height="30.4266"/>
  <object id="205" x="176.925" y="64.5367" width="45.9" height="30.4266"/>
  <object id="206" x="160.3" y="80.0367" width="45.9" height="30.4266"/>
  <object id="207" x="160.05" y="109.787" width="30.4" height="144.177"/>
  <object id="208" x="256.524" y="223.62" width="29.6802" height="48.4873"/>
  <object id="209" x="208.614" y="255.575" width="29.6802" height="48.4873"/>
  <object id="210" x="226.251" y="237.938" width="29.6802" height="48.4873"/>
  <object id="211" x="192.978" y="271.938" width="29.6802" height="48.4873"/>
  <object id="212" x="128.887" y="224.575" width="29.6802" height="94.3055"/>
  <object id="213" x="144.614" y="224.12" width="29.6802" height="62.3055"/>
  <object id="214" x="32.9478" y="224.787" width="28.3469" height="61.0631"/>
  <object id="215" x="112.705" y="208.181" width="29.6802" height="47.3964"/>
  <object id="216" x="80.8266" y="271.718" width="29.6802" height="47.3964"/>
  <object id="217" x="241" y="111.875" width="45.3582" height="31.9266"/>
  <object id="218" x="209.139" y="143.309" width="45.3582" height="31.9266"/>
  <object id="219" x="223.503" y="126.946" width="45.3582" height="31.9266"/>
  <object id="220" x="161.866" y="202.946" width="45.3582" height="36.1084"/>
  <object id="221" x="180.594" y="173.673" width="57.3582" height="33.7448"/>
  <object id="222" x="274.91" y="384.234" width="29.6802" height="47.0327"/>
  <object id="223" x="272.41" y="288.734" width="29.6802" height="47.0327"/>
  <object id="224" x="252.66" y="302.984" width="29.6802" height="47.0327"/>
  <object id="225" x="225.16" y="336.734" width="29.6802" height="47.0327"/>
  <object id="226" x="240.16" y="320.484" width="29.6802" height="47.0327"/>
  <object id="227" x="209.66" y="351.484" width="29.6802" height="32.0327"/>
  <object id="228" x="17.5765" y="240.218" width="28.3469" height="45.5631"/>
  <object id="229" x="-1.17345" y="256.218" width="31.5969" height="47.0631"/>
  <object id="230" x="48.4515" y="191.968" width="29.8469" height="62.5631"/>
  <object id="231" x="97.5765" y="112.218" width="29.8469" height="78.8131"/>
  <object id="232" x="-16.9235" y="144.343" width="29.8469" height="78.8131"/>
  <object id="233" x="0.07655" y="144.843" width="29.8469" height="62.0631"/>
  <object id="234" x="16.8266" y="127.718" width="29.8469" height="47.0631"/>
  <object id="235" x="-15.4235" y="63.2185" width="29.8469" height="47.0631"/>
  <object id="236" x="81.8265" y="127.468" width="29.8469" height="47.0631"/>
  <object id="237" x="0.82655" y="2.21845" width="29.8469" height="93.3131"/>
  <object id="238" x="47.8265" y="31.5935" width="29.8469" height="30.8131"/>
  <object id="239" x="64.5765" y="64.3434" width="61.8469" height="30.8131"/>
  <object id="240" x="96.0765" y="15.8435" width="61.8469" height="30.8131"/>
  <object id="241" x="97.5765" y="112.343" width="44.8469" height="30.8131"/>
  <object id="242" x="128.077" y="1.34345" width="60.8469" height="30.8131"/>
  <object id="243" x="95.8265" y="-12.4065" width="350.847" height="29.1767"/>
  <object id="244" x="573.852" y="-0.58835" width="244.922" height="15.8434"/>
  <object id="245" x="16.4098" y="336.202" width="62.5137" height="31.0969"/>
  <object id="246" x="16.0765" y="362.785" width="31.0137" height="100.847"/>
  <object id="247" x="33.4931" y="432.077" width="28.0137" height="47.347"/>
  <object id="248" x="49.9931" y="448.327" width="28.0137" height="47.347"/>
  <object id="249" x="66.2431" y="463.077" width="28.0137" height="47.347"/>
  <object id="250" x="33.4931" y="321.827" width="28.0137" height="42.347"/>
  <object id="251" x="113.902" y="336.463" width="28.0137" height="110.597"/>
  <object id="252" x="96.9931" y="336.327" width="93.7637" height="31.347"/>
  <object id="253" x="81.1181" y="384.577" width="110.014" height="31.347"/>
  <object id="254" x="97.493" y="399.077" width="39.6807" height="31.347"/>
  <object id="255" x="129.076" y="417.993" width="29.9724" height="77.6803"/>
  <object id="256" x="431.75" y="52.5" width="30.5" height="26.75"/>
 </objectgroup>
</map>
