<?xml version="1.0" encoding="UTF-8"?>
<map version="1.10" tiledversion="1.11.2" orientation="orthogonal" renderorder="right-down" width="64" height="48" tilewidth="16" tileheight="16" infinite="0" nextlayerid="14" nextobjectid="319">
 <editorsettings>
  <export target="whisperMap.lua" format="lua"/>
 </editorsettings>
 <tileset firstgid="1" name="whisper_grass" tilewidth="16" tileheight="16" tilecount="77" columns="11">
  <image source="tilesets/whisper_grass.png" width="176" height="112"/>
  <wangsets>
   <wangset name="whisper_hill" type="mixed" tile="-1">
    <wangcolor name="" color="#ff0000" tile="-1" probability="1"/>
    <wangtile tileid="0" wangid="0,0,0,1,0,0,0,0"/>
    <wangtile tileid="1" wangid="0,0,0,1,1,1,0,0"/>
    <wangtile tileid="2" wangid="0,0,0,0,0,1,0,0"/>
    <wangtile tileid="11" wangid="0,1,1,1,0,0,0,0"/>
    <wangtile tileid="12" wangid="1,1,1,1,1,1,1,1"/>
    <wangtile tileid="13" wangid="0,0,0,0,0,1,1,1"/>
    <wangtile tileid="16" wangid="1,1,0,0,0,1,1,1"/>
    <wangtile tileid="17" wangid="1,1,1,1,0,0,0,1"/>
    <wangtile tileid="22" wangid="0,1,0,0,0,0,0,0"/>
    <wangtile tileid="23" wangid="1,1,0,0,0,0,0,1"/>
    <wangtile tileid="24" wangid="0,0,0,0,0,0,0,1"/>
    <wangtile tileid="27" wangid="0,0,0,1,1,1,1,1"/>
    <wangtile tileid="28" wangid="0,1,1,1,1,1,0,0"/>
   </wangset>
  </wangsets>
 </tileset>
 <tileset firstgid="78" name="whisper_biome2" tilewidth="16" tileheight="16" tilecount="45" columns="9">
  <image source="tilesets/whisper_biome2.png" width="144" height="80"/>
 </tileset>
 <tileset firstgid="123" name="whisper_biome" tilewidth="16" tileheight="16" tilecount="45" columns="9">
  <image source="tilesets/whisper_biome.png" width="144" height="80"/>
 </tileset>
 <tileset firstgid="168" name="dirt" tilewidth="16" tileheight="16" tilecount="77" columns="11">
  <image source="tilesets/dirt.png" width="176" height="112"/>
 </tileset>
 <tileset firstgid="245" name="whisper_hills" tilewidth="16" tileheight="16" tilecount="99" columns="11">
  <image source="tilesets/whisper_hills.png" width="176" height="144"/>
  <wangsets>
   <wangset name="Unnamed Set" type="mixed" tile="-1">
    <wangcolor name="" color="#ff0000" tile="-1" probability="1"/>
    <wangcolor name="" color="#00ff00" tile="-1" probability="1"/>
    <wangtile tileid="0" wangid="0,0,0,1,0,0,0,0"/>
    <wangtile tileid="1" wangid="0,0,0,1,1,1,0,0"/>
    <wangtile tileid="2" wangid="0,0,0,0,0,1,0,0"/>
    <wangtile tileid="11" wangid="0,1,1,1,0,0,0,0"/>
    <wangtile tileid="12" wangid="1,1,1,1,1,1,1,1"/>
    <wangtile tileid="13" wangid="0,0,0,0,0,1,1,1"/>
    <wangtile tileid="16" wangid="1,1,0,0,0,1,1,1"/>
    <wangtile tileid="17" wangid="1,1,1,1,0,0,0,1"/>
    <wangtile tileid="22" wangid="0,1,0,0,0,0,0,0"/>
    <wangtile tileid="23" wangid="1,1,0,0,0,0,0,1"/>
    <wangtile tileid="24" wangid="0,0,0,0,0,0,0,1"/>
    <wangtile tileid="27" wangid="0,0,0,1,1,1,1,1"/>
    <wangtile tileid="28" wangid="0,1,1,1,1,1,0,0"/>
   </wangset>
  </wangsets>
 </tileset>
 <tileset firstgid="344" name="whisper_dirt" tilewidth="16" tileheight="16" tilecount="77" columns="11">
  <image source="tilesets/whisper_dirt.png" width="176" height="112"/>
  <wangsets>
   <wangset name="Fog" type="mixed" tile="-1">
    <wangcolor name="" color="#ff0000" tile="-1" probability="1"/>
    <wangtile tileid="8" wangid="0,0,0,1,0,0,0,0"/>
    <wangtile tileid="9" wangid="0,0,0,1,1,1,0,0"/>
    <wangtile tileid="10" wangid="0,0,0,0,0,1,0,0"/>
    <wangtile tileid="19" wangid="0,1,1,1,0,0,0,0"/>
    <wangtile tileid="20" wangid="1,1,1,1,1,1,1,1"/>
    <wangtile tileid="21" wangid="0,0,0,0,0,1,1,1"/>
    <wangtile tileid="30" wangid="0,1,0,0,0,0,0,0"/>
    <wangtile tileid="31" wangid="1,1,0,0,0,0,0,1"/>
    <wangtile tileid="32" wangid="0,0,0,0,0,0,0,1"/>
    <wangtile tileid="42" wangid="1,1,0,0,0,1,1,1"/>
    <wangtile tileid="43" wangid="1,1,1,1,0,0,0,1"/>
    <wangtile tileid="53" wangid="0,0,0,1,1,1,1,1"/>
    <wangtile tileid="54" wangid="0,1,1,1,1,1,0,0"/>
   </wangset>
  </wangsets>
 </tileset>
 <layer id="1" name="Background" width="64" height="48">
  <data encoding="csv">
68,68,71,58,57,58,57,57,71,58,56,58,72,57,68,58,56,56,72,58,68,70,69,71,70,58,67,72,70,56,56,57,70,72,56,67,70,57,57,58,71,71,61,61,57,70,58,72,72,67,57,70,56,70,71,61,71,72,61,57,71,56,69,70,
56,58,70,58,61,58,58,69,71,71,71,56,70,69,67,68,71,71,67,70,69,57,57,67,68,57,70,68,68,56,61,71,57,68,61,56,68,68,69,69,56,58,57,69,71,67,57,69,68,58,57,69,69,68,72,57,70,68,61,61,58,71,57,56,
71,72,57,71,56,57,70,67,70,72,72,72,70,61,72,56,61,72,71,67,67,57,57,61,71,71,72,58,58,67,71,61,57,70,71,57,69,56,72,70,71,57,67,58,58,72,72,70,61,68,68,72,72,58,56,69,71,56,61,67,71,61,56,61,
72,71,57,57,69,61,69,56,58,67,61,61,70,67,57,56,58,71,58,56,67,56,56,58,72,57,69,69,71,56,69,69,69,70,70,72,57,70,71,57,57,70,68,68,58,69,72,58,67,56,67,67,58,70,61,58,70,68,57,69,69,70,71,56,
57,72,61,57,68,58,70,58,58,61,57,72,70,67,72,58,72,61,58,70,72,72,56,71,61,57,72,56,58,68,57,68,61,58,67,70,67,58,71,72,71,56,61,72,69,69,57,67,68,69,57,71,72,57,71,71,67,68,61,72,69,57,70,57,
69,61,56,58,68,69,72,58,70,71,56,57,67,67,71,67,56,67,68,56,57,71,56,56,58,58,69,57,56,57,72,56,71,70,68,58,58,69,71,67,58,68,58,58,67,70,56,70,61,61,61,58,58,58,57,70,67,70,71,57,58,72,58,56,
69,72,70,72,71,57,69,67,58,70,71,70,58,61,69,71,68,71,58,70,57,71,70,56,69,70,71,58,71,68,69,72,69,57,70,70,58,71,69,68,61,57,72,67,61,56,58,68,56,72,71,69,58,61,67,70,70,56,72,67,67,56,70,71,
61,67,56,115,115,115,115,115,115,61,69,67,71,58,70,71,61,69,61,56,68,71,58,72,58,56,71,67,61,69,71,58,69,72,56,70,72,68,71,69,67,58,68,61,70,58,67,70,72,58,70,58,68,57,58,71,72,70,71,58,56,69,68,70,
61,57,115,115,61,71,56,61,115,115,72,57,67,56,69,70,61,57,57,69,58,71,56,68,56,71,70,69,67,67,68,58,71,61,58,57,67,56,56,57,61,71,71,56,70,72,72,71,68,61,69,69,71,72,57,70,58,58,70,67,56,71,68,57,
72,70,115,70,67,57,58,70,67,115,115,115,61,56,61,58,67,72,70,56,70,68,58,67,61,57,69,58,61,56,70,67,72,70,69,61,71,115,115,115,69,56,69,56,58,71,69,67,61,68,70,69,58,71,57,70,67,72,69,61,57,58,72,58,
68,67,115,70,72,67,72,57,57,67,56,115,69,61,71,70,72,72,72,71,68,69,72,58,68,71,71,61,61,72,68,71,61,58,72,72,115,115,70,115,56,72,61,70,58,58,61,57,70,71,67,71,56,57,56,57,68,58,68,70,58,71,70,72,
61,67,115,115,71,70,56,69,72,58,68,115,71,61,67,72,71,69,70,72,71,70,68,69,68,72,72,58,71,71,56,57,70,58,57,68,115,67,58,69,115,71,61,72,67,57,56,72,58,61,67,67,56,58,67,71,61,71,68,61,58,56,72,57,
56,67,58,115,115,67,68,57,68,72,115,115,68,71,69,58,67,61,69,58,57,56,72,71,70,58,67,67,58,57,61,67,61,67,72,115,115,61,67,69,70,115,71,67,72,72,56,61,56,67,61,58,56,58,57,70,61,56,56,58,72,72,68,61,
58,58,69,67,115,115,115,71,57,56,115,58,72,67,56,67,67,61,71,58,61,68,68,58,67,70,61,57,69,61,71,58,70,69,67,115,70,61,57,58,115,115,70,56,57,57,72,58,58,71,69,72,68,72,72,58,56,58,69,71,56,72,72,70,
61,72,67,56,70,57,115,115,115,115,115,68,71,72,56,67,69,67,61,70,61,69,56,67,72,58,56,71,58,72,58,71,56,61,68,115,57,70,69,72,115,56,61,70,56,61,57,61,68,69,71,69,58,61,56,72,61,67,71,58,61,58,68,57,
72,72,57,71,56,57,56,72,61,56,69,58,70,68,72,56,71,58,115,115,115,115,57,58,61,57,71,69,56,57,68,71,69,69,115,115,67,72,115,115,115,71,57,67,68,70,72,56,57,57,68,69,67,68,72,70,72,58,71,71,56,61,69,61,
67,57,69,58,70,71,68,61,57,72,70,68,68,69,58,56,72,115,115,56,67,115,115,67,72,58,67,61,58,57,70,58,68,70,115,69,61,115,115,71,70,69,56,61,69,67,67,56,68,72,58,69,56,70,61,61,72,61,58,68,72,71,58,71,
56,68,69,69,61,56,57,57,71,67,69,68,67,58,67,68,56,115,67,69,70,70,115,115,58,61,61,61,61,70,57,61,70,58,115,115,115,115,68,71,70,71,72,61,56,115,115,115,115,115,115,67,70,58,56,61,58,69,61,67,67,72,57,56,
58,71,61,61,68,56,67,70,67,61,70,70,69,61,67,72,68,115,71,69,72,61,57,115,115,115,115,69,61,61,67,69,68,69,69,58,72,71,71,72,56,71,69,56,56,115,70,58,70,71,115,115,58,71,71,58,61,58,57,61,70,69,56,56,
69,58,72,67,71,57,61,67,58,71,58,57,61,57,72,57,56,115,115,61,70,72,71,58,68,68,115,115,67,56,67,68,67,56,72,71,68,71,58,72,56,56,57,57,115,115,69,56,71,67,68,115,71,67,67,67,71,61,70,58,57,71,72,56,
68,72,69,58,70,71,56,57,67,69,69,56,72,57,67,57,70,70,115,67,67,72,72,56,57,69,70,115,61,56,69,69,58,70,61,70,56,72,70,69,56,70,56,72,115,70,71,69,72,72,115,115,68,58,72,70,71,70,70,72,56,70,56,72,
69,56,58,71,72,70,56,67,71,71,57,68,68,57,57,69,57,72,115,115,115,70,61,68,72,68,61,115,115,68,68,67,56,71,72,69,68,58,56,57,61,71,56,57,115,115,68,72,69,115,115,56,70,69,71,67,58,71,68,56,67,58,68,68,
67,69,56,57,61,57,68,58,68,68,70,72,72,57,68,70,58,58,57,71,115,115,67,67,67,70,61,72,115,56,61,70,70,69,58,69,68,71,68,56,69,67,56,56,71,115,115,69,115,115,58,69,72,68,68,58,61,61,57,71,71,69,71,61,
115,57,58,67,61,69,57,57,67,70,68,56,57,69,61,72,68,69,70,58,58,115,115,70,56,56,68,115,115,71,68,61,70,69,58,67,72,58,70,70,70,56,70,72,72,68,115,115,115,70,68,58,57,58,56,58,57,56,56,58,71,69,56,61,
67,56,61,56,72,70,67,58,67,58,57,67,67,61,68,70,72,68,69,70,68,67,115,115,58,70,115,115,68,67,56,71,70,56,69,70,68,57,57,58,70,71,72,72,71,58,68,58,56,58,56,70,70,67,61,71,57,61,56,70,56,57,69,72,
72,68,72,67,71,61,56,58,58,58,56,67,68,72,58,67,67,56,61,58,67,58,57,115,115,115,115,71,56,72,72,68,69,61,71,56,68,58,58,61,67,58,71,72,61,67,58,69,68,67,69,57,70,56,72,68,71,58,57,72,68,58,57,58,
57,71,68,72,56,68,68,61,57,61,56,58,71,57,58,58,57,69,69,71,67,71,72,69,68,72,69,61,72,58,69,70,67,57,57,70,68,70,56,56,69,70,115,115,115,69,61,70,56,71,69,67,70,56,61,71,56,68,69,68,57,57,58,68,
56,70,72,68,69,71,58,71,61,69,67,57,71,70,70,68,56,70,68,72,58,70,72,72,57,67,57,57,72,67,71,58,56,57,72,67,56,57,58,70,68,71,115,72,115,115,72,71,67,67,61,68,67,61,72,56,72,61,58,71,71,67,67,61,
61,70,56,72,67,72,71,56,70,71,67,57,68,61,56,61,71,70,68,56,67,56,61,67,71,69,70,56,57,56,56,71,57,69,56,61,67,67,57,61,69,56,115,56,67,115,115,115,72,68,56,61,72,68,56,68,72,67,68,69,68,57,57,57,
56,57,72,69,71,69,72,68,68,71,67,72,72,56,69,69,69,72,68,57,58,70,61,72,71,56,70,72,61,69,57,68,58,58,71,61,56,58,68,68,61,56,115,72,67,58,71,115,115,115,72,69,69,68,69,57,69,69,71,70,61,70,67,72,
68,70,71,67,69,67,56,61,56,71,69,71,69,57,61,61,57,71,68,68,72,67,70,67,71,58,68,72,71,70,58,68,57,58,68,57,67,61,67,56,68,56,115,115,115,70,72,71,71,115,115,72,61,57,58,69,72,61,70,68,68,57,56,67,
70,71,67,72,56,56,67,56,67,72,58,56,57,57,57,68,70,72,67,61,57,56,58,58,72,56,56,61,70,68,61,71,68,61,72,72,70,67,61,56,72,56,67,58,115,61,67,72,70,70,115,115,115,115,115,115,69,61,58,67,56,57,58,58,
56,57,72,56,58,71,71,70,68,72,69,115,115,115,68,68,71,72,56,58,58,69,58,72,56,68,70,61,68,72,56,57,67,68,72,58,71,61,58,61,67,72,58,56,115,115,69,67,70,70,67,56,68,70,115,115,115,115,67,69,70,67,68,69,
70,67,57,61,70,71,70,69,56,58,115,115,61,115,67,57,71,67,56,72,56,58,72,61,67,71,69,70,69,72,56,70,57,71,72,67,69,56,69,61,68,68,70,70,67,115,115,115,68,68,58,68,70,69,56,67,72,115,68,61,70,61,71,57,
56,70,57,67,58,58,56,68,72,115,115,67,69,115,70,72,69,70,61,71,72,72,58,68,72,58,69,70,69,69,67,68,71,68,61,69,61,72,61,67,57,72,61,68,67,56,71,115,115,115,115,115,115,115,115,115,115,115,67,61,61,56,68,68,
71,67,71,71,58,68,68,72,56,115,57,72,67,115,115,56,61,70,56,56,68,72,61,69,71,58,69,61,70,67,61,61,69,58,68,57,57,67,71,72,56,67,70,67,56,71,56,69,72,71,57,61,69,70,58,68,70,56,72,69,67,69,58,67,
72,69,69,67,58,56,58,57,58,115,57,57,58,58,115,115,61,71,71,69,57,72,69,67,70,58,56,56,67,70,68,71,56,61,71,70,56,70,68,68,58,72,71,72,57,71,72,70,68,57,61,56,58,72,71,61,57,57,56,70,115,115,115,67,
67,69,57,68,58,68,71,72,69,115,61,68,71,70,67,115,115,70,56,72,71,58,67,68,57,71,61,69,61,72,70,71,57,68,58,57,70,67,58,69,71,69,56,61,57,57,72,70,70,70,57,61,70,57,61,61,68,72,61,115,115,70,115,70,
58,56,71,70,69,71,58,72,61,115,115,67,57,69,67,72,115,56,69,68,68,71,61,57,68,67,61,56,58,71,68,58,58,70,69,68,61,67,61,61,57,68,67,56,57,58,68,70,56,68,58,67,68,67,68,72,71,67,58,115,67,70,115,115,
57,68,67,58,68,56,71,71,68,72,115,115,71,72,71,115,115,56,56,68,56,72,58,68,61,58,68,61,71,57,70,67,57,72,71,68,72,68,70,56,57,57,58,71,61,71,70,58,70,58,68,61,72,58,70,68,68,61,57,115,69,72,58,115,
57,72,70,58,67,57,61,71,68,72,70,115,115,115,115,115,58,68,72,69,56,71,69,72,72,71,115,115,115,115,72,71,67,56,70,58,72,70,69,58,56,72,67,70,71,57,67,71,71,72,61,58,68,61,70,68,56,67,69,115,115,58,58,115,
57,56,70,67,56,56,71,71,67,58,70,68,71,72,57,58,71,67,72,56,71,70,67,67,69,115,115,57,70,115,115,115,56,56,70,68,61,67,56,57,68,58,72,56,56,61,58,70,58,70,69,68,71,61,56,67,56,72,61,71,115,58,58,69,
57,56,56,58,57,57,67,70,67,72,72,68,56,56,58,56,71,70,67,58,67,61,67,57,115,115,71,57,72,71,61,115,115,115,72,68,71,58,68,71,61,72,71,70,72,67,68,70,58,72,58,71,58,57,58,72,69,69,69,68,115,115,61,115,
70,68,71,56,67,58,57,70,67,72,56,69,61,68,72,67,61,58,67,71,57,72,57,58,115,67,70,68,67,57,69,70,69,115,61,56,58,67,56,71,61,61,69,70,67,67,58,67,56,70,68,58,72,67,72,71,72,61,71,72,72,115,115,115,
72,70,57,58,68,69,56,68,56,68,58,57,61,61,67,57,68,57,58,70,61,71,69,61,115,115,68,68,57,61,58,71,72,115,71,71,61,70,69,56,72,67,69,57,71,57,71,56,61,71,56,69,58,57,70,56,57,70,57,72,70,61,72,68,
70,58,72,61,71,56,70,61,70,71,67,58,67,68,57,70,71,70,72,56,69,69,57,57,72,115,115,115,115,57,56,115,115,115,56,69,71,57,71,71,56,70,57,57,72,67,70,56,69,72,61,69,70,57,58,72,57,58,57,61,58,70,56,70,
69,69,67,61,58,68,68,58,69,58,57,69,72,68,67,69,61,67,68,58,61,72,61,70,71,71,69,58,115,115,115,115,61,68,67,72,58,61,70,71,72,68,69,61,67,57,70,68,58,61,72,57,61,61,67,67,61,72,57,71,68,69,56,67,
57,68,61,67,69,69,56,67,72,67,69,68,57,58,71,71,70,56,68,69,56,70,56,58,61,61,67,57,71,61,61,61,57,70,56,56,58,57,58,56,58,61,67,67,57,69,70,72,67,58,71,71,72,57,69,72,68,67,58,57,58,57,70,72
</data>
 </layer>
 <layer id="8" name="Swamp" width="64" height="48">
  <data encoding="csv">
0,0,0,0,0,0,0,0,0,0,0,0,0,0,0,0,0,0,0,0,0,0,0,0,0,0,0,0,0,0,0,0,0,0,0,0,0,0,0,0,0,0,0,0,0,0,0,0,0,0,0,0,0,0,0,0,0,0,0,0,0,0,0,0,
0,0,0,0,0,0,0,0,0,0,0,0,0,0,0,0,0,0,0,0,0,0,0,0,0,0,0,0,0,0,0,0,0,0,0,0,0,0,0,0,0,0,0,0,0,0,0,0,0,0,0,0,0,0,0,0,0,0,0,0,0,0,0,0,
0,0,0,0,0,0,0,0,0,0,0,0,0,0,0,0,0,0,0,0,0,0,0,0,0,0,0,0,0,0,0,0,0,0,0,0,0,0,0,0,0,0,0,0,0,0,0,0,0,0,0,0,0,0,0,0,0,0,0,0,0,0,0,0,
0,0,0,0,0,0,0,0,0,0,0,0,0,0,0,0,0,0,0,0,0,0,0,0,0,0,0,0,0,0,0,0,0,0,0,0,0,0,0,0,0,0,0,0,0,0,0,0,0,0,0,0,0,0,0,0,0,0,0,0,0,0,0,0,
0,0,0,0,0,0,0,0,0,0,0,0,0,0,0,0,0,0,0,0,0,0,0,0,0,0,0,0,0,0,0,0,0,0,0,0,0,0,0,0,0,0,0,0,0,0,0,0,0,0,0,0,0,0,0,0,0,0,0,0,0,0,0,0,
0,0,0,0,0,0,0,0,0,0,0,0,0,0,0,0,0,0,0,0,0,0,0,0,0,0,0,0,0,0,0,0,0,0,0,0,0,0,0,0,0,0,0,0,0,0,0,0,0,0,0,0,0,0,0,0,0,0,0,0,0,0,0,0,
0,0,0,0,0,0,0,0,0,0,0,0,0,0,0,0,0,0,0,0,0,0,0,0,0,0,0,0,0,0,0,0,0,0,0,0,0,0,0,0,0,0,0,0,0,0,0,0,0,0,0,0,0,0,0,0,0,0,0,0,0,0,0,0,
0,0,0,17,24,24,24,24,18,0,0,0,0,0,0,0,0,0,0,0,0,0,0,0,0,0,0,0,0,0,0,0,0,0,0,0,0,0,0,0,0,0,0,0,0,0,0,0,0,0,0,0,0,0,0,0,0,0,0,0,0,0,0,0,
0,0,17,25,115,115,115,115,23,18,0,0,0,0,0,0,0,0,0,0,0,0,0,0,0,0,0,0,0,0,0,0,0,0,0,0,0,0,0,0,0,0,0,0,0,0,0,0,0,0,0,0,0,0,0,0,0,0,0,0,0,0,0,0,
0,0,14,115,115,115,115,115,115,23,24,18,0,0,0,0,0,0,0,0,0,0,0,0,0,0,0,0,0,0,0,0,0,0,0,0,0,17,24,18,0,0,0,0,0,0,0,0,0,0,0,0,0,0,0,0,0,0,0,0,0,0,0,0,
0,0,14,115,115,115,115,115,115,115,115,12,0,0,0,0,0,0,0,0,0,0,0,0,0,0,0,0,0,0,0,0,0,0,0,0,17,25,116,23,18,0,0,0,0,0,0,0,0,0,0,0,0,0,0,0,0,0,0,0,0,0,0,0,
0,0,28,3,115,115,115,115,115,115,115,12,0,0,0,0,0,0,0,0,0,0,0,0,0,0,0,0,0,0,0,0,0,0,0,0,14,116,116,116,23,18,0,0,0,0,0,0,0,0,0,0,0,0,0,0,0,0,0,0,0,0,0,0,
0,0,0,28,3,115,115,115,115,115,1,29,0,0,0,0,0,0,0,0,0,0,0,0,0,0,0,0,0,0,0,0,0,0,0,17,25,115,116,116,116,12,0,0,0,0,0,0,0,0,0,0,0,0,0,0,0,0,0,0,0,0,0,0,
0,0,0,0,28,2,3,115,115,115,12,0,0,0,0,0,0,0,0,0,0,0,0,0,0,0,0,0,0,0,0,0,0,0,0,14,116,116,116,116,1,29,0,0,0,0,0,0,0,0,0,0,0,0,0,0,0,0,0,0,0,0,0,0,
0,0,0,0,0,0,28,2,2,2,29,0,0,0,0,0,0,0,0,0,0,0,0,0,0,0,0,0,0,0,0,0,0,0,0,14,116,116,116,116,12,0,0,0,0,0,0,0,0,0,0,0,0,0,0,0,0,0,0,0,0,0,0,0,
0,0,0,0,0,0,0,0,0,0,0,0,0,0,0,0,0,0,17,24,24,18,0,0,0,0,0,0,0,0,0,0,0,0,17,25,116,116,1,2,29,0,0,0,0,0,0,0,0,0,0,0,0,0,0,0,0,0,0,0,0,0,0,0,
0,0,0,0,0,0,0,0,0,0,0,0,0,0,0,0,0,17,25,115,115,23,18,0,0,0,0,0,0,0,0,0,0,0,14,116,116,1,29,0,0,0,0,0,0,0,0,0,0,0,0,0,0,0,0,0,0,0,0,0,0,0,0,0,
0,0,0,0,0,0,0,0,0,0,0,0,0,0,0,0,0,14,115,115,115,115,23,18,0,0,0,0,0,0,0,0,0,0,28,2,2,29,0,0,0,0,0,0,0,17,24,24,24,24,18,0,0,0,0,0,0,0,0,0,0,0,0,0,
0,0,0,0,0,0,0,0,0,0,0,0,0,0,0,0,0,14,115,115,115,115,115,23,24,24,18,0,0,0,0,0,0,0,0,0,0,0,0,0,0,0,0,0,0,14,115,115,115,115,23,18,0,0,0,0,0,0,0,0,0,0,0,0,
0,0,0,0,0,0,0,0,0,0,0,0,0,0,0,0,0,28,3,115,115,115,115,115,115,115,23,18,0,0,0,0,0,0,0,0,0,0,0,0,0,0,0,0,17,25,115,115,115,115,115,12,0,0,0,0,0,0,0,0,0,0,0,0,
0,0,0,0,0,0,0,0,0,0,0,0,0,0,0,0,0,0,14,115,115,115,115,115,115,115,115,12,0,0,0,0,0,0,0,0,0,0,0,0,0,0,0,0,14,115,115,115,115,115,1,29,0,0,0,0,0,0,0,0,0,0,0,0,
0,0,0,0,0,0,0,0,0,0,0,0,0,0,0,0,0,0,28,2,3,115,115,115,115,115,115,23,18,0,0,0,0,0,0,0,0,0,0,0,0,0,0,0,28,3,115,115,115,1,29,0,0,0,0,0,0,0,0,0,0,0,0,0,
0,0,0,0,0,0,0,0,0,0,0,0,0,0,0,0,0,0,0,0,28,3,115,115,115,115,115,115,12,0,0,0,0,0,0,0,0,0,0,0,0,0,0,0,0,28,3,115,1,29,0,0,0,0,0,0,0,0,0,0,0,0,0,0,
0,0,0,0,0,0,0,0,0,0,0,0,0,0,0,0,0,0,0,0,0,28,3,115,115,115,115,1,29,0,0,0,0,0,0,0,0,0,0,0,0,0,0,0,0,0,28,2,29,0,0,0,0,0,0,0,0,0,0,0,0,0,0,0,
0,0,0,0,0,0,0,0,0,0,0,0,0,0,0,0,0,0,0,0,0,0,28,3,115,115,1,29,0,0,0,0,0,0,0,0,0,0,0,0,0,0,0,0,0,0,0,0,0,0,0,0,0,0,0,0,0,0,0,0,0,0,0,0,
0,0,0,0,0,0,0,0,0,0,0,0,0,0,0,0,0,0,0,0,0,0,0,28,2,2,29,0,0,0,0,0,0,0,0,0,0,0,0,0,0,0,0,0,0,0,0,0,0,0,0,0,0,0,0,0,0,0,0,0,0,0,0,0,
0,0,0,0,0,0,0,0,0,0,0,0,0,0,0,0,0,0,0,0,0,0,0,0,0,0,0,0,0,0,0,0,0,0,0,0,0,0,0,0,0,0,17,24,18,0,0,0,0,0,0,0,0,0,0,0,0,0,0,0,0,0,0,0,
0,0,0,0,0,0,0,0,0,0,0,0,0,0,0,0,0,0,0,0,0,0,0,0,0,0,0,0,0,0,0,0,0,0,0,0,0,0,0,0,0,0,14,115,23,18,0,0,0,0,0,0,0,0,0,0,0,0,0,0,0,0,0,0,
0,0,0,0,0,0,0,0,0,0,0,0,0,0,0,0,0,0,0,0,0,0,0,0,0,0,0,0,0,0,0,0,0,0,0,0,0,0,0,0,0,0,14,115,115,23,24,18,0,0,0,0,0,0,0,0,0,0,0,0,0,0,0,0,
0,0,0,0,0,0,0,0,0,0,0,0,0,0,0,0,0,0,0,0,0,0,0,0,0,0,0,0,0,0,0,0,0,0,0,0,0,0,0,0,0,0,14,115,115,115,115,23,24,18,0,0,0,0,0,0,0,0,0,0,0,0,0,0,
0,0,0,0,0,0,0,0,0,0,0,0,0,0,0,0,0,0,0,0,0,0,0,0,0,0,0,0,0,0,0,0,0,0,0,0,0,0,0,0,0,0,28,2,3,115,115,115,115,23,18,0,0,0,0,0,0,0,0,0,0,0,0,0,
0,0,0,0,0,0,0,0,0,0,0,0,0,0,0,0,0,0,0,0,0,0,0,0,0,0,0,0,0,0,0,0,0,0,0,0,0,0,0,0,0,0,0,0,14,115,115,115,115,115,23,24,24,24,24,18,0,0,0,0,0,0,0,0,
0,0,0,0,0,0,0,0,0,0,0,17,24,18,0,0,0,0,0,0,0,0,0,0,0,0,0,0,0,0,0,0,0,0,0,0,0,0,0,0,0,0,0,0,28,3,115,115,115,115,115,115,115,115,115,23,24,18,0,0,0,0,0,0,
0,0,0,0,0,0,0,0,0,0,17,25,115,12,0,0,0,0,0,0,0,0,0,0,0,0,0,0,0,0,0,0,0,0,0,0,0,0,0,0,0,0,0,0,0,28,2,3,115,115,115,115,115,115,115,115,115,12,0,0,0,0,0,0,
0,0,0,0,0,0,0,0,0,17,25,115,115,12,0,0,0,0,0,0,0,0,0,0,0,0,0,0,0,0,0,0,0,0,0,0,0,0,0,0,0,0,0,0,0,0,0,28,2,2,2,2,2,2,2,2,2,29,0,0,0,0,0,0,
0,0,0,0,0,0,0,0,0,14,115,115,115,23,18,0,0,0,0,0,0,0,0,0,0,0,0,0,0,0,0,0,0,0,0,0,0,0,0,0,0,0,0,0,0,0,0,0,0,0,0,0,0,0,0,0,0,0,0,0,0,0,0,0,
0,0,0,0,0,0,0,0,0,14,115,115,115,115,23,18,0,0,0,0,0,0,0,0,0,0,0,0,0,0,0,0,0,0,0,0,0,0,0,0,0,0,0,0,0,0,0,0,0,0,0,0,0,0,0,0,0,0,0,0,17,24,18,0,
0,0,0,0,0,0,0,0,0,14,115,115,115,115,115,23,18,0,0,0,0,0,0,0,0,0,0,0,0,0,0,0,0,0,0,0,0,0,0,0,0,0,0,0,0,0,0,0,0,0,0,0,0,0,0,0,0,0,0,17,25,115,12,0,
0,0,0,0,0,0,0,0,0,28,3,115,115,115,115,115,12,0,0,0,0,0,0,0,0,0,0,0,0,0,0,0,0,0,0,0,0,0,0,0,0,0,0,0,0,0,0,0,0,0,0,0,0,0,0,0,0,0,0,14,115,115,23,18,
0,0,0,0,0,0,0,0,0,0,28,3,115,115,115,1,29,0,0,0,0,0,0,0,0,0,0,0,0,0,0,0,0,0,0,0,0,0,0,0,0,0,0,0,0,0,0,0,0,0,0,0,0,0,0,0,0,0,0,14,115,115,115,12,
0,0,0,0,0,0,0,0,0,0,0,28,2,2,2,29,0,0,0,0,0,0,0,0,0,0,17,24,24,18,0,0,0,0,0,0,0,0,0,0,0,0,0,0,0,0,0,0,0,0,0,0,0,0,0,0,0,0,0,28,3,115,115,23,
0,0,0,0,0,0,0,0,0,0,0,0,0,0,0,0,0,0,0,0,0,0,0,0,0,17,25,115,115,23,24,18,0,0,0,0,0,0,0,0,0,0,0,0,0,0,0,0,0,0,0,0,0,0,0,0,0,0,0,0,14,115,115,115,
0,0,0,0,0,0,0,0,0,0,0,0,0,0,0,0,0,0,0,0,0,0,0,0,17,25,115,115,115,115,115,23,24,18,0,0,0,0,0,0,0,0,0,0,0,0,0,0,0,0,0,0,0,0,0,0,0,0,0,0,28,3,115,1,
0,0,0,0,0,0,0,0,0,0,0,0,0,0,0,0,0,0,0,0,0,0,0,0,14,115,115,115,115,115,115,115,115,12,0,0,0,0,0,0,0,0,0,0,0,0,0,0,0,0,0,0,0,0,0,0,0,0,0,0,0,28,2,29,
0,0,0,0,0,0,0,0,0,0,0,0,0,0,0,0,0,0,0,0,0,0,0,0,28,3,115,115,115,115,115,115,115,12,0,0,0,0,0,0,0,0,0,0,0,0,0,0,0,0,0,0,0,0,0,0,0,0,0,0,0,0,0,0,
0,0,0,0,0,0,0,0,0,0,0,0,0,0,0,0,0,0,0,0,0,0,0,0,0,28,2,2,3,115,115,1,2,29,0,0,0,0,0,0,0,0,0,0,0,0,0,0,0,0,0,0,0,0,0,0,0,0,0,0,0,0,0,0,
0,0,0,0,0,0,0,0,0,0,0,0,0,0,0,0,0,0,0,0,0,0,0,0,0,0,0,0,28,2,2,29,0,0,0,0,0,0,0,0,0,0,0,0,0,0,0,0,0,0,0,0,0,0,0,0,0,0,0,0,0,0,0,0,
0,0,0,0,0,0,0,0,0,0,0,0,0,0,0,0,0,0,0,0,0,0,0,0,0,0,0,0,0,0,0,0,0,0,0,0,0,0,0,0,0,0,0,0,0,0,0,0,0,0,0,0,0,0,0,0,0,0,0,0,0,0,0,0
</data>
 </layer>
 <layer id="6" name="Road" width="64" height="48">
  <data encoding="csv">
0,0,0,0,0,0,0,0,0,0,0,0,0,0,0,0,0,0,0,0,0,0,0,0,0,0,0,0,0,0,0,0,0,0,0,0,0,0,0,0,0,0,0,0,0,0,0,0,0,0,0,0,0,0,0,0,0,0,0,0,0,0,0,0,
0,0,0,0,0,0,0,0,0,0,0,0,0,0,0,0,0,0,0,0,0,0,0,0,0,0,0,0,0,0,0,0,0,0,0,0,0,0,0,0,0,0,0,0,0,0,0,0,0,0,0,0,0,0,0,0,0,0,0,0,0,0,0,0,
0,0,0,0,0,0,0,0,0,0,0,0,0,0,0,0,0,0,0,0,0,0,0,0,0,0,0,0,0,0,0,0,0,0,0,0,0,0,0,0,0,0,0,0,0,0,0,0,0,0,0,0,0,0,0,0,0,0,0,0,0,0,0,0,
0,0,0,0,0,0,0,0,0,0,0,0,0,0,0,0,0,0,0,0,0,0,0,0,0,0,0,0,0,0,0,0,0,0,0,0,0,0,0,0,0,0,0,0,0,0,0,0,0,0,0,0,0,0,0,0,0,0,0,0,0,0,0,0,
0,0,0,0,0,0,0,0,0,0,0,0,0,0,0,0,0,0,0,0,0,0,0,0,0,0,0,0,0,0,0,0,0,0,0,0,0,0,0,0,0,0,0,0,0,0,0,0,0,0,0,0,0,0,0,0,0,0,0,0,0,0,0,0,
0,0,0,0,0,0,0,0,0,0,0,0,0,0,0,0,0,0,0,0,0,0,0,0,0,0,0,0,0,0,0,0,0,344,345,345,345,345,345,345,346,0,0,0,0,0,0,0,0,0,0,0,0,0,0,0,0,0,0,0,0,0,0,0,
0,0,0,0,0,0,0,0,0,0,0,0,0,0,0,0,0,0,0,0,0,0,0,0,0,0,0,0,0,0,0,344,345,372,356,412,356,356,356,410,371,345,345,346,0,0,0,0,0,0,0,0,0,0,0,0,0,0,0,0,0,0,0,0,
0,0,0,0,0,0,0,0,0,0,0,0,0,0,0,0,0,0,0,0,0,0,0,0,0,0,0,0,0,0,344,372,356,356,356,356,356,356,356,356,356,411,356,371,346,0,0,0,0,0,0,0,0,0,0,0,0,0,0,0,0,0,0,0,
0,0,0,0,0,0,0,0,0,0,0,0,0,0,0,0,0,0,0,0,0,0,0,0,0,0,0,0,0,344,372,356,356,356,410,360,367,367,361,356,356,356,356,410,371,346,0,0,0,0,0,0,0,0,0,388,0,0,0,0,0,0,0,0,
0,0,0,0,0,0,0,0,0,0,0,0,0,0,0,0,0,0,0,0,0,0,0,0,0,0,0,0,0,355,356,412,356,360,367,368,0,0,366,367,367,361,356,356,356,357,0,0,0,0,0,0,0,0,0,0,0,0,0,0,0,0,0,0,
0,0,0,0,0,0,0,0,0,0,0,0,0,0,0,0,0,0,0,0,0,0,0,0,0,0,0,0,344,372,356,356,360,368,0,0,0,0,0,0,0,366,361,356,356,357,0,0,0,0,0,0,0,0,0,0,0,0,0,0,0,0,0,0,
0,0,0,0,0,0,0,0,0,0,0,0,0,0,0,344,345,345,345,345,345,345,345,345,345,345,345,345,372,356,356,356,357,0,0,0,0,0,0,0,0,0,355,356,411,357,0,0,0,0,0,0,0,0,0,0,0,0,0,0,0,0,0,0,
0,0,0,0,0,0,0,0,0,0,0,0,0,344,345,372,356,356,356,356,401,356,356,356,356,410,356,356,356,401,356,360,368,0,0,0,0,0,0,0,0,0,355,356,356,357,0,0,0,0,0,0,344,345,345,345,345,345,345,345,345,345,345,345,
0,0,0,0,0,0,0,0,0,0,0,0,344,372,412,356,356,356,356,356,356,356,356,356,412,356,356,356,356,356,356,357,0,0,0,0,0,0,0,0,0,0,355,356,356,357,0,0,0,0,0,344,372,401,356,356,356,356,410,356,356,356,400,356,
0,0,0,0,0,0,0,0,0,0,0,344,372,356,356,356,356,360,367,367,367,367,367,367,367,367,367,361,356,356,360,368,0,0,0,0,0,0,420,0,0,344,372,356,356,371,345,345,345,345,345,372,356,356,356,356,401,356,356,356,400,356,356,356,
0,0,0,0,0,0,0,0,0,0,344,372,356,356,356,360,367,368,409,409,409,409,409,409,409,409,409,355,356,356,371,346,409,0,0,0,0,0,420,409,409,355,356,356,400,356,356,356,410,356,356,356,356,356,360,367,367,367,367,367,367,367,367,367,
0,0,0,0,0,0,0,0,0,0,355,356,356,410,360,368,0,0,0,0,0,0,0,409,409,409,409,355,401,356,356,371,346,409,409,0,0,0,409,344,345,372,356,356,356,400,356,356,356,356,400,356,410,360,368,0,0,0,0,0,0,0,0,0,
0,0,0,0,0,0,0,0,0,0,355,401,356,360,368,0,0,0,0,0,0,0,0,0,0,0,0,355,356,356,356,410,371,346,409,409,409,409,344,372,356,410,356,360,367,367,367,367,367,367,367,367,367,368,0,0,0,0,0,0,0,0,0,0,
0,0,0,0,0,0,0,0,0,0,355,356,356,357,0,0,0,0,0,0,0,0,0,0,0,0,0,366,361,356,356,356,356,371,345,345,345,345,372,356,356,411,356,357,0,0,0,0,0,0,0,0,0,0,0,0,0,0,0,0,0,0,0,0,
0,0,0,0,0,0,0,0,0,0,355,356,356,371,345,346,0,0,0,0,0,0,0,0,0,0,0,0,366,367,361,400,356,356,356,356,401,356,356,356,356,360,367,368,0,0,0,0,0,0,0,0,0,0,0,0,0,0,0,0,0,0,0,0,
0,0,0,0,0,0,0,0,0,0,355,356,356,356,356,371,345,346,0,0,0,0,0,0,0,0,0,0,0,0,366,367,361,356,356,356,410,356,356,356,360,368,0,0,0,0,0,0,0,0,0,0,0,0,0,0,0,0,0,0,0,0,0,0,
0,0,0,0,0,0,0,0,0,0,366,361,356,356,356,401,356,371,346,0,0,0,0,0,0,0,0,0,0,0,0,0,366,367,367,367,367,367,367,367,368,0,0,0,0,0,0,0,0,0,0,0,0,0,0,0,0,0,0,0,0,0,0,0,
0,0,0,0,0,0,0,0,0,0,0,366,361,356,356,356,356,356,371,346,0,0,0,0,0,0,0,0,0,0,0,0,0,0,0,0,0,0,0,0,0,0,0,0,0,0,0,0,0,0,0,0,0,0,0,0,0,0,0,0,0,0,0,0,
0,0,0,0,0,0,0,0,0,0,0,0,366,367,367,361,356,356,356,357,0,0,0,0,0,0,0,0,0,0,0,0,0,0,0,0,0,0,0,0,0,0,0,0,0,0,0,0,0,0,0,0,0,0,0,0,0,0,0,0,0,0,0,0,
0,0,0,0,0,0,0,0,0,0,0,0,409,409,409,366,361,356,400,357,0,0,0,0,0,0,0,0,0,0,0,0,0,0,0,0,0,0,0,0,0,0,0,0,0,0,0,0,0,0,0,0,0,0,0,0,0,0,0,0,0,0,0,0,
0,0,0,0,0,0,0,0,0,0,0,0,409,409,409,409,355,356,356,357,0,0,0,0,0,0,0,0,0,0,0,0,0,0,0,0,0,0,0,0,0,0,0,0,0,0,0,0,0,0,0,0,0,0,0,0,0,0,0,0,0,0,0,0,
0,0,0,0,0,0,0,0,0,0,0,0,409,0,409,344,372,356,356,357,0,0,0,0,0,0,0,0,0,0,0,0,0,0,0,0,0,0,0,0,0,0,0,0,0,0,0,0,0,0,0,0,0,0,0,0,0,0,0,0,0,0,0,0,
0,0,0,0,0,0,0,0,0,0,0,0,409,0,409,355,410,356,356,357,0,0,0,0,0,0,0,0,0,0,0,0,0,0,0,0,0,0,0,0,0,0,0,0,0,0,0,0,0,0,0,0,0,0,0,0,0,0,0,0,0,0,0,0,
0,0,0,0,0,0,0,0,0,0,0,0,409,0,344,372,356,356,356,357,0,0,0,0,0,0,0,0,0,0,0,0,0,0,0,0,0,0,0,0,0,0,0,0,0,0,0,0,0,0,0,0,0,0,0,0,0,0,0,0,0,0,0,0,
0,0,0,0,0,0,0,0,0,0,0,0,409,344,372,356,356,356,360,368,0,0,0,0,0,0,0,0,0,0,0,0,0,0,0,0,0,0,0,0,0,0,0,0,0,0,0,0,0,0,0,0,0,0,0,0,0,0,0,0,0,0,0,0,
0,0,0,0,0,0,0,0,0,0,0,0,0,355,356,356,410,360,368,0,0,0,0,0,0,0,0,0,0,0,0,0,0,0,0,0,0,0,0,0,0,0,0,0,0,0,0,0,0,0,0,0,0,0,0,0,0,0,0,0,0,0,0,0,
0,0,0,0,0,0,0,0,0,0,0,0,0,355,356,411,360,368,0,0,0,0,0,0,0,0,0,0,0,0,0,0,0,0,0,0,0,0,0,0,0,0,0,0,0,0,0,0,0,0,0,0,0,0,0,0,0,0,0,0,0,0,0,0,
0,0,0,0,0,0,0,0,0,0,0,0,0,355,411,356,357,409,0,0,0,0,0,0,0,0,0,0,0,0,0,0,0,0,0,0,0,0,0,0,0,0,0,0,0,0,0,0,0,0,0,0,0,0,0,0,0,0,0,0,0,0,0,0,
0,0,0,0,0,0,0,0,0,0,0,0,0,355,356,356,371,346,409,0,0,0,0,0,0,0,0,0,0,0,0,0,0,0,0,0,0,0,0,0,0,0,0,0,0,0,0,0,0,0,0,0,0,0,0,0,0,0,0,0,0,0,0,0,
0,0,0,0,0,0,0,0,0,0,0,0,0,355,412,356,356,371,346,0,0,0,0,0,0,0,0,0,0,0,0,0,0,0,0,0,0,0,0,0,0,0,0,0,0,0,344,345,345,345,345,345,345,345,345,345,345,346,0,0,0,0,0,0,
0,0,0,0,0,0,0,0,0,0,0,0,0,366,361,356,356,412,371,346,0,0,0,0,0,0,0,0,0,0,0,0,0,0,0,0,0,344,345,345,345,345,345,345,345,346,355,356,356,412,356,401,356,356,400,356,356,371,346,0,0,0,0,0,
0,0,0,0,0,0,0,0,0,0,0,0,0,0,366,361,356,356,356,371,346,409,409,409,409,409,409,0,0,0,0,0,0,0,0,0,344,372,401,356,356,356,356,356,411,371,372,356,412,356,356,356,356,356,356,401,356,410,371,346,0,0,0,0,
0,0,0,0,0,0,0,0,0,0,0,0,0,0,0,366,361,410,356,356,371,345,345,345,345,345,345,345,345,345,345,345,345,345,345,345,372,410,356,356,356,412,356,410,356,356,356,356,401,360,367,367,367,367,367,361,356,356,356,357,0,0,0,0,
0,0,0,0,0,0,0,0,0,0,0,0,0,0,0,0,366,361,356,356,356,356,356,401,356,356,356,356,356,356,356,356,356,356,412,356,356,356,356,360,367,367,367,361,400,356,356,356,360,368,0,0,0,0,0,366,361,356,356,357,0,0,0,0,
0,0,0,0,0,0,0,0,0,0,0,0,0,0,0,0,0,366,361,356,356,410,356,356,356,356,356,412,356,356,356,401,356,356,356,410,356,356,360,368,0,0,0,366,367,367,367,367,368,0,0,0,0,0,0,0,355,356,401,357,0,0,0,0,
0,0,0,0,0,0,0,0,0,0,0,0,0,0,0,0,0,0,366,367,367,367,367,367,367,367,367,367,367,367,367,367,367,367,367,367,367,367,368,0,0,0,0,0,0,0,0,0,0,0,0,0,0,0,0,0,355,411,356,357,0,0,0,0,
0,0,0,0,0,0,0,0,0,0,0,0,0,0,0,0,0,0,0,0,0,0,0,0,0,0,0,0,0,0,0,0,0,0,0,0,0,0,0,0,0,0,0,0,0,0,0,0,0,0,0,0,0,0,0,0,355,356,356,357,0,0,0,0,
0,0,0,0,0,0,0,0,0,0,0,0,0,0,0,0,0,0,0,0,0,0,0,0,0,0,0,0,0,0,0,0,0,0,0,0,0,0,0,0,0,0,0,0,0,0,0,0,0,0,0,0,0,0,0,0,355,356,356,357,0,0,0,0,
0,0,0,0,0,0,0,0,0,0,0,0,0,0,0,0,0,0,0,0,0,0,0,0,0,0,0,0,0,0,0,0,0,0,0,0,0,0,0,0,0,0,0,0,0,0,0,0,0,0,0,0,0,0,0,0,355,356,356,357,0,0,0,0,
0,0,0,0,0,0,0,0,0,0,0,0,0,0,0,0,0,0,0,0,0,0,0,0,0,0,0,0,0,0,0,0,0,0,0,0,0,0,0,0,0,0,0,0,0,0,0,0,0,0,0,0,0,0,0,0,355,356,356,357,0,0,0,0,
0,0,0,0,0,0,0,0,0,0,0,0,0,0,0,0,0,0,0,0,0,0,0,0,0,0,0,0,0,0,0,0,0,0,0,0,0,0,0,0,0,0,0,0,0,0,0,0,0,0,0,0,0,0,0,0,0,0,0,0,0,0,0,0,
0,0,0,0,0,0,0,0,0,0,0,0,0,0,0,0,0,0,0,0,0,0,0,0,0,0,0,0,0,0,0,0,0,0,0,0,0,0,0,0,0,0,0,0,0,0,0,0,0,0,0,0,0,0,0,0,0,0,0,0,0,0,0,0,
0,0,0,0,0,0,0,0,0,0,0,0,0,0,0,0,0,0,0,0,0,0,0,0,0,0,0,0,0,0,0,0,0,0,0,0,0,0,0,0,0,0,0,0,0,0,0,0,0,0,0,0,0,0,0,0,0,0,0,0,0,0,0,0
</data>
 </layer>
 <layer id="3" name="Hill" width="64" height="48">
  <data encoding="csv">
0,0,0,0,0,0,245,246,273,257,257,257,257,257,257,257,257,257,257,257,257,257,257,257,257,257,257,257,257,257,257,257,257,257,257,258,0,0,0,0,0,0,0,0,0,0,0,0,256,257,257,257,257,257,257,257,257,257,257,257,257,257,257,272,
0,0,0,0,0,0,267,262,257,257,257,257,257,257,257,257,257,257,257,257,257,257,257,257,257,257,257,257,257,257,257,257,261,268,268,269,0,0,0,0,0,0,0,0,0,0,0,0,267,262,257,257,257,257,257,257,257,257,261,268,268,262,257,257,
0,0,0,0,0,0,0,267,268,262,257,257,257,261,268,268,262,257,257,257,257,257,257,257,257,257,257,257,257,257,257,261,269,0,0,0,0,0,0,0,0,0,0,0,0,0,0,0,0,267,262,257,257,257,257,257,257,257,258,0,0,267,262,257,
0,0,0,0,0,0,0,0,0,256,257,257,261,269,0,245,273,257,257,257,257,257,257,257,257,257,257,257,257,261,268,269,0,0,0,0,0,0,0,0,0,0,0,0,0,0,0,0,0,0,267,268,262,257,257,257,257,257,272,247,0,0,256,257,
0,0,0,0,0,0,0,0,0,256,257,257,258,0,0,267,262,257,257,257,257,257,257,257,257,261,268,268,268,269,0,0,0,0,0,0,0,0,0,0,0,0,0,0,0,0,0,0,0,0,0,0,256,257,257,257,261,268,268,269,0,0,256,257,
0,0,0,0,0,0,0,0,0,256,257,257,258,0,0,0,256,257,257,257,257,257,257,261,268,269,0,0,0,0,0,0,0,0,0,0,0,0,0,0,0,0,0,0,0,0,0,0,0,0,0,0,256,257,257,257,258,0,0,0,0,0,256,257,
0,0,0,0,0,0,0,0,0,267,262,257,272,246,246,247,267,262,257,257,257,261,268,269,0,0,0,0,0,0,0,0,0,0,0,0,0,0,0,0,0,0,0,0,0,0,0,0,0,0,0,0,256,257,257,257,258,0,0,0,0,245,273,257,
0,0,0,0,0,0,0,0,0,0,267,268,268,268,262,272,246,273,257,257,257,258,0,0,0,0,0,0,0,0,0,0,0,0,0,0,0,0,0,0,0,0,0,0,0,0,0,0,0,0,0,245,273,257,257,257,272,247,0,245,246,273,257,261,
0,0,0,0,0,0,0,0,0,0,0,0,0,0,267,262,257,257,261,268,268,269,0,0,0,0,0,0,0,0,0,0,0,0,0,0,0,0,0,0,0,0,0,0,0,0,0,0,0,0,0,256,257,257,257,257,257,272,246,273,257,257,261,269,
0,0,0,0,0,0,0,0,0,0,0,0,0,0,0,267,268,268,269,0,0,0,0,0,0,0,0,0,0,0,0,0,0,0,0,0,0,0,0,0,0,0,0,0,0,0,0,0,0,0,0,267,262,257,257,257,257,257,257,261,268,268,269,0,
0,0,0,0,0,0,0,0,0,0,0,0,0,0,0,0,0,0,0,0,0,0,0,0,0,0,0,0,0,0,0,0,0,0,0,0,0,0,409,0,0,0,0,0,0,0,0,0,0,0,0,0,267,268,262,257,261,268,268,269,0,0,0,0,
0,0,0,0,0,0,0,0,0,0,0,0,0,0,0,0,0,0,0,0,0,0,0,0,0,0,0,0,0,0,0,0,0,0,0,0,0,409,409,0,0,0,0,0,0,0,0,0,0,0,0,0,0,0,267,268,269,0,0,0,0,0,0,0,
0,0,0,0,0,0,0,0,0,0,0,0,0,0,0,0,0,0,0,0,0,0,0,0,0,0,0,0,0,0,0,0,0,0,0,0,0,0,0,0,0,0,0,0,0,0,0,0,0,0,0,0,0,0,0,0,0,0,0,0,0,0,0,0,
247,0,0,0,0,0,0,0,0,0,0,0,0,0,0,0,0,0,0,0,0,0,0,0,0,0,0,0,0,0,0,0,0,0,0,0,0,0,0,0,0,0,0,0,0,0,0,0,0,0,0,0,0,0,0,0,0,0,0,0,0,0,0,0,
258,245,247,0,0,0,0,0,0,0,0,0,0,0,0,0,0,0,0,0,0,0,0,0,0,0,0,0,0,0,0,0,0,0,0,0,0,0,0,0,0,0,0,0,0,0,0,0,0,0,0,0,0,0,0,0,0,0,0,0,0,0,0,0,
272,273,272,246,247,0,0,0,0,0,0,0,0,0,0,0,0,0,0,0,0,0,0,0,0,0,0,0,0,0,0,0,0,0,0,0,0,0,0,0,0,0,0,0,0,0,0,0,0,0,0,0,0,0,0,0,0,0,0,0,0,0,0,0,
257,257,257,257,258,0,0,0,0,0,0,0,0,0,0,0,0,0,0,0,0,0,0,0,0,0,0,0,0,0,0,0,0,0,0,0,0,0,0,0,0,0,0,0,0,0,0,0,0,0,0,0,0,0,0,0,0,0,0,0,0,0,0,0,
257,257,257,257,258,0,0,0,0,0,0,0,0,0,0,0,0,0,0,0,0,0,0,0,0,0,0,0,0,0,0,0,0,0,0,0,0,0,0,0,0,0,0,0,0,0,0,0,0,0,0,0,0,0,0,0,245,246,246,246,246,247,0,0,
257,257,257,257,272,247,0,0,0,0,0,0,0,0,0,0,0,0,0,0,0,0,0,0,0,0,0,0,0,0,0,0,0,0,0,0,0,0,0,0,0,0,0,0,0,0,0,0,0,0,0,0,0,0,0,0,256,257,257,257,257,272,246,247,
257,261,262,257,261,269,0,0,0,0,0,0,0,0,0,0,0,0,0,0,0,0,0,0,0,0,0,0,0,0,0,0,0,0,0,0,0,0,0,0,0,0,0,0,0,0,0,0,0,0,0,0,245,246,246,246,273,257,257,257,257,257,257,272,
257,272,273,257,272,247,0,0,0,0,0,0,0,0,0,0,0,0,0,0,0,0,0,0,0,0,0,0,0,0,0,0,0,0,0,0,0,0,0,0,0,0,0,0,0,0,0,0,0,0,0,0,256,257,257,257,257,257,257,257,257,257,257,257,
257,257,257,257,257,258,0,0,0,0,0,0,0,0,0,0,0,0,0,0,0,0,0,0,0,0,0,0,0,0,0,0,0,0,0,0,0,0,0,0,0,0,0,0,0,0,0,0,0,0,0,245,273,257,257,257,257,257,257,257,257,257,257,257,
257,257,257,257,257,258,0,0,0,0,0,0,0,0,0,0,0,0,0,0,0,0,0,409,0,0,0,0,0,0,0,0,0,0,0,0,0,0,0,0,0,0,0,0,0,0,0,0,0,0,0,256,257,257,257,257,257,257,257,257,257,257,257,257,
257,257,257,257,257,272,247,0,0,0,0,0,0,0,0,0,0,0,0,0,0,0,0,0,0,0,0,0,0,0,0,0,0,0,245,247,0,0,0,0,0,0,0,0,0,0,0,0,0,0,0,256,257,257,257,257,257,257,257,257,257,257,257,257,
257,257,257,257,257,257,272,247,0,0,0,0,0,0,0,0,0,0,0,0,0,0,0,0,0,0,0,0,0,0,0,245,246,246,273,258,0,0,0,0,0,0,0,0,0,0,0,0,0,0,0,256,257,257,257,257,257,257,257,257,257,257,257,257,
257,257,257,257,257,257,257,258,0,0,0,0,0,0,0,0,0,0,0,0,0,0,0,0,0,0,0,0,0,245,246,273,257,257,272,246,247,0,0,0,0,0,0,0,0,0,0,0,0,0,0,256,257,257,257,257,257,257,257,257,257,257,257,257,
257,257,257,257,257,257,261,269,0,0,0,0,0,0,0,0,0,0,0,0,0,0,0,0,0,0,0,0,0,256,257,257,257,257,257,257,272,246,246,247,0,0,0,0,0,0,0,0,0,0,0,267,262,257,257,257,257,257,257,257,257,257,257,257,
257,257,257,257,261,268,269,0,0,0,0,0,0,0,0,0,0,0,0,0,0,0,0,0,0,245,246,246,246,273,257,257,257,257,257,257,257,257,257,258,0,0,0,0,0,0,0,0,0,0,0,0,256,257,257,257,257,257,257,257,257,257,257,257,
257,257,257,257,272,246,247,0,0,0,0,0,0,0,0,0,0,0,0,0,0,0,0,0,245,273,257,257,257,257,257,257,257,257,257,257,257,261,262,272,247,0,0,0,0,0,0,0,0,0,0,0,267,262,257,257,257,257,257,257,257,257,257,261,
257,257,257,261,262,257,258,0,0,0,0,0,0,0,0,0,0,0,0,0,0,0,0,0,256,257,261,262,257,257,257,257,257,257,257,261,268,269,256,257,272,247,0,0,0,0,0,0,0,0,0,0,0,267,262,257,257,257,257,261,268,268,268,269,
257,257,257,272,273,257,258,0,0,0,0,0,0,0,0,0,0,0,0,0,0,0,0,0,267,262,272,273,257,257,257,257,257,257,257,272,246,247,256,257,257,272,247,0,0,0,0,0,0,0,0,0,0,0,267,268,268,268,268,269,0,0,0,0,
257,257,257,257,257,257,272,247,0,0,0,0,0,0,0,0,0,0,0,0,0,0,0,0,245,273,257,257,257,257,257,257,257,257,257,257,257,272,273,261,268,268,269,0,0,0,0,0,0,0,0,0,0,0,0,0,0,0,0,0,0,0,0,0,
257,257,261,268,268,262,257,258,0,0,0,0,0,0,0,0,0,0,0,0,0,0,0,0,267,262,257,257,257,257,257,257,257,257,257,257,257,257,257,258,0,0,0,0,0,0,0,0,0,0,0,0,0,0,0,0,0,0,0,0,0,0,0,0,
257,257,258,0,245,273,261,269,0,0,0,0,0,0,0,0,0,0,0,0,0,0,0,0,0,256,257,257,257,257,257,257,257,257,257,257,257,257,261,269,0,0,0,0,0,0,0,0,0,0,0,0,0,0,0,0,0,0,0,0,0,0,0,0,
257,257,272,246,273,257,258,0,0,0,0,0,0,0,0,0,0,0,0,0,0,0,0,0,0,267,268,268,268,268,268,268,268,262,257,261,268,268,269,0,0,0,0,0,0,0,0,0,0,0,0,0,0,0,0,0,0,0,0,0,0,0,0,0,
257,257,257,257,257,257,258,0,0,0,0,0,0,0,0,0,0,0,0,0,0,0,0,0,0,0,0,0,0,0,0,0,0,267,268,269,0,0,0,0,0,0,0,0,0,0,0,0,0,0,0,0,0,0,0,0,0,0,0,0,0,0,0,0,
257,257,257,257,257,257,258,0,0,0,0,0,0,0,0,0,0,0,0,0,0,0,0,0,0,0,0,0,0,0,0,0,0,0,0,0,0,0,0,0,0,0,0,0,0,0,0,0,0,0,0,0,0,0,0,0,0,0,0,0,0,0,0,0,
257,257,257,257,261,268,269,0,0,0,0,0,0,0,0,0,0,0,0,0,0,0,0,0,0,0,0,0,0,0,0,0,0,0,0,0,0,0,0,0,0,0,0,0,0,0,0,0,0,0,0,0,0,0,0,0,0,0,0,0,0,0,0,0,
257,257,257,261,269,0,0,0,0,0,0,0,0,0,0,0,0,0,0,0,0,0,0,0,0,0,0,0,0,0,0,0,0,0,0,0,0,0,0,0,0,0,0,0,0,0,0,0,0,0,0,0,0,0,0,0,0,0,0,0,0,0,0,0,
257,261,268,269,0,0,0,0,0,0,0,0,0,0,0,0,0,0,0,0,0,0,0,0,0,0,0,0,0,0,0,0,0,0,0,0,0,0,0,0,0,0,0,0,0,0,0,0,0,0,0,0,0,0,0,0,0,0,0,0,0,0,0,0,
268,269,0,0,0,0,0,0,0,0,0,0,0,0,0,245,246,247,0,0,0,0,0,0,0,0,0,0,0,0,0,0,0,0,0,0,0,0,0,0,0,0,0,0,0,0,0,0,0,245,246,247,0,0,0,0,0,0,0,0,0,0,0,0,
0,0,0,0,0,0,0,0,0,0,0,0,0,245,246,273,257,272,246,247,0,0,0,0,0,0,0,0,0,0,0,0,0,0,0,0,0,0,0,0,0,0,245,246,246,247,0,0,0,256,257,272,246,247,0,0,0,0,0,0,0,0,0,0,
0,0,0,0,0,0,0,0,0,0,245,246,246,273,261,262,257,257,257,272,246,247,0,0,0,0,0,0,0,0,0,0,0,0,0,0,0,0,0,0,245,246,273,257,257,272,247,245,246,273,257,257,257,258,0,0,0,0,0,0,0,0,0,0,
0,0,0,0,0,0,0,245,246,246,273,257,257,257,258,267,268,262,257,257,257,258,0,0,0,0,0,0,0,0,0,0,0,0,0,0,0,245,246,246,273,257,257,257,257,257,272,273,257,257,257,257,257,272,246,246,247,0,0,0,0,0,0,0,
0,0,0,0,0,0,0,256,257,257,257,257,257,261,269,0,245,273,257,257,257,272,246,247,0,0,0,0,0,0,0,0,0,0,0,0,245,273,257,257,257,257,257,257,257,261,262,257,261,268,268,268,268,268,262,257,258,0,0,245,246,247,0,0,
0,0,0,0,0,0,245,273,257,257,257,257,257,272,246,246,273,257,257,257,257,257,261,269,0,0,0,0,0,0,0,0,0,0,0,0,256,257,257,257,257,261,268,268,262,272,273,257,272,246,246,246,246,246,273,257,272,246,246,273,257,272,247,0,
0,0,0,0,0,0,256,257,257,257,257,257,257,257,257,257,257,257,257,257,257,257,272,246,246,247,0,0,0,0,0,0,0,245,246,246,273,257,257,257,257,272,246,246,273,257,257,257,257,257,257,257,257,257,257,257,257,257,257,257,257,257,272,246,
0,0,0,0,0,245,273,257,257,257,257,257,257,257,257,257,257,257,257,257,257,257,257,257,261,269,0,0,0,0,0,0,245,273,257,257,257,257,257,257,257,257,257,257,257,257,257,257,257,257,257,257,257,257,257,257,257,257,257,257,257,257,257,257
</data>
 </layer>
 <layer id="4" name="Hill2" width="64" height="48">
  <data encoding="csv">
0,0,0,0,0,0,0,0,0,256,257,257,257,257,257,257,257,257,257,257,257,257,257,257,257,257,257,257,257,257,257,258,0,0,0,0,0,0,0,0,0,0,0,0,0,0,0,0,0,0,245,273,257,257,257,261,269,0,0,0,0,0,256,257,
0,0,0,0,0,0,0,0,0,267,268,262,257,257,257,257,257,257,257,257,257,257,257,257,257,261,262,257,257,261,268,269,0,0,0,0,0,0,0,0,0,0,0,0,0,0,0,0,0,0,267,262,257,261,262,272,247,0,0,0,0,0,267,262,
0,0,0,0,0,0,0,0,0,0,0,267,262,257,257,257,257,257,257,257,257,257,257,257,261,269,267,268,268,269,0,0,0,0,0,0,0,0,0,0,0,0,0,0,0,0,0,0,0,0,0,267,268,269,267,268,269,0,0,0,0,0,0,256,
0,0,0,0,0,0,0,0,0,0,0,245,273,257,257,257,257,257,257,257,257,257,261,268,269,0,0,0,0,0,0,0,0,0,0,0,0,0,0,0,0,0,0,0,0,0,0,0,0,0,0,0,0,0,245,247,0,0,0,0,0,0,0,267,
0,0,0,0,0,0,0,0,0,0,0,256,257,257,257,257,257,257,257,261,268,268,269,0,0,0,0,0,0,0,0,0,0,0,0,0,0,0,0,0,0,0,0,0,0,0,0,0,0,0,0,0,0,245,273,258,0,0,0,0,0,0,0,0,
0,0,0,0,0,0,0,0,0,0,0,267,262,257,257,257,257,257,257,258,0,0,0,0,0,0,0,0,0,0,0,0,0,0,0,0,0,0,0,0,0,0,0,0,0,0,0,0,0,0,0,0,0,267,262,258,0,0,0,0,0,0,0,0,
0,0,0,0,0,0,0,0,0,0,0,0,267,268,268,262,257,261,268,269,0,0,0,0,0,0,0,0,0,0,0,0,0,0,0,0,0,0,0,0,0,0,0,0,0,0,0,0,0,0,0,0,0,0,267,269,0,0,0,0,0,0,0,0,
0,0,0,0,0,0,0,0,0,0,0,0,0,0,0,267,268,269,0,0,0,0,0,0,0,0,0,0,0,0,0,0,0,0,0,0,0,0,0,0,0,0,0,0,0,0,0,0,0,0,0,0,0,0,0,0,0,0,0,0,0,0,0,0,
0,0,0,0,0,0,0,0,0,0,0,0,0,0,0,0,0,0,0,0,0,0,0,0,0,0,0,0,0,0,0,0,0,0,0,0,0,0,0,0,0,0,0,0,0,0,0,0,0,0,0,0,0,0,0,0,0,0,0,0,0,0,0,0,
0,0,0,0,0,0,0,0,0,0,0,0,0,0,0,0,0,0,0,0,0,0,0,0,0,0,0,0,0,0,0,0,0,0,0,0,0,0,0,0,0,0,0,0,0,0,0,0,0,0,0,0,0,0,0,0,0,0,0,0,0,0,0,0,
0,0,0,0,0,0,0,0,0,0,0,0,0,0,0,0,0,0,0,0,0,0,0,0,0,0,0,0,0,0,0,0,0,0,0,0,0,0,0,0,0,0,0,0,0,0,0,0,0,0,0,0,0,0,0,0,0,0,0,0,0,0,0,0,
0,0,0,0,0,0,0,0,0,0,0,0,0,0,0,0,0,0,0,0,0,0,0,0,0,0,0,0,0,0,0,0,0,0,0,0,0,0,409,0,0,0,0,0,0,0,0,0,0,0,0,0,0,0,0,0,0,0,0,0,0,0,0,0,
0,0,0,0,0,0,0,0,0,0,0,0,0,0,0,0,0,0,0,0,0,0,0,0,0,0,0,0,0,0,0,0,0,0,0,0,0,0,409,409,0,0,0,0,0,0,0,0,0,0,0,0,0,0,0,0,0,0,0,0,0,0,0,0,
0,0,0,0,0,0,0,0,0,0,0,0,0,0,0,0,0,0,0,0,0,0,0,0,0,0,0,0,0,0,0,0,0,0,0,0,0,0,409,0,0,0,0,0,0,0,0,0,0,0,0,0,0,0,0,0,0,0,0,0,0,0,0,0,
0,0,0,0,0,0,0,0,0,0,0,0,0,0,0,0,0,0,0,0,0,0,0,0,0,0,0,0,0,0,0,0,0,0,0,0,0,0,0,0,0,0,0,0,0,0,0,0,0,0,0,0,0,0,0,0,0,0,0,0,0,0,0,0,
0,245,247,0,0,0,0,0,0,0,0,0,0,0,0,0,0,0,0,0,0,0,0,0,0,0,0,0,0,0,0,0,0,0,0,0,0,0,0,0,0,0,0,0,0,0,0,0,0,0,0,0,0,0,0,0,0,0,0,0,0,0,0,0,
245,273,258,0,0,0,0,0,0,0,0,0,0,0,0,0,0,0,0,0,0,0,0,0,0,0,0,0,0,0,0,0,0,0,0,0,0,0,0,0,0,0,0,0,0,0,0,0,0,0,0,0,0,0,0,0,0,0,0,0,0,0,0,0,
273,257,272,247,0,0,0,0,0,0,0,0,0,0,0,0,0,0,0,0,0,0,0,0,0,0,0,0,0,0,0,0,0,0,0,0,0,0,0,0,0,0,0,0,0,0,0,0,0,0,0,0,0,0,0,0,0,0,0,0,0,0,0,0,
257,257,261,269,0,0,0,0,0,0,0,0,0,0,0,0,0,0,0,0,0,0,0,0,0,0,0,0,0,0,0,0,0,0,0,0,0,0,0,0,0,0,0,0,0,0,0,0,0,0,0,0,0,0,0,0,0,245,246,246,246,247,0,0,
257,257,272,247,0,0,0,0,0,0,0,0,0,0,0,0,0,0,0,0,0,0,0,0,0,0,0,0,0,0,0,0,0,0,0,0,0,0,0,0,0,0,0,0,0,0,0,0,0,0,0,0,0,0,0,0,0,256,261,262,257,272,247,0,
262,257,261,269,0,0,0,0,0,0,0,0,0,0,0,0,0,0,0,0,0,0,0,0,0,0,0,0,0,0,0,0,0,0,0,0,0,0,0,0,0,0,0,0,0,0,0,0,0,0,0,0,0,0,0,245,246,273,272,273,257,257,272,246,
267,262,258,0,0,0,0,0,0,0,0,0,0,0,0,0,0,0,0,0,0,0,0,0,0,0,0,0,0,0,0,0,0,0,0,0,0,0,0,0,0,0,0,0,0,0,0,0,0,0,0,0,0,0,245,273,257,257,257,257,257,257,257,257,
0,267,269,0,0,0,0,0,0,0,0,0,0,0,0,0,0,0,0,0,0,0,0,0,0,0,0,0,0,0,0,0,0,0,0,0,0,0,0,0,0,0,0,0,0,0,0,0,0,0,0,0,0,0,256,257,257,257,257,257,257,257,257,257,
0,0,0,0,0,0,0,0,0,0,0,0,0,0,0,0,0,0,0,0,0,0,0,0,0,0,0,0,0,0,0,0,0,0,0,0,0,0,0,0,0,0,0,0,0,0,0,0,0,0,0,0,0,245,273,257,257,257,257,257,257,257,257,257,
0,0,0,0,0,0,0,0,0,0,0,0,0,0,0,0,0,0,0,0,0,0,0,0,0,0,0,0,0,0,0,0,245,246,246,247,0,0,0,0,0,0,0,0,0,0,0,0,0,0,0,0,0,256,257,257,257,257,257,257,257,257,257,257,
246,247,0,0,0,0,0,0,0,0,0,0,0,0,0,0,0,0,0,0,0,0,0,0,0,0,0,0,0,0,245,246,273,257,257,258,0,0,0,0,0,0,0,0,0,0,0,0,0,0,0,0,0,256,257,257,257,257,257,257,257,257,257,257,
257,272,247,0,0,0,0,0,0,0,0,0,0,0,0,0,0,0,0,0,0,0,0,0,0,0,0,0,0,0,256,257,257,257,257,272,247,0,0,0,0,0,0,0,0,0,0,0,0,0,0,0,0,267,262,257,257,257,261,268,262,257,261,268,
257,257,258,0,0,0,0,0,0,0,0,0,0,0,0,0,0,0,0,0,0,0,0,0,0,0,0,0,245,246,273,257,257,257,257,257,258,245,247,0,0,0,0,0,0,0,0,0,0,0,0,0,0,0,256,257,257,257,258,0,267,262,258,0,
257,261,269,0,0,0,0,0,0,0,0,0,0,0,0,0,0,0,0,0,0,0,0,0,0,0,0,0,267,262,257,257,257,257,257,257,272,273,258,0,0,0,0,0,0,0,0,0,0,0,0,0,0,0,267,262,261,268,269,0,0,267,269,0,
257,258,0,0,0,0,0,0,0,0,0,0,0,0,0,0,0,0,0,0,0,0,0,0,0,0,245,246,246,273,257,257,257,257,257,257,257,257,272,247,0,0,0,0,0,0,0,0,0,0,0,0,0,0,0,267,269,0,0,0,0,0,0,0,
268,269,0,0,0,0,0,0,0,0,0,0,0,0,0,0,0,0,0,0,0,0,0,0,0,0,256,257,257,257,257,257,257,257,257,257,257,257,261,269,0,0,0,0,0,0,0,0,0,0,0,0,0,0,0,0,0,0,0,0,0,0,0,0,
0,0,0,0,0,0,0,0,0,0,0,0,0,0,0,0,0,0,0,0,0,0,0,0,0,0,256,257,257,257,257,257,257,257,261,268,268,268,269,0,0,0,0,0,0,0,0,0,0,0,0,0,0,0,0,0,0,0,0,0,0,0,0,0,
0,0,0,0,0,0,0,0,0,0,0,0,0,0,0,0,0,0,0,0,0,0,0,0,0,0,267,262,257,261,268,268,268,268,269,0,0,0,0,0,0,0,0,0,0,0,0,0,0,0,0,0,0,0,0,0,0,0,0,0,0,0,0,0,
0,0,0,0,0,0,0,0,0,0,0,0,0,0,0,0,0,0,0,0,0,0,0,0,0,0,0,267,268,269,0,0,0,0,0,0,0,0,0,0,0,0,0,0,0,0,0,0,0,0,0,0,0,0,0,0,0,0,0,0,0,0,0,0,
0,0,0,0,0,0,0,0,0,0,0,0,0,0,0,0,0,0,0,0,0,0,0,0,0,0,0,0,0,0,0,0,0,0,0,0,0,0,0,0,0,0,0,0,0,0,0,0,0,0,0,0,0,0,0,0,0,0,0,0,0,0,0,0,
0,0,0,0,0,0,0,0,0,0,0,0,0,0,0,0,0,0,0,0,0,0,0,0,0,0,0,0,0,0,0,0,0,0,0,0,0,0,0,0,0,0,0,0,0,0,0,0,0,0,0,0,0,0,0,0,0,0,0,0,0,0,0,0,
0,0,0,0,0,0,0,0,0,0,0,0,0,0,0,0,0,0,0,0,0,0,0,0,0,0,0,0,0,0,0,0,0,0,0,0,0,0,0,0,0,0,0,0,0,0,0,0,0,0,0,0,0,0,0,0,0,0,0,0,0,0,0,0,
0,0,0,0,0,0,0,0,0,0,0,0,0,0,0,0,0,0,0,0,0,0,0,0,0,0,0,0,0,0,0,0,0,0,0,0,0,0,0,0,0,0,0,0,0,0,0,0,0,0,0,0,0,0,0,0,0,0,0,0,0,0,0,0,
0,0,0,0,0,0,0,0,0,0,0,0,0,0,0,0,0,0,0,0,0,0,0,0,0,0,0,0,0,0,0,0,0,0,0,0,0,0,0,0,0,0,0,0,0,0,0,0,0,0,0,0,0,0,0,0,0,0,0,0,0,0,0,0,
0,0,0,0,0,0,0,0,0,0,0,0,0,0,0,0,0,0,0,0,0,0,0,0,0,0,0,0,0,0,0,0,0,0,0,0,0,0,0,0,0,0,0,0,0,0,0,0,0,0,0,0,0,0,0,0,0,0,0,0,0,0,0,0,
0,0,0,0,0,0,0,0,0,0,0,0,0,0,0,0,0,0,0,0,0,0,0,0,0,0,0,0,0,0,0,0,0,0,0,0,0,0,0,0,0,0,0,0,0,0,0,0,0,0,0,0,0,0,0,0,0,0,0,0,0,0,0,0,
0,0,0,0,0,0,0,0,0,0,0,0,0,0,0,0,0,0,0,0,0,0,0,0,0,0,0,0,0,0,0,0,0,0,0,0,0,0,0,0,0,0,0,0,0,0,0,0,0,0,0,0,0,0,0,0,0,0,0,0,0,0,0,0,
0,0,0,0,0,0,0,0,0,0,0,0,0,0,245,246,246,247,0,0,0,0,0,0,0,0,0,0,0,0,0,0,0,0,0,0,0,0,0,0,0,0,0,0,0,0,0,0,0,0,245,247,0,0,0,0,0,0,0,0,0,0,0,0,
0,0,0,0,0,0,0,0,0,0,0,245,246,246,273,257,257,272,246,247,0,0,0,0,0,0,0,0,0,0,0,0,0,0,0,0,0,0,0,0,0,245,247,0,0,0,0,0,0,245,273,272,247,0,0,0,0,0,0,0,0,0,0,0,
0,0,0,0,0,0,0,0,0,245,246,273,257,257,257,257,257,257,257,258,0,0,0,0,0,0,0,0,0,0,0,0,0,0,0,0,0,0,0,0,245,273,272,247,0,0,0,245,246,273,257,257,258,0,0,0,0,0,0,0,0,0,0,0,
0,0,0,0,0,0,0,0,0,256,257,257,257,257,257,257,257,257,257,272,246,247,0,0,0,0,0,0,0,0,0,0,0,0,0,0,0,0,245,246,273,257,257,272,247,0,0,256,257,257,257,257,272,247,0,0,0,245,246,246,247,0,0,0,
0,0,0,0,0,0,0,0,0,267,262,257,257,257,257,257,257,257,257,257,257,258,0,0,0,0,0,0,0,0,0,0,0,0,0,0,0,245,273,257,257,261,262,257,258,0,0,267,262,257,257,257,257,272,247,0,245,273,257,257,272,247,0,0,
0,0,0,0,0,0,0,0,0,0,267,268,268,262,257,257,257,257,257,257,257,272,247,0,0,0,0,0,0,0,0,0,0,0,0,0,245,273,257,261,262,272,273,257,272,247,0,0,256,257,257,257,261,268,269,245,273,257,257,261,262,272,247,0
</data>
 </layer>
 <layer id="5" name="Trees" width="64" height="48">
  <data encoding="csv">
78,78,0,79,80,106,0,79,80,0,0,0,0,0,0,0,0,0,0,0,0,0,0,0,0,0,0,0,0,0,95,0,0,0,106,0,78,78,0,94,0,106,106,0,88,89,0,0,0,94,0,0,0,0,0,0,0,0,0,0,0,94,0,0,
78,78,0,88,89,106,0,88,89,0,0,0,0,0,0,0,0,0,0,0,0,0,0,0,0,0,0,0,0,0,0,0,0,0,0,0,78,87,0,0,0,0,0,94,0,119,79,80,0,0,0,0,0,0,0,0,0,0,0,0,0,0,0,0,
87,87,79,80,78,106,106,0,0,0,101,0,0,0,0,0,0,0,0,0,0,0,0,0,0,0,79,80,0,0,0,106,0,0,78,0,87,0,119,0,79,80,78,0,0,0,88,89,106,0,0,0,78,0,0,0,0,0,0,0,0,0,0,0,
0,0,88,78,78,0,0,0,119,78,0,0,0,0,0,0,0,0,0,0,0,0,0,0,0,101,88,89,100,0,0,0,0,78,79,80,0,0,79,80,78,89,87,0,78,0,0,99,0,106,0,0,87,101,0,0,0,0,0,0,0,106,0,0,
79,80,0,87,87,0,100,0,0,87,78,0,0,0,0,0,0,0,0,0,0,0,0,0,0,0,0,0,0,0,0,0,0,78,88,89,0,99,88,89,87,0,78,0,87,79,80,78,78,101,0,106,0,0,0,0,0,0,0,0,0,0,0,0,
88,89,0,0,83,84,0,0,0,0,87,0,0,0,0,0,0,0,0,0,0,0,95,0,0,0,95,95,78,78,94,0,101,87,0,0,390,0,106,106,106,0,87,101,0,88,89,78,78,94,79,80,78,0,0,0,0,0,106,106,0,0,0,101,
0,0,119,0,92,93,83,84,101,0,0,119,0,0,0,0,0,0,0,0,79,80,0,0,0,0,0,0,87,87,0,106,0,0,0,0,0,0,0,0,0,0,0,0,0,0,0,87,87,0,88,89,87,0,0,0,0,0,0,0,0,0,79,80,
78,78,0,0,0,0,92,93,0,0,0,0,0,0,0,0,0,78,78,94,88,89,0,0,0,409,409,409,409,0,0,0,0,0,0,0,0,0,0,0,0,0,0,390,0,119,0,79,80,78,0,0,106,106,95,0,0,78,78,0,0,0,88,89,
78,87,0,0,121,0,0,0,0,106,0,0,0,94,0,0,101,87,87,0,0,0,0,0,0,409,409,409,409,389,0,0,0,0,0,390,0,78,0,0,0,0,0,0,0,0,0,88,89,78,78,0,100,106,0,0,0,87,87,0,0,100,0,0,
87,83,84,0,0,0,0,0,0,0,106,0,79,80,0,0,0,0,0,0,0,0,0,0,0,409,409,409,409,0,0,0,0,0,0,0,99,87,0,0,391,0,0,0,0,106,0,0,0,87,87,0,0,95,79,80,101,0,94,0,0,0,0,0,
0,92,93,0,0,0,0,121,0,0,0,0,88,89,0,0,0,79,80,0,0,0,101,389,0,409,409,409,388,0,0,0,0,0,101,119,420,420,420,106,106,0,0,0,0,106,409,409,0,0,0,0,0,0,88,89,0,0,0,0,78,388,95,94,
0,0,0,94,122,0,0,0,0,0,81,82,100,0,101,78,390,88,89,0,389,106,106,0,0,389,0,0,0,0,0,0,0,94,81,82,0,122,420,420,420,94,0,0,0,0,409,409,391,409,388,0,95,0,0,78,78,0,100,78,78,0,100,0,
106,0,0,0,0,81,82,0,0,122,90,91,78,420,420,87,0,0,0,0,0,0,0,0,0,0,0,0,0,0,0,106,0,389,90,91,420,420,420,420,420,0,0,0,0,0,388,409,409,409,409,0,0,0,0,87,87,0,0,87,87,0,389,0,
0,106,0,79,80,90,91,0,0,0,94,78,87,420,0,0,0,0,0,0,0,0,0,0,0,0,0,0,0,0,0,106,0,81,82,106,0,420,420,420,83,84,390,0,0,0,409,391,389,0,391,0,0,0,0,0,0,0,0,0,0,0,0,0,
0,0,0,88,89,101,0,79,80,0,0,87,0,0,0,0,0,0,106,0,79,80,389,0,106,0,106,0,0,0,0,0,0,90,91,106,420,420,420,420,92,93,0,0,0,409,409,409,409,409,409,0,0,0,0,0,0,0,0,0,0,0,0,0,
0,0,0,0,78,0,0,88,89,0,390,0,0,0,0,0,0,0,94,0,88,89,119,0,0,78,78,388,0,0,0,0,119,0,0,0,420,122,420,420,101,0,0,0,0,0,0,0,0,0,0,0,0,0,79,80,0,119,0,78,0,106,106,390,
0,0,0,101,87,0,0,0,0,0,409,0,0,0,0,106,83,84,0,0,0,0,0,81,82,87,87,0,0,0,0,0,0,99,0,0,121,83,84,0,0,0,0,0,0,0,0,0,0,0,0,0,0,0,88,89,0,78,78,87,101,0,94,0,
0,0,0,0,0,0,0,0,409,409,409,0,0,0,390,0,83,84,0,0,121,0,0,90,91,101,0,0,0,0,0,0,388,0,78,78,106,92,93,0,0,0,0,106,106,0,0,0,0,0,0,0,0,0,0,0,99,87,87,0,94,0,100,0,
0,0,0,0,0,0,0,0,409,409,0,0,0,0,101,78,78,93,0,0,0,0,0,0,0,0,0,0,0,0,0,0,0,0,87,87,389,388,0,0,0,0,0,0,83,84,0,0,121,122,0,100,79,80,0,0,78,0,0,0,0,0,0,0,
0,0,0,0,0,0,0,0,391,409,0,0,0,0,0,87,87,0,0,0,122,0,0,121,0,0,94,0,389,78,0,0,0,0,0,0,0,0,0,0,0,0,0,0,92,93,0,0,0,0,0,94,88,89,106,0,87,0,0,0,0,0,0,0,
0,0,0,0,106,0,0,94,409,0,0,0,0,0,0,0,391,100,0,0,0,0,0,0,0,0,0,83,84,87,78,106,106,0,0,0,0,0,0,0,0,0,0,0,83,84,0,0,0,0,0,0,106,0,0,0,0,0,0,0,0,0,0,0,
0,0,0,0,106,106,0,0,409,409,79,80,0,0,0,0,0,0,0,106,0,121,0,0,0,0,122,92,93,0,87,0,0,389,78,78,0,106,106,106,0,83,84,0,92,93,84,0,122,0,0,0,79,80,0,0,0,0,0,0,0,0,0,0,
0,0,0,101,0,0,0,78,78,0,88,89,0,0,0,0,0,0,0,391,0,78,122,0,0,0,0,0,0,79,80,0,100,0,87,87,0,79,80,0,0,92,93,0,78,92,93,0,83,84,0,0,88,89,0,0,0,0,0,0,0,0,0,0,
0,106,106,0,78,78,0,87,87,78,0,0,101,81,82,0,0,0,0,0,119,78,83,84,0,121,0,79,80,88,89,0,0,106,0,0,99,88,89,79,80,0,101,0,87,119,0,0,92,93,0,0,119,0,0,0,0,0,0,0,0,0,0,0,
0,106,106,119,87,78,0,0,0,87,78,78,94,90,91,0,106,0,0,0,0,87,92,93,0,0,0,88,89,0,0,0,0,0,0,0,0,0,0,88,89,0,78,0,0,0,0,0,0,101,106,78,100,0,0,0,0,0,0,0,0,0,0,100,
0,0,0,79,80,87,101,0,106,0,78,78,0,119,100,0,106,0,0,0,0,101,0,78,0,0,0,119,0,0,0,0,0,0,0,0,0,101,0,0,0,0,87,0,81,82,0,79,80,106,106,87,0,0,0,0,0,0,0,0,0,0,0,0,
0,0,0,88,89,0,0,0,106,0,87,87,0,0,0,78,0,0,0,0,0,0,78,78,0,0,0,0,0,0,0,0,0,0,0,0,0,0,94,106,0,101,0,0,90,91,119,88,89,0,0,0,0,0,0,0,0,0,0,0,0,0,0,0,
0,0,0,0,0,79,80,106,106,0,0,0,79,80,78,87,0,0,0,0,0,0,87,87,79,80,0,0,0,0,0,0,0,0,0,0,0,0,0,0,0,0,0,121,0,0,101,0,0,79,80,0,106,106,0,0,0,100,0,0,78,0,0,0,
0,0,0,0,0,88,89,78,78,78,100,106,88,89,87,0,0,0,0,83,84,0,0,0,88,89,101,0,0,0,0,0,0,0,0,0,0,0,0,0,106,100,0,0,0,0,0,81,82,78,78,0,0,0,0,0,0,0,79,80,87,0,0,0,
0,0,0,0,0,0,78,78,78,78,0,106,79,80,0,0,0,0,106,92,93,0,0,0,0,0,0,0,0,0,0,0,0,0,0,0,0,0,0,0,0,0,0,0,0,0,0,90,91,87,87,100,0,0,0,0,0,0,88,89,0,0,0,0,
0,0,106,0,0,100,78,87,87,87,0,0,88,89,0,0,0,0,106,106,0,0,0,0,0,0,0,0,0,0,0,0,0,0,0,100,0,0,0,0,0,119,0,83,84,0,0,0,0,0,0,119,101,0,0,0,0,0,0,0,0,0,0,106,
0,0,106,0,0,0,87,106,0,101,0,0,391,0,0,0,0,390,0,0,0,0,0,0,0,0,0,0,0,0,0,0,0,0,0,0,0,0,0,0,0,0,0,92,93,0,0,0,0,122,0,0,0,0,0,0,119,0,0,0,100,83,84,106,
0,78,0,0,0,0,119,106,0,106,83,84,94,0,0,0,390,0,119,0,0,0,0,0,0,0,0,0,0,0,0,0,0,0,0,106,0,0,0,106,99,0,0,0,94,0,83,84,0,122,122,0,0,0,121,0,0,81,82,0,119,92,93,0,
78,87,0,0,0,0,0,0,0,100,92,93,0,0,0,0,0,79,80,0,409,0,0,83,84,106,106,0,0,0,0,0,0,119,79,80,0,94,0,0,0,0,0,0,0,409,92,93,0,0,0,0,0,0,0,0,0,90,81,82,0,0,79,80,
87,0,0,106,0,79,80,0,0,0,0,0,122,0,0,0,0,88,89,0,0,390,0,92,93,0,0,0,0,0,0,0,0,0,88,89,0,0,0,0,389,0,0,0,409,409,0,0,0,0,0,0,0,0,0,0,0,390,390,91,78,119,88,89,
0,119,0,0,0,88,89,0,94,0,122,0,0,0,0,0,0,0,0,390,0,0,390,0,119,0,389,0,0,0,0,0,0,0,0,0,0,0,0,0,0,409,388,409,409,409,388,0,0,0,0,0,0,0,0,0,0,0,94,0,87,0,0,0,
0,78,78,100,0,101,0,0,0,106,0,0,0,121,0,0,0,0,0,0,79,80,0,0,0,106,0,99,78,78,0,101,0,0,0,389,390,0,0,0,0,0,0,0,0,409,0,0,0,0,0,0,0,0,0,0,0,0,0,101,0,0,81,82,
0,87,78,0,0,0,0,78,0,106,0,0,0,0,0,0,0,0,0,0,88,89,0,390,106,106,0,0,87,87,0,0,106,0,106,0,0,0,0,0,0,0,0,0,0,0,0,0,0,0,390,409,409,0,390,0,0,0,0,0,0,122,90,91,
0,101,87,0,0,0,0,87,0,83,84,0,0,0,0,81,82,0,0,0,0,0,0,0,0,0,0,0,0,0,0,0,0,0,0,0,0,0,0,106,388,0,0,0,0,0,0,0,0,409,409,409,409,409,409,79,80,0,0,78,0,0,0,0,
0,0,0,0,0,0,0,0,0,92,93,83,84,0,121,90,91,390,78,78,0,0,0,0,0,0,0,0,0,0,0,0,0,0,0,0,0,0,106,0,0,101,0,0,0,0,106,106,0,409,409,409,409,409,409,88,89,0,0,87,0,0,121,0,
0,0,106,0,78,78,78,0,119,101,0,92,93,0,0,0,0,0,87,87,0,0,0,78,389,0,0,0,106,106,0,0,0,0,79,80,0,0,78,94,79,80,0,0,119,0,106,106,0,0,106,106,0,409,78,106,106,0,0,83,84,0,0,0,
0,106,0,0,87,78,78,0,0,0,0,100,0,0,106,0,119,0,0,0,79,80,0,87,83,84,0,0,0,0,0,94,78,100,88,89,119,390,87,78,88,89,106,78,0,0,100,79,80,0,0,106,0,87,78,78,78,78,78,92,83,84,0,0,
78,0,0,79,80,87,87,0,79,80,0,0,101,0,0,0,0,0,101,0,88,89,100,0,92,93,0,0,0,0,122,0,87,81,82,0,0,0,100,87,0,0,106,87,101,0,0,88,89,0,0,0,101,0,87,87,87,87,87,78,78,78,121,106,
87,0,0,88,89,106,0,0,88,106,0,0,0,0,0,0,0,0,0,0,0,0,0,0,0,0,122,0,0,0,0,0,0,90,91,0,0,106,0,99,0,0,0,0,78,119,0,0,0,0,0,0,0,0,0,119,0,78,78,87,87,87,78,78,
78,78,119,0,106,106,0,0,0,0,0,0,0,0,0,0,0,0,0,0,0,100,106,106,0,0,0,0,0,0,122,0,121,0,81,82,106,106,0,0,0,0,0,0,87,0,0,0,0,0,0,0,0,0,78,78,0,87,87,0,0,0,87,87,
87,78,0,0,78,0,0,101,0,0,0,0,0,0,0,0,0,0,0,0,0,0,0,0,0,0,0,83,84,79,80,78,0,0,90,91,0,0,0,0,0,0,0,0,0,0,0,0,0,0,0,0,0,0,87,87,0,0,0,0,0,0,0,94,
0,87,0,0,87,0,106,106,0,0,0,0,0,0,0,0,0,0,0,0,0,0,0,0,0,0,119,92,93,78,78,87,119,0,101,78,0,0,0,0,0,0,0,0,0,101,78,78,0,0,0,0,0,0,0,0,0,0,0,0,0,0,101,0,
0,106,106,0,0,0,106,106,119,0,0,0,0,0,0,0,0,0,0,0,0,0,0,119,0,0,0,0,0,87,87,0,0,0,0,87,0,0,0,0,0,0,0,0,0,0,87,87,0,0,0,0,0,0,0,0,0,0,0,0,0,0,0,0
</data>
 </layer>
 <layer id="9" name="Edges" width="64" height="48">
  <data encoding="csv">
0,0,0,0,0,0,0,0,0,0,0,0,0,0,0,0,0,0,0,0,0,0,0,0,0,0,0,0,0,0,0,0,0,0,0,0,0,0,0,0,0,0,0,0,0,0,0,0,0,0,0,0,0,0,0,0,0,0,0,0,0,0,0,0,
0,0,0,0,0,0,0,0,0,0,0,0,0,0,0,0,0,0,0,0,0,0,0,0,0,0,0,0,0,0,0,0,0,0,0,0,0,0,0,0,0,0,0,0,0,0,0,0,0,0,0,0,0,0,0,0,0,0,0,0,0,0,0,0,
0,0,0,0,0,0,0,0,0,0,0,0,0,0,0,0,0,0,0,0,0,0,0,0,0,0,0,0,0,0,0,0,0,0,0,0,0,0,0,0,0,0,0,0,0,0,0,0,0,0,0,0,0,0,0,0,0,0,0,0,0,0,0,0,
0,0,0,0,0,0,0,0,0,0,0,0,0,0,0,0,0,0,0,0,0,0,0,0,0,0,0,0,0,0,0,0,0,0,0,0,0,0,0,0,0,0,0,0,0,0,0,0,0,0,0,0,0,0,0,0,0,0,0,0,0,0,0,0,
0,0,0,0,0,0,0,0,0,0,0,0,0,0,0,0,0,0,0,0,0,0,0,0,0,0,0,0,0,0,0,0,0,0,0,0,0,0,0,0,0,0,0,0,0,0,0,0,0,0,0,0,0,0,0,0,0,0,0,0,0,0,0,0,
0,0,0,0,0,0,0,0,0,0,0,0,0,0,0,0,0,0,0,0,0,0,0,0,0,0,0,0,0,0,0,0,0,0,0,0,0,0,0,0,0,0,0,0,0,0,0,0,0,0,0,0,0,0,0,0,0,0,0,0,0,0,0,0,
0,0,0,0,0,0,0,0,0,0,0,0,0,0,0,0,0,0,0,0,0,0,0,0,0,0,0,0,0,0,0,0,0,0,0,0,0,0,0,0,0,0,0,0,0,0,0,0,0,0,0,0,0,0,0,0,0,0,0,0,0,0,0,0,
0,0,0,0,0,0,0,0,0,0,0,0,0,0,0,0,0,0,0,0,0,0,0,0,0,0,0,0,0,0,0,0,0,0,0,0,0,0,0,0,0,0,0,0,0,0,0,0,0,0,0,0,0,0,0,0,0,0,0,0,0,0,0,0,
0,0,0,0,0,0,0,0,0,0,0,0,0,0,0,0,0,0,0,0,0,0,0,0,0,0,0,0,0,0,0,0,0,0,0,0,0,0,0,0,0,0,0,0,0,0,0,0,0,0,0,0,0,0,0,0,0,0,0,0,0,0,0,0,
0,0,0,0,0,0,0,0,0,0,0,0,0,0,0,0,0,0,0,0,0,0,0,0,0,0,0,0,0,0,0,0,0,0,0,0,0,0,0,0,0,0,0,0,0,0,0,0,0,0,0,0,0,0,0,0,0,0,0,0,0,0,0,0,
0,0,0,0,0,0,0,0,0,0,0,0,0,0,0,0,0,0,0,0,0,0,0,0,0,0,0,0,0,0,0,0,0,0,0,0,0,0,0,0,0,0,0,0,0,0,0,0,0,0,0,0,0,0,0,0,0,0,0,0,0,0,0,0,
0,0,0,0,0,0,0,0,0,0,0,0,0,0,0,0,0,0,0,0,0,0,0,0,0,0,0,0,0,0,0,0,0,0,0,0,0,0,0,0,0,0,0,0,0,0,0,0,0,0,0,0,0,0,0,0,0,0,0,0,0,0,0,0,
0,0,0,0,0,0,0,0,0,0,0,0,0,0,0,0,0,0,0,0,0,0,0,0,0,0,0,0,0,0,0,0,0,0,0,0,0,0,0,420,409,0,0,0,0,0,0,0,0,0,0,0,0,0,0,0,0,0,0,0,0,0,0,0,
0,0,0,0,0,0,0,0,0,0,0,0,0,0,0,0,0,0,0,0,0,0,0,0,0,0,0,0,0,0,0,0,0,0,0,0,0,0,0,0,420,0,0,0,0,0,0,0,0,0,0,0,0,0,0,0,0,0,0,0,0,0,0,0,
0,0,0,0,0,0,0,0,0,0,0,0,0,0,0,0,0,0,0,0,0,0,0,0,0,0,0,0,0,0,0,0,0,0,0,0,0,420,420,420,420,0,0,0,0,0,0,0,0,0,0,0,0,0,0,0,0,0,0,0,0,0,0,0,
0,0,0,0,0,0,0,0,0,0,0,0,0,0,0,0,0,0,0,0,0,0,0,0,0,0,0,0,0,0,0,0,0,0,0,0,0,0,0,420,0,0,0,0,0,0,0,0,0,0,0,0,0,0,0,0,0,0,0,0,0,0,0,0,
0,0,0,0,0,0,0,0,0,0,0,0,0,0,0,0,0,0,0,0,0,0,0,0,0,0,0,0,0,0,0,0,0,0,0,0,0,0,0,0,0,0,0,0,0,0,0,0,0,0,0,0,0,0,0,0,0,0,0,0,0,0,0,0,
0,0,0,0,0,0,0,0,0,0,0,0,0,0,0,0,0,0,0,0,0,0,0,0,0,0,0,0,0,0,0,0,0,0,0,0,0,0,0,0,0,0,0,0,0,0,0,0,0,0,0,0,0,0,0,0,0,0,0,0,0,0,0,0,
0,0,0,0,0,0,0,0,0,0,0,0,0,0,0,0,0,0,0,0,0,0,0,0,0,0,0,0,0,0,0,0,0,0,0,0,0,0,0,0,0,0,0,0,0,0,0,0,0,0,0,0,0,0,0,0,0,0,0,0,0,0,0,0,
0,0,0,0,0,0,0,0,0,0,0,0,0,0,0,0,0,0,0,0,0,0,0,0,0,0,0,0,0,0,0,0,0,0,0,0,0,0,0,0,0,0,0,0,0,0,0,0,0,0,0,0,0,0,0,0,0,0,0,0,0,0,0,0,
0,0,0,0,0,0,0,0,0,0,0,0,0,0,0,0,0,0,0,0,0,0,0,0,0,0,0,0,0,0,0,0,0,0,0,0,0,0,0,0,0,0,0,0,0,0,0,0,0,0,0,0,0,0,0,0,0,0,0,0,0,0,0,0,
0,0,0,0,0,0,0,0,0,0,0,0,0,0,0,0,0,0,0,0,0,0,0,0,0,0,0,0,0,0,0,0,0,0,0,0,0,0,0,0,0,0,0,0,0,0,0,0,0,0,0,0,0,0,0,0,0,0,0,0,0,0,0,0,
0,0,0,0,0,0,0,0,0,0,0,0,0,0,0,0,0,0,0,0,0,0,0,0,0,0,0,0,0,0,0,0,0,0,0,0,0,0,0,0,0,0,0,0,0,0,0,0,0,0,0,0,0,0,0,0,0,0,0,0,0,0,0,0,
0,0,0,0,0,0,0,0,0,0,0,0,0,0,0,0,0,0,0,0,0,0,0,0,0,0,0,0,0,0,0,0,0,0,0,0,0,0,0,0,0,0,0,0,0,0,0,0,0,0,0,0,0,0,0,0,0,0,0,0,0,0,0,0,
0,0,0,0,0,0,0,0,0,0,0,0,0,0,0,0,0,0,0,0,0,0,0,0,0,0,0,0,0,0,0,0,0,0,0,0,0,0,0,0,0,0,0,0,0,0,0,0,0,0,0,0,0,0,0,0,0,0,0,0,0,0,0,0,
0,0,0,0,0,0,0,0,0,0,0,0,0,0,0,0,0,0,0,0,0,0,0,0,0,0,0,0,0,0,0,0,0,0,0,0,0,0,0,0,0,0,0,0,0,0,0,0,0,0,0,0,0,0,0,0,0,0,0,0,0,0,0,0,
0,0,0,0,0,0,0,0,0,0,0,0,0,0,0,0,0,0,0,0,0,0,0,0,0,0,0,0,0,0,0,0,0,0,0,0,0,0,0,0,0,0,0,0,0,0,0,0,0,0,0,0,0,0,0,0,0,0,0,0,0,0,0,0,
0,0,0,0,0,0,0,0,0,0,0,0,0,0,0,0,0,0,0,0,0,0,0,0,0,0,0,0,0,0,0,0,0,0,0,0,0,0,0,0,0,0,0,0,0,0,0,0,0,0,0,0,0,0,0,0,0,0,0,0,0,0,0,0,
0,0,0,0,0,0,0,0,0,0,0,0,0,0,0,0,0,0,0,0,0,0,0,0,0,0,0,0,0,0,0,0,0,0,0,0,0,0,0,0,0,0,0,0,0,0,0,0,0,0,0,0,0,0,0,0,0,0,0,0,0,0,0,0,
0,0,0,0,0,0,0,0,0,0,0,0,0,0,0,0,0,0,0,0,0,0,0,0,0,0,0,0,0,0,0,0,0,0,0,0,0,0,0,0,0,0,0,0,0,0,0,0,0,0,0,0,0,0,0,0,0,0,0,0,0,0,0,0,
0,0,0,0,0,0,0,0,0,0,0,0,0,0,0,0,0,0,0,0,0,0,0,0,0,0,0,0,0,0,0,0,0,0,0,0,0,0,0,0,0,0,0,0,0,0,0,0,0,0,0,0,0,0,0,0,0,0,0,0,0,0,0,0,
0,0,0,0,0,0,0,0,0,0,0,0,0,0,0,0,0,0,0,0,0,0,0,0,0,0,0,0,0,0,0,0,0,0,0,0,0,0,0,0,0,0,0,0,0,0,0,0,0,0,0,0,0,0,0,0,0,0,0,0,0,0,0,0,
0,0,0,0,0,0,0,0,0,0,0,0,0,0,0,0,0,0,0,0,0,0,0,0,0,0,0,0,0,0,0,0,0,0,0,0,0,0,0,0,0,0,0,0,0,0,0,0,0,0,0,0,0,0,0,0,0,0,0,0,0,0,0,0,
0,0,0,0,0,0,0,0,0,0,0,0,0,0,0,0,0,0,0,0,0,0,0,0,0,0,0,0,0,0,0,0,0,0,0,0,0,0,0,0,0,0,0,0,0,0,0,0,0,0,0,0,0,0,0,0,0,0,0,0,0,0,0,0,
0,0,0,0,0,0,0,0,0,0,0,0,0,0,0,0,0,0,0,0,0,0,0,0,0,0,0,0,0,0,0,0,0,0,0,0,0,0,0,0,0,0,0,0,0,0,0,0,0,0,0,0,0,0,0,0,0,0,0,0,0,0,0,0,
0,0,0,0,0,0,0,0,0,0,0,0,0,0,0,0,0,0,0,0,0,0,0,0,0,0,0,0,0,0,0,0,0,0,0,0,0,0,0,0,0,0,0,0,0,0,0,0,0,0,0,0,0,0,0,0,0,0,0,0,0,0,0,0,
0,0,0,0,0,0,0,0,0,0,0,0,0,0,0,0,0,0,0,0,0,0,0,0,0,0,0,0,0,0,0,0,0,0,0,0,0,0,0,0,0,0,0,0,0,0,0,0,0,0,0,0,0,0,0,0,0,0,0,0,0,0,0,0,
0,0,0,0,0,0,0,0,0,0,0,0,0,0,0,0,0,0,0,0,0,0,0,0,0,0,0,0,0,0,0,0,0,0,0,0,0,0,0,0,0,0,0,0,0,0,0,0,0,0,0,0,0,0,0,0,0,0,0,0,0,0,0,0,
0,0,0,0,0,0,0,0,0,0,0,0,0,0,0,0,0,0,0,0,0,0,0,0,0,0,0,0,0,0,0,0,0,0,0,0,0,0,0,0,0,0,0,0,0,0,0,0,0,0,0,0,0,0,0,0,0,0,0,0,0,0,0,0,
0,0,0,0,0,0,0,0,0,0,0,0,0,0,0,0,0,0,0,0,0,0,0,0,0,0,0,0,0,0,0,0,0,0,0,0,0,0,0,0,0,0,0,0,0,0,0,0,0,0,0,0,0,0,0,0,0,0,0,0,0,0,0,0,
0,0,0,0,0,0,0,0,0,0,0,0,0,0,0,0,0,0,0,0,0,0,0,0,0,0,0,0,0,0,0,0,0,0,0,0,0,0,0,0,0,0,0,0,0,0,0,0,0,0,0,0,0,0,0,0,0,0,0,0,0,0,0,0,
0,0,0,0,0,0,0,0,0,0,0,0,0,0,0,0,0,0,0,0,0,0,0,0,0,0,0,0,0,0,0,0,0,0,0,0,0,0,0,0,0,0,0,0,0,0,0,0,0,0,0,0,0,0,0,0,0,0,0,0,0,0,0,0,
0,0,0,0,0,0,0,0,0,0,0,0,0,0,0,0,0,0,0,0,0,0,0,0,0,0,0,0,0,0,0,0,0,0,0,0,0,0,0,0,0,0,0,0,0,0,0,0,0,0,0,0,0,0,0,0,0,0,0,0,0,0,0,0,
0,0,0,0,0,0,0,0,0,0,0,0,0,0,0,0,0,0,0,0,0,0,0,0,0,0,0,0,0,0,0,0,0,0,0,0,0,0,0,0,0,0,0,0,0,0,0,0,0,0,0,0,0,0,0,0,0,0,0,0,0,0,0,0,
0,0,0,0,0,0,0,0,0,0,0,0,0,0,0,0,0,0,0,0,0,0,0,0,0,0,0,0,0,0,0,0,0,0,0,0,0,0,0,0,0,0,0,0,0,0,0,0,0,0,0,0,0,0,0,0,0,0,0,0,0,0,0,0,
0,0,0,0,0,0,0,0,0,0,0,0,0,0,0,0,0,0,0,0,0,0,0,0,0,0,0,0,0,0,0,0,0,0,0,0,0,0,0,0,0,0,0,0,0,0,0,0,0,0,0,0,0,0,0,0,0,0,0,0,0,0,0,0,
0,0,0,0,0,0,0,0,0,0,0,0,0,0,0,0,0,0,0,0,0,0,0,0,0,0,0,0,0,0,0,0,0,0,0,0,0,0,0,0,0,0,0,0,0,0,0,0,0,0,0,0,0,0,0,0,0,0,0,0,0,0,0,0,
0,0,0,0,0,0,0,0,0,0,0,0,0,0,0,0,0,0,0,0,0,0,0,0,0,0,0,0,0,0,0,0,0,0,0,0,0,0,0,0,0,0,0,0,0,0,0,0,0,0,0,0,0,0,0,0,0,0,0,0,0,0,0,0
</data>
 </layer>
 <layer id="11" name="Fog2" width="64" height="48">
  <data encoding="csv">
0,0,352,353,353,353,353,354,0,0,0,0,0,0,0,0,0,0,352,353,354,352,353,353,353,398,365,0,0,0,0,0,0,0,0,0,0,0,0,0,363,397,353,354,0,0,0,0,0,0,0,0,0,0,0,352,353,353,354,0,0,0,0,0,
352,353,398,364,364,364,364,397,353,353,353,353,353,354,0,352,353,353,398,364,397,398,364,364,386,375,376,0,0,0,0,0,0,0,0,0,0,0,0,0,374,375,387,397,353,354,0,0,0,0,352,354,0,0,352,398,364,364,397,354,0,0,0,0,
363,364,364,364,364,386,375,375,387,364,386,375,376,352,353,398,364,364,364,364,364,364,364,386,376,0,0,0,0,0,0,0,0,0,0,0,0,0,0,0,0,0,374,375,375,376,0,0,0,0,363,397,354,0,374,375,375,387,364,397,353,354,0,0,
363,364,386,375,375,376,0,0,374,375,376,352,353,398,364,386,375,387,364,364,386,375,375,376,0,0,0,0,0,0,0,0,0,0,0,352,353,354,0,0,0,0,0,0,0,0,0,0,0,0,374,387,397,354,0,0,0,374,375,375,375,376,0,0,
363,364,365,0,0,0,0,0,0,0,0,374,375,375,375,376,0,374,375,375,376,0,0,0,0,0,0,0,0,0,0,0,0,352,353,398,386,376,0,352,354,0,0,0,0,0,0,0,0,0,0,374,387,397,354,0,0,0,0,0,0,0,352,353,
398,386,376,0,0,0,0,0,0,0,0,352,354,352,353,398,365,0,0,0,0,0,0,0,352,353,353,353,353,354,0,0,0,363,364,386,376,352,354,363,365,0,0,352,353,354,0,0,0,0,0,0,363,364,397,353,354,0,0,0,0,0,363,386,
386,376,352,353,353,354,0,0,0,0,352,398,397,398,386,375,376,0,0,0,0,0,0,0,374,375,375,387,364,397,354,0,0,374,375,376,0,374,376,374,376,352,353,398,364,397,354,352,354,0,0,0,363,364,364,364,365,352,354,352,353,353,398,365,
376,352,398,364,364,365,0,0,0,352,398,364,364,386,376,0,0,0,0,0,0,0,0,0,0,352,353,398,364,364,397,354,0,0,0,352,354,0,0,0,0,374,375,375,375,375,376,363,365,0,0,0,374,375,375,375,376,374,352,398,364,386,375,376,
0,374,375,375,387,397,354,0,0,374,375,375,375,376,0,0,0,0,0,0,0,0,0,0,0,363,364,364,386,387,364,365,0,352,353,398,365,0,0,0,0,0,0,0,0,0,0,363,397,353,354,354,0,0,0,0,352,353,398,364,386,376,0,0,
0,0,0,0,374,375,376,0,0,0,0,0,0,0,0,0,0,0,352,353,354,0,0,352,353,398,364,386,376,374,375,376,0,363,364,386,376,0,0,0,0,0,352,354,0,0,0,374,375,375,376,376,0,0,0,0,374,375,375,375,376,0,0,0,
0,0,0,352,354,0,352,353,353,354,0,0,0,0,0,352,353,353,398,386,376,0,0,363,386,375,375,376,0,0,0,0,0,363,386,376,0,0,0,0,352,354,363,365,0,0,0,0,0,0,0,0,0,0,0,0,0,352,354,0,0,0,0,0,
0,0,352,398,397,353,398,364,386,376,0,0,0,352,353,398,364,364,386,376,0,0,0,374,376,0,0,0,0,0,0,0,0,374,376,0,0,0,0,352,398,365,0,352,353,354,0,0,0,352,353,353,353,353,353,353,353,398,365,0,0,0,0,0,
0,0,374,375,375,387,386,375,376,0,0,0,0,374,375,375,375,375,376,0,0,0,0,0,0,0,0,0,0,0,0,0,0,0,0,0,0,0,0,363,364,397,353,398,364,365,0,0,352,398,364,364,364,364,364,386,375,375,376,0,0,0,0,0,
0,0,0,0,0,374,375,376,0,0,0,0,0,0,0,0,0,0,0,0,0,0,0,352,353,354,0,0,0,0,0,0,0,0,0,0,0,352,353,398,364,364,386,375,375,376,352,353,398,364,386,375,375,375,375,376,352,354,0,0,0,0,0,0,
0,0,0,0,0,0,0,0,0,0,0,0,0,0,0,352,353,354,0,0,0,0,352,398,364,365,0,0,0,0,352,353,354,0,0,352,353,398,386,375,375,375,376,0,0,0,374,375,375,375,376,0,0,0,374,375,387,365,0,0,0,0,0,0,
0,0,0,0,0,352,354,352,353,354,0,0,0,0,0,374,387,397,353,354,0,0,374,375,375,376,0,0,0,352,398,364,397,354,0,374,375,375,376,0,0,0,0,0,0,352,353,354,0,0,0,0,0,0,0,0,363,397,353,353,353,353,353,354,
0,0,0,0,0,363,397,398,364,397,353,354,0,0,0,0,374,387,364,365,0,0,0,0,0,352,353,354,0,374,375,375,375,376,0,0,0,0,0,0,0,0,0,0,0,374,375,387,365,0,0,0,0,0,0,0,374,375,375,375,375,387,364,397,
0,0,0,0,352,386,375,375,375,375,387,365,0,0,0,0,0,374,387,397,354,0,0,0,0,363,364,397,353,354,0,0,0,0,0,0,0,0,0,0,0,0,0,0,0,0,352,398,397,354,0,0,0,352,354,0,0,0,0,0,0,374,375,375,
0,0,0,0,374,376,352,353,354,0,374,376,0,0,0,0,0,0,374,375,376,0,0,0,352,398,386,375,375,376,0,0,0,0,0,0,0,0,352,353,353,354,0,0,0,0,374,387,364,365,0,0,0,363,397,353,354,0,0,0,0,0,0,0,
0,0,0,0,352,353,398,364,397,353,353,354,0,0,0,0,0,0,0,0,352,353,354,0,363,386,376,0,0,0,0,0,0,0,352,354,0,0,374,375,387,397,353,354,0,0,0,363,364,397,353,353,354,374,375,375,376,0,0,0,0,0,0,0,
0,0,0,0,363,364,364,364,364,364,386,376,0,0,0,0,0,0,352,354,363,364,397,354,374,376,0,352,353,353,354,0,0,0,363,365,0,0,0,352,398,364,364,365,0,0,0,374,375,387,364,364,397,354,0,0,0,0,0,352,354,0,0,0,
352,354,352,353,398,364,386,375,375,375,376,0,0,0,0,0,0,352,398,365,374,375,375,376,352,353,353,398,386,375,376,0,0,352,398,365,0,0,0,374,375,375,387,397,354,0,0,0,0,374,375,375,387,365,352,354,0,0,0,363,397,354,0,0,
363,397,398,364,364,364,397,353,354,0,0,0,0,0,0,0,0,374,375,376,0,0,0,0,374,375,387,386,376,0,352,354,352,398,386,376,0,0,0,0,0,0,374,375,376,0,0,0,0,0,0,0,374,376,363,397,353,353,354,374,375,376,0,0,
398,364,364,364,386,387,364,364,397,353,354,0,0,0,0,0,0,352,353,353,354,0,0,0,0,0,374,376,0,0,374,376,374,375,376,0,0,0,0,0,0,0,0,0,0,0,0,0,0,0,0,0,352,353,398,364,364,364,397,354,0,0,0,0,
375,375,375,375,376,374,375,387,364,364,365,0,0,0,0,0,0,374,375,387,397,353,354,0,352,354,0,0,0,0,0,0,0,0,0,0,0,0,0,0,0,0,0,0,0,0,0,0,0,0,352,353,398,364,364,364,364,364,364,397,353,353,354,0,
0,0,0,0,0,0,0,374,375,375,376,0,352,353,354,352,353,354,0,374,375,387,365,0,363,397,353,354,0,0,0,0,0,352,354,0,0,0,0,0,0,0,0,0,0,0,0,0,0,0,374,375,375,375,375,375,375,375,387,364,364,386,376,0,
0,0,0,0,0,0,0,0,0,0,0,352,398,364,397,398,386,376,0,0,0,363,397,354,374,387,364,397,353,353,353,354,0,363,397,354,0,0,0,0,0,352,354,0,0,0,0,0,0,0,0,0,0,0,0,0,0,0,374,375,375,376,0,0,
0,0,0,0,0,0,0,0,0,0,352,398,386,387,386,375,376,0,0,0,0,374,375,376,0,363,364,364,364,364,364,397,354,374,375,376,0,0,0,0,352,398,397,354,0,0,0,0,0,0,0,0,0,0,0,0,0,0,0,0,0,0,0,0,
0,0,0,0,0,0,0,352,354,0,363,364,365,374,376,0,0,0,0,0,0,0,352,354,0,374,375,387,364,364,364,364,397,353,354,0,0,352,353,353,398,364,364,397,353,353,354,0,0,0,0,0,0,0,0,0,0,0,0,0,0,0,0,0,
0,0,352,354,0,0,0,374,376,352,398,386,376,0,0,352,353,353,354,0,0,0,363,397,353,354,0,374,387,364,364,364,364,364,397,354,0,374,375,375,375,375,375,375,375,387,397,354,0,0,0,0,0,0,0,0,0,0,0,0,0,0,0,0,
353,354,363,397,354,0,0,0,0,374,375,376,0,0,0,374,375,387,397,354,354,0,374,387,364,365,0,0,374,375,375,375,375,387,364,365,0,0,0,0,0,0,0,0,0,374,375,376,0,0,0,0,0,0,0,0,0,0,0,0,0,0,0,0,
387,397,398,364,397,353,353,354,0,0,0,0,0,0,0,0,0,374,375,376,376,0,0,363,364,397,354,0,0,0,0,0,0,374,387,397,353,353,354,0,0,0,0,0,0,0,0,0,0,0,0,0,0,0,0,0,0,0,0,0,0,0,0,0,
374,375,387,364,364,364,364,397,354,0,0,352,353,353,354,0,0,0,0,0,352,353,354,374,375,375,376,0,0,0,0,0,0,0,374,375,375,375,376,0,0,0,0,0,0,0,0,0,0,0,352,353,354,0,0,0,0,0,352,353,353,353,353,353,
0,0,374,375,387,386,375,387,397,354,0,363,364,364,397,353,353,354,0,0,374,387,397,354,0,0,0,0,0,0,0,0,0,0,0,0,0,0,0,0,0,0,352,353,354,352,354,0,352,353,398,364,397,353,353,354,0,0,363,386,387,364,386,375,
0,0,0,0,374,376,0,374,387,365,0,363,364,364,386,375,375,376,352,353,354,363,364,397,354,0,0,0,0,0,0,0,0,0,0,0,0,0,0,0,0,352,398,364,397,398,365,0,374,375,375,375,387,364,364,397,354,0,374,376,374,375,376,0,
0,0,0,0,0,0,0,0,374,376,0,374,375,387,397,354,0,0,363,386,376,374,375,387,397,354,0,0,0,0,0,0,0,0,0,352,353,353,353,354,0,363,386,375,375,375,376,0,0,0,0,0,374,375,375,387,397,354,0,0,0,0,0,0,
0,0,0,0,0,0,0,0,0,0,0,0,0,363,364,397,354,0,374,376,0,0,0,374,375,376,0,0,352,353,354,0,0,0,0,363,364,364,386,376,0,374,376,0,0,0,0,0,0,0,0,352,354,0,0,374,387,376,0,0,0,0,0,0,
0,0,0,0,0,0,0,0,0,0,0,352,353,398,364,364,365,0,0,0,0,0,0,0,0,0,0,0,374,387,397,354,0,0,352,398,364,386,376,352,0,0,352,353,354,0,0,0,0,0,0,363,397,354,0,0,374,352,353,354,0,0,0,0,
0,0,0,0,352,354,0,0,0,0,0,374,387,386,375,375,376,0,0,0,0,0,0,0,0,0,0,0,0,374,375,376,352,354,374,375,375,376,0,374,352,353,398,364,365,0,0,0,0,0,0,374,375,376,0,0,0,363,364,397,353,353,354,0,
0,0,352,353,398,365,352,354,0,0,0,0,374,376,0,0,0,0,0,0,0,0,0,0,0,0,352,353,354,0,352,353,398,376,0,0,0,0,0,0,374,375,375,387,397,353,354,0,0,0,0,0,0,0,0,0,0,374,387,364,364,386,376,0,
0,0,363,364,386,376,363,397,353,353,354,0,0,0,0,0,0,0,0,0,0,0,0,352,353,353,398,364,397,354,363,364,365,0,0,0,0,0,0,0,0,0,0,374,375,375,376,0,0,0,0,0,0,0,0,0,0,0,374,375,375,376,0,0,
0,352,398,386,376,0,374,387,364,364,397,354,0,0,0,0,0,0,0,0,0,0,352,398,364,386,375,375,387,397,398,386,376,0,0,0,0,0,0,0,0,0,0,0,0,0,352,354,352,353,354,0,0,352,354,352,354,352,354,0,0,0,0,0,
352,398,386,376,0,0,0,374,375,375,387,365,0,0,0,352,353,354,0,0,0,0,374,387,386,376,352,354,363,386,375,376,0,0,0,0,0,0,0,0,0,0,0,0,0,352,398,397,398,386,376,0,352,398,397,398,397,398,397,353,354,0,0,0,
374,375,376,0,0,0,0,0,0,0,374,376,0,0,352,398,364,397,354,0,352,353,354,363,365,0,363,397,398,365,0,352,354,0,0,0,0,0,0,0,0,0,0,352,353,398,364,386,375,376,352,353,398,364,364,386,375,375,387,364,397,353,353,353,
0,0,0,352,353,354,0,0,0,0,0,352,353,353,398,364,364,364,397,353,398,364,365,374,376,352,398,386,376,352,353,398,397,353,354,0,0,0,0,0,0,352,353,398,364,386,375,376,0,0,374,375,387,364,386,376,0,0,374,387,364,364,364,364,
0,0,352,398,364,397,353,353,354,352,353,398,364,364,364,386,387,364,386,375,375,375,376,0,0,374,375,376,0,363,364,386,375,375,376,0,0,0,0,0,0,374,375,375,375,376,0,0,0,0,0,0,374,375,376,0,0,0,0,374,375,375,375,387,
0,0,374,375,375,387,364,386,376,363,386,375,375,375,375,376,374,375,376,0,0,0,0,0,0,0,0,0,0,363,386,376,0,0,0,0,0,0,0,0,0,0,0,0,0,0,0,0,0,0,0,0,0,0,0,0,0,0,0,0,0,0,0,374,
0,0,0,0,0,374,375,376,0,374,376,0,0,0,0,0,0,0,0,0,0,0,0,0,0,0,0,0,0,363,365,0,0,0,0,0,0,0,0,0,0,0,0,0,0,0,0,0,0,0,0,0,0,0,0,0,0,0,0,0,0,0,0,0
</data>
 </layer>
 <objectgroup id="12" name="Walls">
  <object id="84" x="783.909" y="128" width="16" height="32"/>
  <object id="85" x="783.909" y="111.909" width="16" height="32"/>
  <object id="86" x="800.091" y="127.818" width="16" height="32"/>
  <object id="87" x="912.13" y="112.043" width="16" height="32"/>
  <object id="88" x="928.166" y="112.043" width="16" height="32"/>
  <object id="89" x="960" y="159.909" width="16" height="32"/>
  <object id="90" x="959.818" y="176" width="16" height="32"/>
  <object id="91" x="943.818" y="175.909" width="16" height="32"/>
  <object id="92" x="896.091" y="176.091" width="16" height="32"/>
  <object id="93" x="880" y="176.091" width="16" height="32"/>
  <object id="94" x="944.043" y="240.043" width="16" height="32"/>
  <object id="95" x="928" y="256.043" width="16" height="32"/>
  <object id="96" x="912.087" y="256.087" width="16" height="32"/>
  <object id="97" x="896.182" y="288.273" width="16" height="32"/>
  <object id="98" x="768.333" y="-0.666667" width="255" height="32.6667"/>
  <object id="99" x="784" y="31.75" width="240" height="16"/>
  <object id="100" x="800" y="48.25" width="224" height="16"/>
  <object id="101" x="832" y="64.75" width="192" height="47.5"/>
  <object id="102" x="816.25" y="112" width="207.5" height="31.75"/>
  <object id="103" x="816" y="143.75" width="208" height="16.5"/>
  <object id="104" x="831.75" y="160.25" width="128" height="16"/>
  <object id="105" x="832" y="176.25" width="16.25" height="15.5"/>
  <object id="106" x="991.5" y="160.5" width="32.75" height="15.5"/>
  <object id="107" x="991.75" y="176" width="16.25" height="15.75"/>
  <object id="108" x="928" y="176.5" width="15.75" height="15.5"/>
  <object id="109" x="751.5" y="-0.75" width="80" height="144.75"/>
  <object id="110" x="703.75" y="-0.25" width="32" height="16.25"/>
  <object id="111" x="719.75" y="16" width="31.75" height="16"/>
  <object id="112" x="735.75" y="31.75" width="16" height="16.5"/>
  <object id="113" x="704.25" y="48" width="15.75" height="31.75"/>
  <object id="114" x="719.75" y="64" width="31.75" height="32"/>
  <object id="115" x="895.5" y="271.75" width="113.25" height="16.5"/>
  <object id="116" x="896" y="288.25" width="128" height="207.75"/>
  <object id="117" x="832.25" y="288.25" width="31.5" height="31.75"/>
  <object id="118" x="831.75" y="303.75" width="64.25" height="160.5"/>
  <object id="119" x="847.75" y="464.25" width="48" height="15.75"/>
  <object id="120" x="864" y="480" width="31.75" height="16"/>
  <object id="121" x="816" y="336" width="15.5" height="96"/>
  <object id="122" x="95.6667" y="-0.333333" width="369" height="32"/>
  <object id="123" x="464" y="0" width="128" height="32.125"/>
  <object id="124" x="592" y="-0.125" width="16" height="31.875"/>
  <object id="125" x="575.75" y="15.875" width="16.375" height="32.125"/>
  <object id="126" x="111.667" y="31.3333" width="400" height="16.3333"/>
  <object id="127" x="127.667" y="47.6667" width="384" height="16"/>
  <object id="128" x="511.75" y="32.5" width="16.25" height="15.25"/>
  <object id="129" x="543.875" y="31.875" width="16.125" height="48.125"/>
  <object id="130" x="560" y="48.375" width="15.75" height="31.375"/>
  <object id="131" x="527.75" y="47.875" width="16.25" height="48.25"/>
  <object id="132" x="512" y="80.125" width="15.875" height="16.125"/>
  <object id="133" x="495.875" y="95.75" width="16.125" height="16.125"/>
  <object id="134" x="143.75" y="64" width="288.25" height="15.75"/>
  <object id="135" x="415.875" y="63.875" width="63.875" height="31.875"/>
  <object id="136" x="447.875" y="95.875" width="32.25" height="16.125"/>
  <object id="137" x="479.625" y="80" width="16.5" height="15.875"/>
  <object id="138" x="144" y="79.75" width="272" height="16"/>
  <object id="139" x="144" y="95.75" width="240.25" height="16.25"/>
  <object id="140" x="159.75" y="112.5" width="192.25" height="15.25"/>
  <object id="141" x="207.5" y="127.5" width="144.75" height="16.5"/>
  <object id="142" x="239.75" y="144.25" width="63.75" height="15.75"/>
  <object id="143" x="79.3333" y="687.667" width="370" height="80"/>
  <object id="144" x="449" y="687.5" width="111" height="80.5"/>
  <object id="145" x="591" y="688" width="432.5" height="79.5"/>
  <object id="146" x="560.25" y="703.5" width="30.5" height="64.25"/>
  <object id="147" x="0.25" y="639.5" width="79" height="128"/>
  <object id="148" x="0" y="-0.5" width="79.5" height="640"/>
  <object id="149" x="79.4545" y="224" width="16.9091" height="15.8182"/>
  <object id="150" x="79" y="-0.5" width="65" height="240.75"/>
  <object id="151" x="144" y="112" width="64.25" height="112.25"/>
  <object id="152" x="207.5" y="143.75" width="16.5" height="32.25"/>
  <object id="153" x="223.5" y="176" width="32.25" height="15.75"/>
  <object id="154" x="240" y="191.5" width="16" height="16.25"/>
  <object id="155" x="175.875" y="224" width="16.125" height="15.875"/>
  <object id="156" x="271.875" y="160.125" width="31.875" height="31.625"/>
  <object id="157" x="143.636" y="224" width="32" height="8.36364"/>
  <object id="158" x="288" y="239.875" width="64" height="74.125"/>
  <object id="159" x="352" y="240" width="16" height="16"/>
  <object id="160" x="352.182" y="266" width="47.8182" height="133.818"/>
  <object id="161" x="400" y="271.636" width="16" height="15.8182"/>
  <object id="162" x="399.818" y="239.818" width="32" height="32"/>
  <object id="163" x="399.818" y="292.545" width="23.6364" height="116"/>
  <object id="164" x="423.636" y="306" width="8.90909" height="86.1818"/>
  <object id="165" x="432.182" y="313.455" width="16.1818" height="86.5455"/>
  <object id="166" x="448.182" y="319.818" width="16" height="80.3636"/>
  <object id="167" x="294.125" y="314" width="57.875" height="38.125"/>
  <object id="168" x="326.125" y="352.375" width="26" height="8.5"/>
  <object id="169" x="335.75" y="360.875" width="16.375" height="54.875"/>
  <object id="170" x="367.75" y="399.5" width="16.125" height="48.75"/>
  <object id="171" x="352.125" y="415.875" width="15.625" height="32.375"/>
  <object id="172" x="127.5" y="672.25" width="224.25" height="15.5"/>
  <object id="173" x="175" y="655.75" width="176.75" height="16"/>
  <object id="174" x="160" y="511.636" width="59.4545" height="144.182"/>
  <object id="176" x="219.636" y="567.818" width="13.4545" height="87.6364"/>
  <object id="177" x="232.909" y="584.545" width="16.3636" height="71.4545"/>
  <object id="179" x="248.909" y="599.818" width="16" height="56.1818"/>
  <object id="180" x="264.182" y="607.455" width="8.18182" height="48.7273"/>
  <object id="181" x="287.818" y="624.182" width="32" height="31.4545"/>
  <object id="182" x="272.727" y="639.818" width="15.0909" height="15.6364"/>
  <object id="183" x="79.25" y="287.25" width="16.75" height="400.25"/>
  <object id="184" x="96" y="367.75" width="63.25" height="320"/>
  <object id="185" x="111.875" y="240" width="32.125" height="16.125"/>
  <object id="186" x="111.75" y="320.125" width="16.375" height="16"/>
  <object id="187" x="111.875" y="351.875" width="32" height="15.75"/>
  <object id="188" x="159.75" y="335.875" width="32.375" height="32.375"/>
  <object id="189" x="159.5" y="383.75" width="32" height="48"/>
  <object id="190" x="543.625" y="176.125" width="32.25" height="63.875"/>
  <object id="194" x="543.5" y="240" width="32.5" height="64.125"/>
  <object id="195" x="527.875" y="256" width="15.75" height="16.125"/>
  <object id="196" x="511.75" y="240" width="16.25" height="15.875"/>
  <object id="197" x="527.875" y="207.625" width="15.875" height="32.25"/>
  <object id="198" x="527.875" y="175.875" width="15.625" height="16.125"/>
  <object id="199" x="543.875" y="159.875" width="112.625" height="48"/>
  <object id="200" x="575.875" y="128.125" width="32.25" height="31.625"/>
  <object id="201" x="608" y="149.625" width="22.875" height="10.375"/>
  <object id="202" x="656.375" y="175.75" width="15.75" height="16"/>
  <object id="203" x="656.625" y="191.5" width="7.75" height="48.5"/>
  <object id="204" x="664.125" y="207.875" width="8.125" height="32.25"/>
  <object id="205" x="639.625" y="207.625" width="16.625" height="48.5"/>
  <object id="206" x="575.875" y="207.875" width="63.75" height="41.375"/>
  <object id="207" x="575.875" y="249" width="48.25" height="38.75"/>
  <object id="208" x="703.818" y="288" width="128" height="96.1818"/>
  <object id="209" x="687.818" y="272" width="32.1818" height="16.1818"/>
  <object id="210" x="719.818" y="279.818" width="96.5455" height="8"/>
  <object id="211" x="783.455" y="384.727" width="32.9091" height="31.2727"/>
  <object id="212" x="671.5" y="337.5" width="352" height="174.5"/>
  <object id="216" x="703" y="512" width="320.333" height="16"/>
  <object id="217" x="730" y="527.818" width="13.4545" height="7.27273"/>
  <object id="218" x="735.818" y="527.818" width="288.455" height="16.1818"/>
  <object id="219" x="759" y="544.333" width="267" height="8.33333"/>
  <object id="220" x="927.333" y="552.667" width="97.3333" height="23.6667"/>
  <object id="221" x="944" y="576.667" width="79.6667" height="14.6667"/>
  <object id="222" x="967.333" y="591.333" width="57.3333" height="96.3333"/>
  <object id="223" x="943.333" y="607.667" width="24.3333" height="80.3333"/>
  <object id="224" x="950.333" y="598" width="17.3333" height="9"/>
  <object id="225" x="879.667" y="607.333" width="31.6667" height="80.3333"/>
  <object id="226" x="911.333" y="656" width="32" height="32.3333"/>
  <object id="227" x="863.333" y="639.667" width="16.3333" height="48.3333"/>
  <object id="228" x="382.667" y="431" width="240.667" height="128.333"/>
  <object id="230" x="575.25" y="416.5" width="64.75" height="127.75"/>
  <object id="231" x="639.25" y="447" width="16.25" height="81.25"/>
  <object id="232" x="655.75" y="447.5" width="16.25" height="64.75"/>
  <object id="233" x="656" y="416" width="15.5" height="16"/>
  <object id="234" x="463.75" y="383.5" width="176.25" height="48"/>
  <object id="235" x="624" y="367.75" width="31.75" height="32.5"/>
  <object id="236" x="655.75" y="336" width="32.5" height="32"/>
  <object id="237" x="591.5" y="335.75" width="32.5" height="48"/>
  <object id="238" x="624" y="335.5" width="16" height="16.75"/>
  <object id="239" x="527.75" y="367.75" width="63.75" height="16.25"/>
  <object id="240" x="543.818" y="335.909" width="32.0909" height="31.7273"/>
  <object id="242" x="463.455" y="303.818" width="16.5455" height="80"/>
  <object id="243" x="479.818" y="319.636" width="16.1818" height="64"/>
  <object id="244" x="495.636" y="319.455" width="32.5455" height="16.5455"/>
  <object id="245" x="511.455" y="351.636" width="16.5455" height="16.1818"/>
  <object id="246" x="320" y="224" width="32.125" height="15.875"/>
  <object id="247" x="288" y="224" width="16" height="15.875"/>
  <object id="248" x="255.636" y="255.636" width="32.5455" height="53.0909"/>
  <object id="249" x="240" y="287.818" width="32.1818" height="32.1818"/>
  <object id="250" x="224" y="287.636" width="16.3636" height="16"/>
  <object id="251" x="239.75" y="256.125" width="15.875" height="15.875"/>
  <object id="252" x="335.875" y="175.875" width="32" height="16"/>
  <object id="253" x="352" y="160.125" width="16.125" height="15.625"/>
  <object id="254" x="367.875" y="527.875" width="32.375" height="32.125"/>
  <object id="255" x="383.875" y="560.063" width="16" height="16"/>
  <object id="256" x="399.813" y="576.25" width="16.25" height="31.625"/>
  <object id="257" x="384" y="591.938" width="15.75" height="16"/>
  <object id="258" x="447.75" y="576" width="32" height="32.25"/>
  <object id="259" x="432" y="575.25" width="15.5" height="17"/>
  <object id="260" x="496.5" y="575.75" width="15.75" height="16.25"/>
  <object id="261" x="512" y="591.75" width="15.75" height="16.5"/>
  <object id="262" x="543.25" y="591.5" width="16.75" height="17"/>
  <object id="263" x="527.5" y="559" width="48.5" height="17"/>
  <object id="264" x="607.875" y="31.75" width="16.25" height="64.25"/>
  <object id="265" x="591.5" y="63.875" width="16.25" height="16.25"/>
  <object id="266" x="624.25" y="47.375" width="31.625" height="48.625"/>
  <object id="267" x="639.75" y="32" width="32" height="32.125"/>
  <object id="268" x="671.75" y="31.75" width="16.625" height="64.75"/>
  <object id="269" x="688.25" y="79.875" width="15.5" height="16.5"/>
  <object id="270" x="159.273" y="447.636" width="16.3636" height="16.3636"/>
  <object id="271" x="175.455" y="448.364" width="16.7273" height="31.2727"/>
  <object id="272" x="191.455" y="430.909" width="32.3636" height="64.9091"/>
  <object id="273" x="191.818" y="367.273" width="48" height="16.9091"/>
  <object id="274" x="223.636" y="384.364" width="16.3636" height="31.8182"/>
  <object id="275" x="255.818" y="384" width="16.1818" height="32.1818"/>
  <object id="276" x="239.455" y="415.818" width="16.5455" height="32.1818"/>
  <object id="277" x="223.455" y="431.636" width="16.5455" height="32.5455"/>
  <object id="278" x="320" y="367.818" width="16" height="16.3636"/>
  <object id="279" x="976" y="239.818" width="31.6364" height="15.8182"/>
  <object id="280" x="959.636" y="255.636" width="16.7273" height="16.3636"/>
  <object id="281" x="991.818" y="256" width="16.3636" height="16.1818"/>
  <object id="282" x="912.182" y="239.818" width="16" height="16.1818"/>
  <object id="283" x="864" y="240" width="32" height="32.7273"/>
  <object id="284" x="719.818" y="112" width="16" height="15.8182"/>
  <object id="285" x="720" y="143.818" width="16.1818" height="32.3636"/>
  <object id="286" x="383.818" y="223.636" width="15.8182" height="16.1818"/>
  <object id="287" x="415.636" y="223.636" width="16.3636" height="16.5455"/>
  <object id="288" x="495.636" y="192" width="16.3636" height="32"/>
  <object id="289" x="271.909" y="319.909" width="16.2727" height="16.1818"/>
  <object id="290" x="287.818" y="464.091" width="32.1818" height="31.9091"/>
  <object id="291" x="303.909" y="448" width="32" height="31.9091"/>
  <object id="292" x="288" y="511.957" width="16.087" height="16.0435"/>
  <object id="293" x="271.813" y="528.063" width="32" height="31.9375"/>
  <object id="294" x="319.909" y="575.909" width="32.1818" height="32"/>
  <object id="295" x="351.636" y="671.636" width="16.5455" height="16.0909"/>
  <object id="296" x="368" y="640" width="15.8182" height="32.0909"/>
  <object id="297" x="383.727" y="655.727" width="32.4545" height="32"/>
  <object id="298" x="416.125" y="664.125" width="116.875" height="23.5"/>
  <object id="299" x="423.188" y="648.063" width="49.8125" height="15.875"/>
  <object id="300" x="447.938" y="639.938" width="32.0625" height="16.125"/>
  <object id="301" x="496" y="656" width="31.9375" height="8.125"/>
  <object id="302" x="544.063" y="640.063" width="32.125" height="31.875"/>
  <object id="303" x="527.813" y="655.875" width="16.3125" height="16"/>
  <object id="304" x="576.375" y="655.938" width="15.8125" height="15.9375"/>
  <object id="305" x="533.125" y="672.063" width="27" height="16"/>
  <object id="306" x="607.75" y="624.125" width="16.75" height="65.75"/>
  <object id="307" x="624" y="607.875" width="16.125" height="16.125"/>
  <object id="308" x="624.25" y="639.875" width="16" height="48.125"/>
  <object id="309" x="639.5" y="640" width="32.75" height="48.125"/>
  <object id="310" x="656" y="623.875" width="16.125" height="16.125"/>
  <object id="311" x="672.125" y="655.875" width="111.75" height="32.125"/>
  <object id="312" x="703.875" y="639.875" width="16.125" height="16.125"/>
  <object id="313" x="735.875" y="623.75" width="32.125" height="32.25"/>
  <object id="314" x="783.75" y="639.5" width="48.125" height="16.5"/>
  <object id="316" x="831.636" y="656" width="31.7273" height="16.1818"/>
  <object id="317" x="831.636" y="656" width="31.7273" height="16.1818"/>
 </objectgroup>
 <objectgroup id="13" name="Portals">
  <object id="318" x="1008.13" y="203.125" width="15.5" height="41.625">
   <properties>
    <property name="targetMap" value="maps/intersectionMap.lua"/>
   </properties>
  </object>
 </objectgroup>
</map>
